P2
64 64
255
0
0
0
0
0
0
0
0
0
0
0
0
0
0
0
0
0
0
0
0
0
0
0
0
0
0
0
0
0
0
0
0
0
0
0
0
0
0
0
0
0
0
0
0
0
0
0
0
0
0
0
0
0
0
0
0
0
0
0
0
0
0
0
0
0
1
0
7
18
27
34
37
38
39
27
14
17
26
32
32
25
18
9
5
17
31
26
5
8
8
3
8
15
27
37
40
39
39
31
23
19
12
8
7
6
6
6
4
1
0
0
0
0
0
0
0
0
0
3
1
2
0
1
1
0
0
0
0
0
4
18
65
86
81
88
91
78
62
35
14
26
48
55
45
29
17
5
10
37
66
48
0
40
38
9
2
14
34
52
62
75
90
82
70
67
55
48
41
25
12
13
13
5
1
0
0
0
0
0
0
1
1
3
2
1
1
2
1
0
0
0
0
0
14
97
183
187
142
113
97
68
43
25
18
25
34
33
21
11
4
3
11
35
55
34
4
39
40
14
1
7
20
32
38
53
77
84
84
91
97
117
133
102
53
34
28
14
2
0
0
0
0
0
0
3
3
1
0
0
1
2
1
1
0
0
0
0
98
221
228
244
181
75
45
27
14
9
11
11
8
5
1
0
2
5
8
20
27
13
6
20
20
8
0
2
6
9
7
12
27
39
47
52
67
111
190
227
172
94
52
25
2
0
0
0
0
0
0
4
4
0
3
1
1
2
1
3
0
0
0
0
218
255
151
199
189
59
24
13
6
0
0
0
1
0
0
0
2
4
7
14
21
14
9
20
13
4
0
0
1
4
1
0
5
9
11
8
14
46
173
255
252
171
112
30
2
2
2
1
0
1
2
2
2
1
3
2
1
1
0
3
0
0
0
0
255
255
103
56
112
70
47
38
27
13
9
6
4
4
1
1
1
2
9
14
20
18
7
22
14
4
0
0
0
3
2
0
2
7
15
21
30
52
145
219
178
243
195
24
1
5
4
2
1
1
3
2
7
9
4
2
1
0
0
1
0
0
0
0
255
255
160
8
3
17
33
48
43
25
15
11
10
9
4
4
0
5
5
4
7
9
3
15
11
1
3
5
8
11
17
21
25
30
35
37
38
52
66
34
114
255
233
4
21
15
9
4
3
13
18
14
13
17
16
9
4
1
0
1
1
0
0
0
255
255
228
52
4
23
3
17
18
8
1
1
1
1
0
3
23
38
27
18
17
1
21
22
12
3
2
8
12
15
27
37
43
41
21
1
25
34
34
33
169
255
179
34
20
11
8
3
6
17
28
46
55
38
26
24
13
4
1
2
2
0
0
0
255
255
253
93
33
7
3
6
4
0
1
0
7
10
9
14
39
66
70
71
70
7
61
56
29
18
9
0
1
1
7
14
22
27
9
14
46
71
53
5
217
255
68
40
58
7
13
10
3
8
18
28
82
125
75
33
27
14
3
1
1
0
0
0
255
255
255
98
41
1
5
13
11
7
11
8
3
8
8
9
20
42
63
80
81
14
65
69
40
24
13
4
1
2
3
4
17
29
28
10
31
55
30
38
199
98
19
118
96
0
26
17
2
39
67
2
15
158
216
100
38
30
8
1
0
1
0
0
255
255
255
101
45
0
3
11
12
9
12
10
0
3
3
3
5
15
29
41
38
8
28
40
27
13
7
1
4
4
3
14
29
36
40
16
40
53
23
45
128
14
42
51
32
8
15
6
12
61
136
52
87
62
255
255
97
37
21
4
0
2
0
0
255
255
255
105
50
0
1
9
12
11
12
10
1
1
2
5
8
12
13
16
14
4
6
15
14
6
2
1
3
4
6
18
31
34
39
12
47
48
25
24
48
7
12
4
0
32
66
37
28
47
54
88
30
5
217
255
246
65
34
11
0
2
0
0
253
255
255
110
53
1
0
8
12
13
12
10
3
0
3
7
10
11
7
8
9
3
2
6
10
7
1
3
2
4
8
20
32
33
34
6
46
31
23
6
10
5
19
28
97
208
202
83
63
183
195
63
10
9
94
255
255
174
43
23
1
3
0
0
237
255
255
114
55
3
1
8
13
14
12
10
4
0
4
8
9
9
7
6
5
2
0
2
6
6
1
4
3
3
8
21
32
33
30
3
44
2
17
39
2
10
27
109
255
255
192
52
31
138
255
255
161
17
40
197
255
255
85
32
6
3
0
0
220
255
255
119
56
5
2
8
14
13
12
11
4
0
4
8
8
8
7
5
5
3
0
3
4
2
1
4
2
1
9
23
32
35
33
9
43
25
14
68
8
21
53
255
255
255
49
4
1
25
129
255
255
155
25
91
255
255
192
38
16
1
0
0
203
255
255
125
58
8
1
7
12
12
13
12
4
0
4
8
7
7
6
4
6
4
0
3
3
1
1
4
0
1
11
25
33
37
39
11
42
42
14
87
13
23
138
255
255
108
10
2
0
2
1
169
255
255
59
45
234
255
255
70
25
2
0
0
185
255
255
132
62
11
0
5
9
12
15
12
4
0
4
8
5
5
7
5
5
3
0
1
1
2
2
3
2
3
13
27
34
41
44
17
43
58
9
98
16
21
255
255
255
22
2
2
0
1
2
12
255
255
255
17
131
255
255
155
29
9
0
0
169
255
255
140
65
12
0
4
8
11
15
13
5
0
4
8
4
4
8
7
4
1
0
0
0
2
3
2
4
5
15
28
33
47
47
27
43
82
9
104
25
21
255
255
248
5
0
0
1
1
2
10
112
255
255
88
75
255
255
255
40
19
0
0
154
255
255
150
68
11
1
4
8
9
12
14
7
0
3
7
4
4
8
8
4
0
0
1
1
2
0
3
4
7
17
28
31
51
48
35
38
106
47
108
53
102
255
255
117
9
1
3
2
3
2
2
0
255
255
255
35
216
255
255
77
26
0
0
136
255
255
165
74
9
4
3
7
9
10
12
8
0
2
5
4
4
8
7
3
0
1
2
1
1
2
4
4
7
19
29
30
51
48
39
29
124
94
79
10
255
255
255
25
3
3
2
3
1
2
1
13
150
255
255
44
120
255
255
149
28
0
0
117
255
255
182
83
8
7
2
5
11
10
8
8
1
3
5
4
4
8
5
2
1
3
2
1
0
2
4
3
7
21
29
30
49
45
41
17
138
121
19
223
255
255
70
0
0
4
2
6
6
1
2
3
21
255
255
192
62
255
255
249
29
0
0
102
255
255
194
90
9
9
3
5
11
9
6
7
2
3
6
4
4
7
4
4
3
4
3
2
1
2
3
2
10
22
26
30
48
37
43
3
144
125
128
255
255
78
2
3
0
4
4
8
10
1
2
1
19
255
255
255
25
255
255
255
34
0
0
91
255
255
201
93
11
11
2
6
10
8
6
6
2
2
5
3
4
6
5
6
3
3
3
2
2
1
1
4
12
19
24
32
47
29
45
6
141
126
186
255
255
33
4
4
1
4
3
6
7
2
2
4
16
160
255
255
20
218
255
255
49
0
0
81
255
255
208
96
14
12
3
5
10
8
7
7
1
3
3
1
4
7
7
5
1
1
1
1
2
0
0
7
11
14
24
35
46
24
49
7
135
131
220
255
255
23
4
4
2
3
1
2
2
1
2
5
6
58
255
255
89
146
255
255
79
0
0
72
255
255
216
99
17
11
5
4
8
7
10
8
2
4
1
0
4
8
8
4
0
0
1
1
1
1
1
8
9
12
24
36
45
17
52
7
128
136
253
255
255
10
3
3
1
1
0
0
0
1
3
3
1
6
255
255
176
105
255
255
119
0
0
64
255
255
225
100
17
8
1
4
4
5
11
8
3
4
0
1
5
7
6
4
2
1
2
2
1
2
2
7
8
12
23
35
41
8
50
9
122
141
255
255
255
1
0
1
1
0
0
1
0
0
4
4
1
17
255
255
255
88
255
255
155
0
0
53
255
255
235
101
17
6
3
5
1
4
9
8
0
4
2
3
5
5
4
3
4
4
2
1
1
1
1
5
8
12
21
32
36
4
48
8
121
149
255
255
255
6
3
1
4
0
1
1
1
2
4
6
2
26
255
255
255
84
255
255
177
0
0
39
255
255
246
105
18
6
4
7
1
2
8
9
3
4
6
5
3
3
11
8
3
1
2
1
0
0
1
5
8
11
18
27
33
6
48
2
124
162
255
255
255
13
2
3
5
0
1
2
2
1
4
5
1
28
255
255
255
84
255
255
187
0
0
27
255
255
255
110
18
6
4
8
3
1
8
10
3
4
7
6
3
2
21
19
13
10
1
2
0
1
3
6
8
9
14
21
30
9
47
3
130
177
255
255
245
16
2
4
2
1
2
3
1
0
3
3
0
28
255
255
255
84
255
255
192
0
0
18
255
255
255
111
22
6
3
7
3
0
8
9
2
4
5
5
4
4
19
17
11
12
0
1
0
2
4
6
7
8
14
17
24
8
44
1
139
189
255
255
208
16
3
3
1
3
3
1
0
0
0
1
1
28
255
255
255
86
255
255
196
0
0
10
255
255
255
109
29
5
0
5
3
4
8
7
2
4
4
4
5
9
10
3
4
4
0
1
0
2
4
7
6
7
17
16
17
4
40
10
148
203
255
255
168
15
1
0
2
3
1
0
0
0
2
0
2
28
255
255
255
89
255
255
208
0
0
1
255
255
255
110
35
5
4
4
6
7
9
5
1
3
3
4
10
16
3
6
3
2
2
3
1
2
5
8
8
7
16
15
13
0
37
17
156
222
255
255
134
12
0
3
1
1
0
0
0
0
1
0
1
28
255
255
255
82
255
255
234
0
0
7
255
255
255
116
42
7
8
3
7
8
12
5
5
2
2
3
14
19
0
4
3
5
6
6
3
2
7
7
9
10
14
12
11
4
36
25
165
236
255
255
111
9
0
3
0
0
1
1
1
1
0
0
0
28
255
255
255
66
255
255
246
0
0
13
255
255
255
123
44
9
10
1
5
10
15
6
4
2
2
2
10
14
2
3
2
3
9
11
3
3
6
5
7
12
15
9
8
7
35
33
174
240
255
255
95
8
1
0
0
0
2
3
2
3
0
0
0
27
255
255
255
61
255
255
212
0
0
18
255
255
255
128
39
11
10
1
6
13
14
4
1
1
1
1
5
9
5
7
7
1
11
14
1
3
2
4
7
11
15
9
5
8
32
34
176
234
255
255
83
8
3
2
0
0
1
3
1
3
0
0
1
20
255
255
254
80
255
255
142
0
0
22
255
255
255
129
35
12
10
3
9
12
10
3
1
0
0
1
4
8
8
11
7
0
13
13
0
1
0
4
7
8
13
11
4
8
28
28
157
197
255
255
108
7
3
2
0
0
0
1
0
1
0
0
7
25
255
255
145
131
255
255
65
0
0
26
255
255
255
126
38
10
9
4
8
9
10
6
2
1
0
1
4
8
12
15
7
3
13
11
2
1
1
5
4
4
11
11
4
8
24
17
102
123
255
255
244
89
7
2
1
1
0
0
0
0
0
0
13
183
255
255
30
230
255
255
6
0
0
28
247
255
255
124
47
3
7
2
6
10
12
7
2
1
0
2
5
9
15
15
8
3
10
9
6
3
3
6
2
3
8
7
3
9
22
2
34
64
232
255
255
255
77
2
3
3
0
0
1
1
1
5
55
255
255
253
33
255
255
255
18
0
0
27
223
255
255
123
54
6
6
1
7
13
11
6
4
2
1
6
7
11
17
15
8
3
9
8
8
3
5
5
4
6
4
1
1
11
23
11
2
50
168
81
255
255
255
14
2
4
1
1
3
1
2
20
255
255
255
32
86
255
255
138
13
0
0
24
206
255
255
121
58
11
6
0
8
12
11
8
6
3
2
7
8
12
19
19
9
6
12
9
7
0
7
5
6
7
3
2
8
16
25
18
7
52
108
7
137
255
255
124
8
1
3
4
6
1
26
194
255
255
132
29
221
255
255
21
4
0
0
19
197
255
255
119
59
14
4
2
8
9
11
10
5
1
2
5
7
11
20
24
11
8
16
10
3
2
7
7
5
6
6
3
16
25
28
20
3
58
51
32
63
255
255
255
102
34
11
0
15
48
176
255
255
223
23
47
255
255
242
13
2
0
0
15
189
255
255
118
57
20
1
1
6
7
9
9
5
1
2
3
5
10
21
27
13
8
18
8
1
2
5
7
5
6
6
5
20
31
33
21
5
57
48
35
6
175
255
255
213
113
42
14
78
165
255
255
226
5
32
182
255
255
58
7
1
0
0
14
178
255
255
119
57
26
8
2
3
6
8
8
5
2
1
1
4
11
24
29
15
8
17
6
1
2
3
5
7
5
3
5
18
31
38
23
16
37
43
7
23
72
168
200
152
93
39
38
124
197
233
152
13
37
80
255
255
233
7
1
0
0
0
13
165
255
255
120
59
29
15
7
4
7
8
9
3
1
6
0
5
14
28
31
17
9
18
9
1
2
2
4
7
5
3
4
15
27
38
28
22
28
18
21
3
29
148
170
29
62
57
67
101
98
56
6
36
67
255
255
255
39
4
0
2
0
0
11
147
255
255
119
60
31
20
13
7
7
9
11
3
1
7
1
8
18
31
32
17
10
22
15
3
3
2
3
6
7
4
4
13
19
29
39
13
34
5
22
39
42
105
129
15
142
118
64
43
11
16
43
94
255
255
255
97
6
1
3
7
0
0
8
122
255
255
118
60
33
23
17
9
6
11
12
4
2
4
3
10
20
32
32
16
10
26
19
5
3
3
2
6
7
3
3
10
10
10
35
10
10
2
13
44
65
32
15
25
82
66
28
2
31
75
142
255
255
255
119
1
0
3
9
11
0
0
2
85
255
255
129
61
35
23
17
11
8
12
11
5
1
0
3
9
20
31
33
18
12
29
20
8
1
5
3
5
4
2
0
6
5
11
7
16
13
66
16
28
2
16
33
24
12
9
31
67
121
181
247
255
229
89
8
1
4
9
12
12
0
0
7
40
255
255
157
62
37
22
16
12
11
11
9
6
1
1
2
9
20
29
34
19
14
28
20
11
1
5
4
3
2
4
2
5
4
22
53
13
159
255
55
91
68
49
36
17
17
50
79
124
171
174
145
98
35
5
5
2
10
13
13
12
0
0
18
15
255
255
183
48
39
24
15
12
12
10
9
4
1
1
2
10
20
28
32
16
13
25
20
11
2
3
3
2
3
6
1
7
6
16
56
52
255
255
104
49
41
36
27
9
17
40
54
67
73
50
11
11
2
8
0
10
12
12
14
12
0
0
30
18
229
255
207
29
30
20
14
12
11
10
11
3
1
0
2
9
20
28
29
12
12
24
20
8
2
1
2
2
4
6
1
13
14
5
40
86
255
255
99
6
3
1
2
1
8
12
12
7
0
5
5
5
2
0
7
14
13
10
12
12
0
0
37
23
175
255
232
34
24
14
11
7
6
8
10
4
0
1
3
8
19
27
27
10
12
23
19
6
2
1
3
0
0
1
5
15
14
6
36
109
255
255
64
18
17
14
11
10
9
7
8
7
6
4
2
1
2
9
12
13
16
12
9
11
0
0
34
18
127
255
244
43
36
23
12
5
2
3
4
1
2
0
4
7
16
23
23
9
12
19
15
6
2
0
2
2
4
3
4
5
3
8
30
122
255
255
40
23
24
21
18
18
15
12
14
13
11
9
8
7
3
10
15
13
17
13
7
8
0
0
26
14
89
255
255
43
35
30
22
14
7
3
1
1
1
1
3
4
10
14
14
7
5
10
10
4
1
2
1
1
0
3
4
0
2
5
22
138
255
255
25
23
25
25
24
25
22
17
18
18
18
18
17
14
9
6
15
14
14
10
4
4
0
0
23
17
57
255
255
61
22
23
25
18
13
10
5
2
0
2
3
4
7
7
6
7
4
5
9
3
1
1
4
5
4
7
5
3
4
3
21
172
255
203
20
19
21
22
22
26
25
20
20
21
25
29
28
27
22
2
13
14
10
7
2
1
0
0
27
25
39
227
255
115
18
17
20
15
12
13
8
4
1
3
6
9
13
12
8
4
3
10
10
4
2
3
5
5
3
5
1
4
3
6
62
226
255
127
20
14
15
14
14
17
18
18
18
20
24
29
33
42
43
19
7
13
6
5
3
1
0
0
32
35
45
152
255
193
51
16
15
12
9
11
8
4
1
4
8
13
19
19
10
4
12
11
8
2
1
0
3
3
2
3
2
7
11
69
161
232
186
75
19
10
10
10
10
7
9
15
16
17
17
18
26
42
51
33
4
9
7
6
4
2
0
0
33
41
59
105
192
219
138
58
20
6
5
9
8
3
2
4
8
15
20
19
5
8
10
7
4
1
3
3
1
1
0
0
8
36
95
167
189
148
98
55
21
9
7
9
11
5
6
13
14
15
15
13
19
30
39
31
12
3
13
12
8
3
0
0
29
39
58
87
113
155
179
138
78
37
15
9
5
1
5
4
8
17
20
20
7
7
13
9
2
5
9
6
0
9
24
47
82
127
164
152
98
65
64
52
27
13
7
6
9
5
5
9
8
10
13
13
17
22
25
22
15
4
12
16
17
15
0
0
24
33
45
66
72
79
116
143
136
106
70
46
28
13
3
0
6
18
19
21
15
5
19
11
2
3
10
24
40
60
86
118
141
132
102
59
30
40
56
50
30
17
10
5
5
4
4
4
2
3
7
9
12
15
15
15
14
9
3
11
19
23
0
0
20
28
35
44
47
39
45
71
95
107
104
92
73
52
34
23
10
5
8
15
19
7
1
11
28
38
54
71
86
96
98
93
81
54
28
19
20
35
48
45
30
17
11
8
6
5
6
4
2
2
4
5
7
9
8
9
9
8
3
3
9
17
0
0
17
23
28
32
32
23
17
20
27
42
56
65
65
58
49
40
26
13
5
7
17
20
22
33
47
53
56
55
53
50
42
28
16
12
14
16
17
29
40
39
29
17
9
10
9
6
8
6
5
6
5
5
7
9
7
6
6
6
4
1
1
6
0
0
15
18
21
25
25
19
9
5
6
7
9
15
20
22
22
20
16
10
3
3
8
11
12
17
23
23
18
13
9
7
8
8
6
7
11
12
15
24
33
33
25
18
9
9
10
7
8
6
5
7
7
7
9
9
7
8
7
6
5
3
3
2
0
0
0
0
0
0
0
0
0
0
0
0
0
0
0
0
0
0
0
0
0
0
0
0
0
0
0
0
0
0
0
0
0
0
0
0
0
0
0
0
0
0
0
0
0
0
0
0
0
0
0
0
0
0
0
0
0
0
0
0
0
0
0
0
0
