P2
64 64
255
0
0
0
0
0
0
0
0
0
0
0
0
0
0
0
0
0
0
0
0
0
0
0
0
0
0
0
0
0
0
0
0
0
0
0
0
0
0
0
0
0
0
0
0
0
0
0
0
0
0
0
0
0
0
0
0
0
0
0
0
0
0
0
0
0
255
255
255
255
255
255
255
255
255
255
255
255
255
255
255
252
242
237
239
250
255
255
255
255
255
255
255
255
255
255
255
255
255
255
255
255
255
255
255
255
255
255
255
255
255
255
255
255
255
255
255
255
255
255
255
255
255
255
255
255
255
255
0
0
12
46
104
173
236
255
255
255
255
255
255
255
255
255
255
255
255
255
255
255
255
255
255
255
255
255
255
255
255
255
255
255
255
255
255
255
240
198
148
98
56
28
13
6
3
1
0
0
0
0
1
3
3
1
0
0
0
0
1
3
4
3
0
0
37
96
171
242
255
255
255
255
255
255
255
254
243
228
213
200
189
181
178
181
190
201
208
209
206
205
208
213
221
234
252
255
255
255
255
255
255
255
255
198
124
64
28
10
2
0
0
0
0
0
0
0
0
0
0
0
0
0
0
0
0
0
0
0
60
125
176
197
201
198
183
160
139
124
113
102
87
69
54
44
38
36
38
45
56
67
73
71
63
54
50
52
59
73
93
117
145
177
211
244
255
255
255
232
160
91
40
11
2
3
4
4
4
4
3
1
0
0
0
0
0
0
0
0
0
0
0
0
58
112
131
96
41
6
6
7
3
2
4
4
4
3
1
0
1
4
7
9
11
13
14
13
11
8
5
5
8
12
17
25
36
49
64
79
94
111
129
143
136
99
50
16
8
11
13
15
16
16
15
12
8
4
0
3
4
4
4
4
4
3
0
0
32
69
86
57
0
46
65
66
60
53
48
45
42
37
33
32
32
32
31
28
23
18
16
17
19
20
21
24
29
36
45
56
68
79
87
91
88
70
24
45
93
88
52
28
30
40
47
51
51
46
37
28
20
13
7
1
3
5
6
5
4
3
0
0
5
29
57
65
46
13
13
26
31
32
33
36
40
43
44
47
57
73
89
100
106
107
102
95
91
89
88
89
91
94
100
109
120
130
134
129
114
82
23
47
92
99
91
93
102
107
107
105
103
100
93
78
56
34
18
8
1
3
4
4
4
3
0
0
7
1
27
59
77
73
57
41
28
18
12
9
6
0
7
13
23
41
65
91
113
123
117
100
83
73
68
64
60
57
55
53
52
52
50
39
15
22
67
98
112
130
155
168
155
136
131
134
136
136
136
133
119
88
49
20
5
2
5
7
8
6
0
0
10
13
2
21
44
60
66
63
57
52
49
48
47
44
40
37
36
34
25
8
10
20
18
7
6
16
23
28
32
37
44
52
60
66
69
74
85
100
108
100
104
149
210
240
227
205
198
199
199
191
177
172
175
160
114
59
22
4
6
11
12
9
0
0
14
16
11
4
4
11
16
20
24
29
35
40
43
45
48
52
59
72
86
96
102
103
100
95
90
89
91
92
93
96
100
104
107
106
100
91
80
68
55
51
79
141
206
241
247
247
248
248
245
232
211
201
213
222
190
119
50
11
4
10
12
9
0
0
14
16
11
5
0
2
1
0
1
2
1
1
4
8
11
14
21
34
55
83
109
122
116
98
81
70
64
60
56
52
48
43
36
29
23
18
17
18
17
27
59
101
138
166
186
188
166
140
136
156
177
185
195
218
223
175
94
30
2
7
11
9
0
0
15
19
14
6
1
0
1
2
1
0
0
0
1
3
3
1
0
2
10
24
38
45
41
29
16
6
1
1
3
4
5
7
8
7
4
1
0
0
2
17
45
67
75
71
45
19
105
166
169
109
11
74
121
153
186
190
139
64
12
7
11
9
0
0
18
23
18
10
4
1
1
2
1
0
0
0
0
0
0
0
0
1
3
6
10
12
11
8
5
3
1
0
0
0
1
3
4
4
2
2
1
6
9
1
19
28
12
46
149
255
255
255
255
255
255
134
15
63
121
164
158
99
33
1
10
9
0
0
18
24
20
11
5
3
1
0
0
0
0
0
0
0
0
0
0
1
3
4
5
6
5
3
1
1
3
3
1
0
0
0
1
3
3
0
1
11
19
13
1
0
32
117
234
255
255
255
255
255
255
255
164
38
59
128
156
125
59
8
11
11
0
0
20
24
18
9
3
2
1
0
0
0
0
0
0
0
0
1
3
4
4
4
4
4
4
3
1
0
1
2
1
0
0
1
3
5
7
8
11
18
22
17
7
11
61
156
237
246
191
137
130
175
250
255
246
129
4
89
140
136
82
21
10
13
0
0
21
26
19
10
4
1
1
2
1
0
0
0
0
0
0
1
3
3
1
1
2
2
2
1
1
3
4
3
1
0
1
3
4
5
7
9
13
18
20
18
13
26
82
153
176
129
61
25
19
37
101
198
249
196
75
41
115
137
104
42
3
13
0
0
16
23
20
11
4
1
1
1
1
2
2
1
0
0
0
0
0
0
1
2
2
2
1
0
0
0
1
3
3
1
1
3
5
7
8
7
8
17
28
30
25
42
92
131
120
69
28
19
20
20
37
104
191
213
139
17
83
129
117
62
8
10
0
0
15
21
18
8
0
3
3
0
2
2
3
3
1
0
0
0
0
0
0
0
0
0
1
3
3
1
0
0
0
1
3
4
5
7
7
5
7
20
38
47
53
83
130
143
102
47
22
20
21
22
23
53
131
197
177
75
42
112
119
76
18
8
0
0
16
23
20
10
1
3
3
1
1
3
4
4
3
2
2
2
2
1
1
2
2
1
2
4
3
1
0
1
3
4
4
4
4
5
5
4
8
23
47
76
124
188
220
181
97
35
19
20
20
20
19
29
83
161
185
120
4
88
117
88
31
3
0
0
14
22
21
12
3
0
0
0
1
3
3
2
3
4
3
2
3
3
1
1
2
1
0
0
0
0
1
2
2
3
4
4
4
4
3
3
8
22
51
107
198
255
255
180
75
22
12
12
13
15
16
17
47
118
170
144
46
58
107
94
45
5
0
0
14
22
21
12
2
2
1
0
0
0
0
1
3
3
2
2
2
2
1
1
2
2
3
4
4
4
4
4
3
2
3
4
4
3
1
1
5
14
40
107
206
255
229
128
45
15
11
10
11
13
15
15
28
80
141
147
78
24
88
92
55
12
0
0
16
23
21
12
2
3
3
1
0
0
1
3
3
1
1
2
1
0
0
0
0
0
1
3
4
4
3
2
3
4
3
2
2
0
3
4
3
1
19
69
133
156
117
57
23
15
13
12
12
13
15
15
16
49
110
136
94
4
68
83
55
15
0
0
21
26
19
9
2
1
2
1
0
0
1
2
2
3
3
1
0
0
0
0
0
0
0
0
1
3
4
3
2
3
3
1
0
1
4
7
8
7
2
26
51
55
39
22
16
16
17
18
17
16
15
13
11
31
81
115
94
22
48
70
49
15
0
0
24
29
20
10
4
1
0
0
0
0
0
0
1
3
3
2
2
2
3
3
2
3
4
4
4
4
4
3
1
0
0
0
0
1
4
7
9
11
7
9
28
36
32
26
24
25
27
28
27
24
20
18
18
29
63
96
90
37
26
53
39
12
0
0
23
28
21
11
4
1
0
1
2
1
0
0
0
0
1
3
3
2
3
3
2
3
4
4
3
1
0
1
3
3
1
0
1
4
8
11
13
14
9
6
26
38
36
30
28
29
31
31
29
27
26
27
27
32
56
83
82
43
10
34
23
5
0
0
18
24
20
11
5
3
0
3
3
1
0
0
0
0
1
2
1
0
0
0
1
2
1
0
0
0
0
1
3
3
1
1
4
8
11
13
14
12
5
9
25
34
34
29
25
25
27
28
28
28
29
30
29
31
48
70
70
40
1
18
7
4
0
0
11
18
18
12
6
3
1
0
0
0
1
3
3
1
0
0
1
2
1
1
3
4
4
4
4
4
4
3
1
0
0
1
4
8
10
10
11
11
3
13
26
29
25
21
20
19
17
17
20
23
24
23
22
23
34
52
55
35
7
4
4
9
0
0
8
15
17
12
5
2
3
3
1
0
1
3
3
1
0
1
3
3
2
5
10
10
6
4
4
4
4
3
1
0
0
1
4
7
8
8
9
9
0
15
23
19
9
4
5
6
5
5
7
8
8
8
8
9
18
33
38
26
8
2
7
8
0
0
5
11
14
11
6
4
3
1
0
1
2
1
0
1
2
2
2
2
3
5
6
5
3
1
0
0
0
1
2
1
0
1
3
5
7
8
6
1
9
21
22
10
4
10
9
8
7
5
5
7
8
7
5
4
1
11
16
12
4
0
1
2
0
0
0
6
11
10
6
3
1
1
3
4
3
2
3
4
4
3
2
4
6
4
1
0
0
0
0
0
0
1
3
4
3
1
1
4
7
7
3
5
18
28
23
6
10
16
17
18
17
17
19
20
20
19
17
17
16
10
3
2
1
7
16
16
0
0
0
6
11
11
8
5
4
5
7
7
5
4
5
6
5
4
5
7
8
6
2
1
2
1
1
2
1
0
1
3
3
1
1
4
7
6
1
8
22
30
23
5
12
18
19
20
21
23
24
24
24
24
24
23
22
22
19
11
8
18
29
24
0
0
0
6
13
16
13
8
6
7
8
8
7
5
4
5
6
5
5
7
8
7
5
5
6
4
1
0
0
0
0
0
1
2
1
1
4
6
2
8
20
27
22
7
7
12
12
13
15
16
16
16
16
16
16
16
21
30
31
22
15
19
25
19
0
0
1
10
18
18
13
8
6
7
8
8
7
5
4
4
5
6
5
4
4
4
4
6
9
8
5
3
1
0
0
0
1
2
0
3
4
4
1
6
14
19
15
4
5
7
5
4
4
4
4
4
4
4
4
5
14
28
31
22
10
3
2
1
0
0
3
11
18
16
8
4
4
5
7
7
6
6
6
6
5
4
3
0
3
3
0
3
4
4
3
1
1
2
1
0
1
2
2
4
6
4
0
2
3
5
5
2
2
4
3
1
0
0
0
0
0
0
0
1
12
31
39
27
2
27
32
22
0
0
1
9
15
13
6
2
3
5
6
5
5
7
7
5
3
1
0
1
3
3
0
3
4
4
4
4
4
3
1
0
1
3
4
4
4
4
5
12
24
30
24
12
4
2
2
1
0
0
0
0
0
0
0
5
29
62
70
37
22
64
66
40
0
0
1
8
15
14
9
6
7
7
4
2
3
4
4
4
4
4
3
2
3
4
5
7
8
8
8
8
7
5
4
3
1
1
3
3
1
1
10
34
73
115
130
102
52
14
2
3
3
1
0
0
0
0
0
17
69
121
118
47
46
96
88
47
0
0
3
4
15
18
13
10
8
4
2
3
3
1
1
3
4
4
3
2
4
7
9
10
9
8
8
8
8
8
8
7
5
4
3
1
0
2
15
47
103
180
237
223
141
52
9
3
4
4
4
4
4
3
7
52
140
192
152
36
77
120
97
42
0
0
6
0
11
17
17
13
6
1
1
3
4
3
1
1
3
3
1
1
3
5
7
8
8
8
8
8
8
8
8
9
10
8
4
1
0
3
16
43
91
172
255
255
226
111
31
6
5
6
5
4
4
6
35
125
227
240
143
5
113
136
93
29
0
0
9
5
5
13
15
11
6
4
3
1
1
3
3
0
3
3
0
3
4
5
7
8
8
8
8
7
6
7
8
9
10
9
7
3
2
6
14
27
52
108
197
255
255
175
76
22
9
7
5
3
4
29
111
229
255
226
85
60
145
146
83
18
0
0
12
9
1
8
9
8
7
5
4
3
1
1
2
2
3
3
2
2
2
4
7
8
8
7
5
4
5
7
8
8
9
11
10
4
3
8
11
12
19
43
98
181
244
240
171
89
38
18
17
28
59
133
245
255
255
150
0
121
174
144
63
7
0
0
10
8
0
6
8
8
6
2
1
3
4
4
4
4
4
4
3
1
0
1
3
5
6
5
4
5
7
9
10
9
9
10
8
4
1
6
8
8
12
24
50
108
198
255
255
239
179
144
138
163
224
255
255
255
200
51
82
175
189
121
34
3
0
0
8
7
0
7
11
11
8
4
1
1
3
4
5
6
5
4
3
1
1
3
4
5
6
6
7
9
10
9
8
8
7
5
5
6
4
0
2
2
4
8
16
50
130
231
255
255
255
255
255
255
255
255
255
229
85
45
159
218
183
86
13
4
0
0
9
5
5
14
18
16
13
10
5
2
3
4
4
5
6
4
1
1
3
5
8
10
10
10
9
8
8
7
6
6
5
4
5
7
8
7
6
5
2
0
1
8
47
113
186
255
255
255
255
255
255
255
225
90
30
147
238
239
148
45
2
6
0
0
9
4
8
17
20
20
19
16
11
6
4
4
4
4
4
3
2
4
7
8
9
11
12
11
9
7
5
4
4
3
2
3
4
5
8
11
11
7
1
3
1
6
5
19
70
143
224
255
255
255
254
162
59
43
154
255
255
210
89
9
13
11
0
0
9
4
8
16
18
19
18
14
11
8
5
4
4
3
2
3
5
7
9
11
12
12
11
8
5
3
1
0
0
0
0
0
0
2
9
18
22
17
5
6
10
6
5
25
65
107
137
151
145
114
59
15
103
203
255
255
253
128
27
14
20
15
0
0
13
5
12
22
20
14
11
9
8
8
7
5
3
2
3
5
7
7
6
7
8
8
7
5
3
0
2
1
0
0
0
0
0
2
9
22
36
45
53
65
74
66
35
14
65
91
76
32
22
82
150
223
255
255
255
255
150
39
16
29
31
24
0
0
18
7
17
29
23
11
6
6
5
4
4
3
1
1
3
4
4
4
4
4
4
4
4
4
3
1
1
2
2
2
2
3
3
0
5
17
36
67
127
207
255
255
240
198
165
155
177
221
255
255
255
255
255
255
255
142
37
17
32
36
40
32
0
0
25
17
7
19
14
5
3
3
1
0
1
2
2
2
1
0
0
1
2
2
2
0
2
1
0
0
1
3
4
4
5
6
5
4
4
0
14
58
152
255
255
255
255
255
255
255
255
255
255
255
255
255
255
214
106
22
21
34
37
39
41
32
0
0
41
45
25
9
7
11
8
3
1
0
1
2
1
0
0
0
0
0
0
1
3
4
4
4
4
3
1
1
3
5
6
5
5
8
12
16
13
21
97
189
255
255
255
255
255
255
255
255
255
255
255
193
117
47
0
21
28
33
37
38
38
28
0
0
55
67
48
27
17
18
18
14
9
5
4
3
2
2
1
0
0
0
1
3
4
4
4
5
6
5
4
4
4
5
7
9
11
13
15
19
21
8
16
34
42
53
79
109
130
142
145
137
117
84
43
8
12
19
20
22
27
31
32
33
34
25
0
0
57
68
46
21
7
7
12
15
16
15
12
8
5
4
4
4
4
4
5
7
10
14
15
12
9
8
8
9
11
12
13
15
15
13
12
13
12
8
16
45
78
94
91
79
66
57
52
50
51
51
48
42
34
28
26
27
29
30
30
30
29
21
0
0
44
49
26
2
9
5
2
6
11
15
15
13
11
9
8
8
9
12
15
19
26
30
28
23
18
15
13
12
13
14
13
12
11
8
4
2
0
1
19
55
91
108
108
103
96
89
83
77
72
66
58
52
47
40
33
29
28
29
31
30
26
18
0
0
26
27
9
10
18
13
7
6
4
1
6
9
10
9
8
8
8
9
12
17
22
24
23
20
16
13
12
11
9
7
5
3
1
1
3
4
8
8
11
46
81
98
100
101
102
100
96
92
89
86
80
72
63
53
43
34
29
28
28
27
24
16
0
0
11
14
1
18
25
17
6
4
7
7
4
0
3
5
7
7
4
1
1
2
2
4
6
5
4
4
4
3
1
1
3
5
6
5
3
6
22
37
26
11
48
64
68
72
76
80
84
86
85
84
83
80
74
64
52
41
33
28
24
21
19
13
0
0
3
0
9
33
47
36
11
4
3
2
4
4
3
1
0
1
3
5
8
12
14
12
8
5
4
4
4
4
5
6
5
3
1
1
10
38
79
101
82
38
3
10
15
20
25
32
39
43
44
45
48
52
53
48
40
31
22
17
15
13
12
9
0
0
17
19
23
48
78
81
51
16
3
7
4
0
2
2
3
4
4
6
11
14
13
11
8
5
5
7
7
4
1
1
3
4
2
24
65
118
159
159
119
72
46
39
36
32
28
24
20
16
13
10
5
0
4
8
10
7
0
6
7
4
0
2
0
0
28
37
40
62
101
128
120
83
41
12
2
7
7
5
3
1
0
1
3
4
4
4
3
2
3
3
0
3
4
1
11
36
74
122
172
207
208
172
121
84
71
71
71
69
68
68
66
61
56
53
51
48
42
33
25
20
19
23
27
26
20
11
0
0
31
44
51
71
110
156
184
178
146
106
69
39
18
5
2
5
6
6
7
7
4
2
3
4
3
1
10
26
49
79
116
158
201
235
249
235
193
140
100
83
81
83
84
84
84
83
81
79
75
70
67
64
59
52
43
34
29
30
35
38
36
25
0
0
28
42
52
68
98
144
192
226
237
225
200
171
142
117
96
77
63
54
46
41
42
48
58
70
84
104
129
156
185
215
242
255
255
255
222
173
124
90
74
68
66
67
69
70
69
68
68
68
67
63
58
55
52
47
40
33
30
31
33
36
40
32
0
0
25
37
45
57
75
103
142
189
235
255
255
255
255
255
244
229
216
204
194
188
186
190
201
216
232
248
255
255
255
255
255
251
214
168
122
85
63
53
47
41
37
37
39
40
40
41
43
43
42
43
43
41
39
36
33
30
26
24
25
29
36
31
0
0
22
32
37
45
55
67
86
115
153
196
236
255
255
255
255
255
255
255
255
255
255
255
255
255
255
255
255
255
249
219
183
143
103
70
48
37
33
30
24
18
15
13
12
13
15
16
16
16
17
20
23
24
24
24
24
24
22
19
20
24
28
23
0
0
255
255
255
255
255
255
255
255
255
255
255
255
255
255
255
255
255
255
255
255
255
255
255
255
255
255
255
255
255
255
255
255
255
255
255
255
255
255
255
255
255
255
255
255
255
255
255
255
255
255
255
255
255
255
255
255
255
255
255
255
255
255
0
0
0
0
0
0
0
0
0
0
0
0
0
0
0
0
0
0
0
0
0
0
0
0
0
0
0
0
0
0
0
0
0
0
0
0
0
0
0
0
0
0
0
0
0
0
0
0
0
0
0
0
0
0
0
0
0
0
0
0
0
0
0
0
0
