P2
64 64
255
0
0
0
0
0
0
0
0
0
0
0
0
0
0
0
0
0
0
0
0
0
0
0
0
0
0
0
0
0
0
0
0
0
0
0
0
0
0
0
0
0
0
0
0
0
0
0
0
0
0
0
0
0
0
0
0
0
0
0
0
0
0
0
0
0
255
161
166
172
178
181
176
177
170
167
169
169
167
163
160
154
150
150
150
147
153
157
160
156
158
157
157
158
158
163
167
173
177
178
181
177
177
169
164
161
161
158
160
157
161
159
159
159
159
159
159
160
161
157
158
158
158
158
157
161
160
255
0
0
161
14
14
16
10
12
9
6
1
1
2
2
3
6
10
8
11
11
14
11
9
1
2
1
9
8
6
7
3
4
1
0
7
7
12
14
17
21
21
16
9
1
2
2
2
1
0
0
0
0
1
2
1
0
0
0
0
0
0
1
1
157
0
0
172
12
12
2
0
6
10
17
20
20
20
16
21
23
27
26
29
28
28
27
23
18
16
19
23
30
30
27
32
27
24
22
17
11
5
0
2
7
12
14
15
9
4
1
0
1
0
0
0
0
1
1
0
0
0
0
0
0
0
0
0
158
0
0
171
14
1
20
36
38
29
24
22
16
18
21
18
17
16
13
12
9
10
10
9
12
10
14
12
12
13
14
12
14
18
20
23
26
24
22
20
19
11
3
6
8
6
2
1
2
1
1
1
1
2
1
0
0
0
0
0
0
0
0
0
158
0
0
169
2
13
14
16
32
25
23
15
14
9
5
4
2
2
2
2
0
2
1
1
1
1
0
2
1
1
1
0
1
2
5
5
8
15
20
32
47
49
21
2
13
8
9
4
1
1
2
2
2
2
3
2
1
0
1
1
1
1
1
1
157
0
0
166
4
25
8
6
5
6
4
0
2
4
8
9
12
10
10
10
10
14
9
8
4
5
5
8
8
7
8
9
11
13
16
22
25
25
25
18
19
9
10
12
2
5
17
5
6
9
6
7
6
3
0
1
1
2
3
1
1
0
1
1
160
0
0
172
4
29
10
11
8
6
4
6
4
8
8
11
9
6
7
4
1
2
10
12
17
15
13
11
11
11
8
8
3
2
2
8
12
12
14
12
2
6
3
10
8
21
37
14
11
6
5
5
5
13
12
8
5
1
1
1
2
3
2
1
158
0
0
181
0
32
19
6
11
14
13
9
5
2
1
2
2
2
2
4
7
11
11
13
15
15
9
14
12
15
13
16
10
12
10
8
10
10
10
15
22
19
7
22
2
20
22
3
6
2
2
1
2
5
1
9
13
9
3
2
2
1
0
0
160
0
0
179
6
24
23
14
15
8
6
2
3
6
8
7
9
10
10
6
9
13
14
19
19
17
12
5
6
7
9
7
10
13
13
19
22
23
26
13
2
13
28
7
3
23
17
23
26
21
11
13
11
12
3
0
6
15
12
4
2
1
1
1
160
0
0
181
6
19
19
6
3
4
5
5
10
9
11
10
9
8
9
5
5
0
8
18
25
22
13
10
8
8
6
8
3
1
3
8
12
11
12
10
7
15
20
1
3
2
19
13
6
4
3
4
8
0
1
2
3
11
17
11
0
3
2
1
164
0
0
187
6
22
16
5
5
1
0
0
2
1
0
3
1
1
4
5
10
13
11
10
8
8
15
15
16
18
15
16
16
14
15
12
10
4
1
2
2
9
8
6
4
5
14
8
0
12
30
32
23
0
4
13
28
11
16
20
12
1
2
1
163
0
0
187
5
19
20
5
4
1
1
0
1
1
0
1
1
2
0
0
1
1
5
5
7
6
2
3
1
1
1
2
0
1
2
1
0
0
5
3
2
8
5
2
0
6
18
39
53
56
45
44
58
48
20
5
19
33
2
19
21
4
2
2
167
0
0
191
7
20
19
7
4
0
3
1
1
1
0
1
0
1
0
0
0
1
1
1
0
0
2
2
2
1
1
1
1
1
0
0
1
3
5
3
1
6
0
6
6
8
18
25
21
0
14
7
0
29
40
31
25
23
20
8
22
17
4
0
166
0
0
194
7
17
21
4
6
0
2
1
1
1
0
1
0
1
0
0
0
1
2
2
1
1
2
0
3
1
2
1
1
1
1
1
1
2
1
1
1
5
0
5
2
13
25
17
4
32
33
38
25
12
17
29
28
22
27
1
12
26
4
4
169
0
0
196
7
14
22
7
2
1
2
1
1
1
0
1
0
1
0
1
2
2
1
2
2
3
2
0
2
2
1
0
1
1
1
3
2
3
4
5
1
2
5
8
4
26
22
1
42
47
32
31
44
48
21
21
37
28
27
17
6
24
18
1
171
0
0
203
6
16
22
9
3
1
3
1
1
1
0
1
0
1
1
2
1
0
1
2
1
1
0
1
2
2
2
0
1
1
3
1
2
4
3
2
5
2
4
8
14
36
4
20
45
18
2
2
2
31
47
10
20
45
29
25
2
18
26
6
177
0
0
205
11
14
24
6
4
0
1
1
1
2
0
1
0
1
1
1
0
0
2
1
2
0
0
1
1
0
2
2
1
2
1
3
0
4
3
3
4
2
4
10
23
30
1
26
34
2
1
2
3
4
38
35
1
38
41
31
11
8
29
11
179
0
0
205
7
11
24
8
3
1
1
3
1
2
2
1
0
1
1
1
0
1
3
1
3
1
1
2
1
0
0
3
0
3
2
0
0
4
5
8
3
2
5
12
45
28
6
32
25
2
1
1
0
2
15
44
11
12
52
34
24
4
22
23
182
0
0
210
8
8
30
7
6
2
0
2
2
1
2
3
0
2
1
2
0
0
2
1
2
2
2
1
0
0
1
2
3
0
1
4
2
5
2
7
0
5
4
26
58
25
8
35
10
1
1
1
1
1
1
37
32
0
38
47
34
0
14
32
187
0
0
210
9
7
26
9
5
1
0
1
1
2
1
1
3
2
1
2
2
0
1
2
2
3
0
0
0
0
2
0
1
3
2
0
2
8
0
7
4
10
4
23
33
6
22
26
4
1
1
1
0
0
1
18
43
11
18
53
40
14
8
35
196
0
0
211
10
5
29
10
4
1
0
1
0
1
1
2
1
0
2
0
2
1
0
2
0
2
2
1
1
2
2
2
1
0
1
4
2
6
1
6
5
6
5
13
2
29
25
10
1
1
0
2
2
0
0
1
47
20
1
48
53
20
2
32
204
0
0
211
11
4
26
11
8
1
0
1
0
1
3
2
1
1
2
1
1
1
0
1
0
0
1
1
1
1
1
2
3
2
1
0
0
7
0
7
4
2
11
9
30
43
17
0
0
2
3
2
2
1
0
0
32
35
2
28
61
29
2
22
216
0
0
214
10
1
28
12
6
3
1
1
0
0
1
0
2
2
1
1
1
1
0
1
0
0
0
0
1
1
2
0
0
1
2
1
1
4
1
8
7
7
13
7
20
26
0
1
1
3
1
3
0
1
2
3
14
49
7
15
63
41
3
16
223
0
0
219
13
4
28
14
6
2
1
1
0
0
0
1
1
1
0
2
1
2
1
1
1
1
1
2
2
1
1
1
1
0
2
1
1
7
2
8
6
9
18
3
11
25
2
2
2
1
1
1
3
1
3
1
3
48
10
4
62
50
9
10
230
0
0
223
15
2
30
11
7
2
1
2
0
0
0
1
0
0
2
2
1
1
2
1
2
1
1
1
0
0
0
2
2
0
2
1
3
5
1
6
8
14
17
5
18
23
1
2
1
0
0
1
1
1
2
1
1
45
18
0
53
57
11
5
234
0
0
230
13
0
31
14
8
2
3
2
1
0
0
1
0
1
2
0
1
0
1
1
2
0
0
0
0
0
1
1
1
1
2
1
1
7
4
7
10
13
22
4
20
26
1
0
1
2
2
2
1
1
0
2
4
44
23
2
45
67
14
5
238
0
0
230
15
3
34
12
5
2
2
0
1
0
1
2
0
1
1
0
2
0
1
1
4
0
1
1
1
1
2
0
0
1
1
2
2
3
1
10
7
16
19
8
19
28
0
1
0
3
2
3
2
2
3
0
0
38
34
2
40
72
17
6
243
0
0
229
15
1
30
16
6
4
3
1
1
1
2
1
1
1
1
2
2
1
1
1
2
1
1
1
1
1
1
1
0
1
1
1
1
4
1
8
11
19
18
7
24
27
2
3
2
1
1
1
3
2
3
1
0
33
36
3
35
76
16
7
247
0
0
230
16
7
34
13
9
0
1
1
1
2
1
0
1
2
0
2
0
3
1
4
2
2
0
0
0
0
0
2
0
1
0
2
0
4
1
8
13
21
15
8
25
21
0
1
3
2
0
4
2
2
3
0
2
33
41
6
33
79
17
10
250
0
0
229
16
3
29
18
5
2
1
2
1
2
0
1
3
2
2
1
2
0
2
2
0
3
1
0
0
0
1
2
2
2
0
1
3
3
1
11
8
25
11
9
24
22
3
3
1
1
3
1
1
1
1
2
0
28
41
2
32
81
14
10
246
0
0
224
17
7
32
16
8
3
1
0
1
1
2
2
1
2
2
2
0
0
0
1
1
2
0
0
1
0
1
0
1
1
1
0
0
3
2
9
13
22
5
9
26
14
1
1
2
2
0
0
0
0
0
0
2
25
41
4
30
74
17
10
239
0
0
225
18
4
30
18
7
1
0
0
1
0
1
2
1
0
2
1
0
0
1
1
0
3
1
1
4
1
1
0
0
0
2
0
2
1
3
8
13
20
4
10
27
11
2
1
1
2
2
2
2
2
2
2
5
29
38
0
34
72
19
2
234
0
0
220
18
4
26
16
7
5
1
0
1
1
3
2
3
2
0
3
2
1
2
1
1
2
0
2
1
0
1
0
0
1
2
1
3
4
5
12
12
21
1
13
28
10
1
1
1
1
1
1
1
1
1
1
3
29
32
0
35
69
23
2
230
0
0
219
21
8
28
17
6
3
2
0
1
2
1
2
0
2
2
0
0
1
2
0
2
3
1
1
1
0
2
0
0
1
2
0
0
2
2
12
10
21
3
12
26
8
3
2
0
0
0
0
0
0
0
0
2
36
31
1
33
73
20
3
234
0
0
219
19
7
21
22
7
5
1
1
3
2
0
1
1
1
0
1
1
2
1
0
2
0
1
1
2
2
2
1
0
0
2
2
3
0
5
10
8
20
10
17
33
9
1
2
1
0
0
0
0
0
0
0
1
42
31
6
43
71
15
1
239
0
0
214
24
8
26
20
10
3
0
3
0
1
1
1
2
1
1
2
1
2
1
1
2
2
0
0
1
0
1
2
1
0
0
1
0
2
3
12
3
22
14
29
52
19
1
1
2
1
0
0
0
0
0
0
3
53
24
1
50
65
6
6
242
0
0
211
25
8
21
22
10
3
2
1
1
1
0
1
1
1
1
1
1
1
0
1
3
1
0
0
1
0
0
1
1
2
1
1
1
2
3
3
9
19
7
3
36
26
15
1
1
2
2
1
1
1
1
0
22
54
15
17
63
51
1
15
241
0
0
210
23
10
17
27
7
2
0
0
2
2
2
1
0
1
1
0
1
2
2
1
2
1
0
0
1
0
0
1
1
2
0
2
0
2
1
5
4
20
10
18
18
16
30
11
1
1
0
1
1
1
2
10
47
36
6
37
63
28
2
35
225
0
0
205
25
10
18
21
5
6
1
1
1
0
2
3
1
2
2
1
3
2
2
0
2
1
0
0
1
1
0
1
0
2
0
2
1
3
1
0
8
15
10
41
25
1
35
28
3
0
1
2
1
0
5
40
47
7
32
48
54
12
3
44
208
0
0
203
24
8
14
24
6
5
1
2
1
0
0
1
0
2
2
0
1
1
1
0
2
1
0
1
1
3
1
1
0
1
2
3
2
1
1
3
6
5
1
19
37
22
25
49
25
7
0
3
3
16
39
49
22
27
42
44
44
5
20
44
197
0
0
195
25
8
14
24
6
4
1
0
3
2
1
1
2
1
1
2
0
1
1
2
3
1
2
2
2
1
1
2
0
0
2
2
1
1
0
2
5
2
4
5
32
26
2
33
40
35
35
29
32
41
45
28
23
38
32
47
24
2
42
24
193
0
0
197
24
8
13
25
7
3
3
0
1
1
1
1
0
2
2
2
1
1
2
0
0
3
2
0
1
2
0
3
1
0
2
3
1
0
3
3
7
1
1
6
17
28
17
7
12
15
22
27
32
28
17
17
39
32
30
44
11
19
42
7
191
0
0
193
23
7
15
24
5
5
2
2
1
1
1
2
2
1
1
0
1
3
1
1
0
3
2
0
2
3
0
2
0
2
1
0
2
1
0
5
3
2
6
3
7
22
29
19
10
5
7
14
8
1
26
35
27
24
42
31
7
40
26
0
195
0
0
189
26
7
10
21
7
5
0
2
2
2
1
1
2
2
2
0
3
0
4
1
4
0
2
1
1
2
2
0
2
1
2
2
3
1
1
5
2
2
2
3
3
13
9
7
2
14
18
24
27
33
33
24
22
38
41
2
29
35
6
2
190
0
0
186
23
8
11
23
4
2
0
1
1
1
1
2
2
1
2
3
1
1
1
1
1
4
0
0
0
2
0
1
1
1
1
1
1
1
0
5
5
4
5
1
0
0
5
18
15
3
18
23
26
20
22
28
40
41
4
28
37
19
0
2
189
0
0
184
26
6
8
25
4
1
2
0
1
0
1
1
0
2
1
1
1
0
1
3
5
2
2
3
0
3
1
1
1
1
1
1
0
0
3
4
2
14
19
30
23
15
8
4
2
9
18
28
32
41
45
37
26
3
27
35
20
3
0
3
187
0
0
175
25
7
5
23
7
1
2
1
0
2
2
0
1
1
1
0
1
4
2
1
1
5
2
1
1
2
2
1
2
1
2
2
1
1
0
3
2
11
14
22
27
36
43
49
58
55
50
45
37
23
12
6
11
28
34
22
5
0
1
0
181
0
0
170
27
13
4
21
6
5
1
1
1
0
2
1
2
0
0
1
1
0
1
2
5
3
3
1
1
1
2
2
2
2
0
1
1
0
0
7
11
5
1
17
8
4
5
6
8
7
4
1
2
2
9
22
34
31
14
1
1
3
1
1
172
0
0
162
27
18
5
19
9
2
0
1
1
0
2
2
3
1
0
1
1
1
1
3
1
1
1
1
0
1
0
2
2
0
2
3
1
1
5
2
20
4
27
57
43
20
12
9
7
9
10
14
21
36
41
36
17
5
4
3
0
1
2
1
167
0
0
155
18
16
2
16
19
0
1
2
0
2
2
0
2
0
0
1
1
1
1
1
4
3
2
1
3
1
1
1
1
1
3
2
1
1
3
6
32
0
22
62
40
41
45
44
45
45
42
40
36
22
12
2
2
1
2
1
1
3
1
2
165
0
0
142
12
16
3
14
20
0
5
0
2
1
2
1
0
1
1
0
0
1
2
4
4
4
2
2
2
1
0
0
5
0
0
1
1
2
3
10
30
4
10
33
7
3
5
4
3
6
4
3
2
1
1
3
3
3
1
2
1
2
0
2
160
0
0
131
5
13
0
11
19
1
3
1
4
1
2
2
1
0
0
1
0
2
1
5
3
2
3
2
2
1
2
2
2
1
1
1
1
2
4
10
29
3
5
28
1
1
2
5
4
3
4
1
4
2
0
4
1
2
1
0
2
1
1
0
158
0
0
124
4
19
1
5
20
2
3
4
3
3
1
2
0
0
0
0
3
4
1
4
4
0
3
2
2
1
1
0
0
1
1
2
2
2
1
13
21
4
8
18
3
3
3
2
1
0
2
2
1
5
4
2
3
5
3
2
1
1
3
1
154
0
0
121
3
17
2
4
20
1
3
2
1
2
2
2
1
0
0
2
0
0
1
2
0
2
0
1
2
1
1
2
3
0
2
1
1
1
2
16
21
8
6
11
7
5
3
6
4
3
1
3
4
3
3
2
0
0
2
2
2
1
3
1
154
0
0
124
3
16
6
7
21
10
1
1
1
0
2
3
1
3
3
1
1
2
4
0
3
2
0
1
2
1
2
2
1
2
0
4
1
1
14
27
20
1
8
1
8
8
9
8
8
8
10
6
8
6
5
8
4
0
0
1
2
2
2
1
151
0
0
127
3
6
11
1
19
18
9
1
3
0
0
1
1
1
0
1
0
1
2
5
4
2
1
1
1
0
1
1
3
1
1
1
6
19
22
17
3
4
8
1
3
6
3
5
6
8
6
7
7
7
9
9
6
4
3
2
4
4
4
2
150
0
0
132
1
3
6
2
4
22
18
16
7
2
3
2
0
1
1
0
2
2
2
0
0
1
0
2
1
3
0
1
1
4
11
22
25
21
14
4
6
9
4
0
3
4
5
5
5
5
6
4
2
6
4
7
4
4
2
0
2
0
4
3
147
0
0
137
4
1
5
6
1
7
15
23
21
20
14
9
3
2
1
2
1
3
2
5
3
4
1
4
0
4
9
15
21
26
25
17
13
6
4
13
12
4
2
2
3
1
1
1
1
3
1
1
2
2
1
1
2
1
1
0
0
0
1
1
150
0
0
143
1
3
1
5
9
7
1
10
16
18
23
25
27
26
21
21
16
15
14
13
11
19
20
26
27
27
28
21
19
9
9
3
5
13
20
12
5
0
5
6
5
3
2
3
4
0
3
4
1
2
2
0
2
3
1
2
0
4
2
0
156
0
0
145
2
2
3
1
6
11
14
9
2
8
6
13
12
14
18
23
21
23
24
22
20
19
16
17
10
9
6
7
3
0
7
19
20
20
8
5
1
3
6
3
8
3
8
3
4
6
2
5
3
0
2
2
1
0
0
1
4
0
2
1
165
0
0
150
0
2
1
1
4
5
8
16
19
18
8
4
1
5
5
6
4
7
4
6
3
7
4
5
2
2
4
13
20
24
22
14
7
3
3
1
1
1
3
3
2
4
1
2
2
2
5
1
3
5
1
2
2
2
3
1
0
2
0
1
172
0
0
255
152
148
146
144
139
142
143
144
147
153
158
159
161
157
156
152
149
148
147
149
148
151
155
158
158
163
159
156
149
144
141
140
140
140
139
141
145
146
150
155
159
156
161
161
162
164
161
164
165
166
168
169
170
171
172
175
172
174
177
176
255
0
0
0
0
0
0
0
0
0
0
0
0
0
0
0
0
0
0
0
0
0
0
0
0
0
0
0
0
0
0
0
0
0
0
0
0
0
0
0
0
0
0
0
0
0
0
0
0
0
0
0
0
0
0
0
0
0
0
0
0
0
0
0
0
0
