P2
64 64
255
0
0
0
0
0
0
0
0
0
0
0
0
0
0
0
0
0
0
0
0
0
0
0
0
0
0
0
0
0
0
0
0
0
0
0
0
0
0
0
0
0
0
0
0
0
0
0
0
0
0
0
0
0
0
0
0
0
0
0
0
0
0
0
0
0
0
0
0
0
0
0
0
0
0
0
0
0
0
0
0
0
0
0
0
0
0
0
0
0
0
0
0
0
0
0
0
0
0
0
0
0
0
0
0
0
0
0
0
0
0
0
0
0
0
0
0
0
0
0
0
0
0
0
0
0
0
0
0
0
0
44
157
255
255
255
210
104
1
86
17
66
12
99
227
255
255
255
255
255
238
52
17
89
255
255
255
255
255
224
139
42
91
251
255
255
255
246
126
38
32
28
16
9
2
0
0
0
0
0
0
1
5
9
6
6
7
10
6
6
5
0
0
0
0
255
233
81
125
138
240
255
255
250
255
255
255
255
255
255
243
222
223
238
193
168
179
177
239
255
255
251
255
255
255
255
255
244
199
125
12
149
255
255
116
20
17
8
5
1
0
0
0
0
1
4
9
5
2
5
5
12
9
8
5
0
0
0
0
184
169
213
255
255
234
186
144
127
107
105
80
55
37
29
28
34
31
45
45
83
97
82
66
54
43
45
56
59
87
123
182
212
233
236
255
255
208
67
160
163
0
40
9
1
2
3
3
3
3
6
6
4
4
12
9
10
9
7
5
0
0
0
0
255
4
34
255
255
127
66
50
32
21
11
5
1
3
2
1
14
0
10
13
25
18
13
11
6
1
1
2
9
2
23
18
44
62
106
165
255
255
255
25
146
87
47
18
12
15
18
19
19
17
18
1
3
9
6
4
2
3
5
11
0
0
0
0
255
255
255
236
62
206
197
160
115
75
62
34
26
21
18
16
24
19
3
0
26
57
5
17
15
9
10
14
23
13
26
39
63
93
154
224
255
255
84
237
219
201
97
57
45
37
27
30
25
32
37
26
31
14
0
3
5
6
4
2
0
0
0
0
208
255
129
231
255
255
255
156
59
4
65
97
136
141
132
152
192
217
203
210
183
159
150
158
162
158
165
176
193
219
255
255
255
255
197
16
248
255
255
255
255
255
144
81
85
107
119
120
88
62
7
5
20
43
11
8
2
1
0
3
0
0
0
0
134
251
200
225
136
43
32
103
144
210
255
255
255
255
244
198
240
193
75
36
124
112
48
42
3
20
45
79
138
182
255
255
255
255
255
255
188
13
165
255
94
255
255
122
17
22
61
63
4
126
224
183
17
22
42
20
9
3
3
13
0
0
0
0
110
240
87
94
79
77
102
116
99
109
124
128
85
68
47
16
102
246
255
255
255
255
255
255
255
255
255
255
255
247
189
93
24
17
81
46
50
105
200
255
118
187
237
215
88
30
44
58
15
219
255
34
255
135
28
42
14
5
2
2
0
0
0
0
92
241
79
70
15
3
6
22
20
22
43
39
48
43
60
95
152
174
148
27
126
33
138
195
215
230
230
226
208
211
210
211
180
129
70
35
70
120
135
102
255
255
11
255
255
255
255
156
195
255
255
255
238
255
197
39
45
18
1
2
0
0
0
0
80
255
70
69
7
8
6
7
1
5
10
18
3
10
2
18
37
60
66
101
142
112
74
80
54
46
39
39
25
33
54
42
35
37
11
18
58
67
107
9
187
99
215
255
255
255
255
255
255
171
255
255
255
255
255
143
4
34
1
10
0
0
0
0
39
255
65
71
24
9
4
8
3
4
9
4
6
1
8
4
7
2
23
10
19
11
15
17
8
5
13
2
7
2
13
7
5
22
88
66
28
21
78
43
101
102
65
90
208
255
255
255
255
255
18
178
232
255
122
255
43
32
19
1
0
0
0
0
22
255
81
76
23
10
2
6
3
6
6
10
7
10
4
3
13
10
13
14
8
9
2
3
20
12
6
1
10
6
20
4
2
0
37
40
47
4
67
16
65
39
19
195
255
255
178
245
205
255
255
209
51
198
255
233
255
24
38
7
0
0
0
0
28
255
80
64
25
8
1
5
2
12
4
7
3
7
1
1
3
4
1
5
5
8
3
9
1
14
1
6
6
10
8
12
9
2
41
11
66
67
48
22
43
29
177
255
227
255
255
255
255
255
255
255
102
218
182
255
255
93
47
16
0
0
0
0
74
255
99
71
28
8
19
3
5
6
5
7
2
6
1
0
0
2
7
5
4
2
4
8
0
2
4
9
4
13
12
1
1
23
51
23
82
141
49
49
26
62
255
99
255
221
37
31
101
255
255
255
255
27
212
255
209
255
46
25
0
0
0
0
116
255
120
60
28
10
2
3
7
4
6
7
2
6
1
1
5
8
6
1
11
7
9
5
1
1
17
11
14
11
15
6
12
4
67
23
64
172
55
47
50
237
255
255
255
2
11
6
12
27
255
255
255
162
139
255
198
255
79
41
0
0
0
0
161
255
104
67
29
5
4
3
9
0
8
7
2
6
0
4
9
4
1
11
1
4
4
0
3
13
15
1
9
12
21
3
7
18
83
40
79
151
72
102
110
255
143
255
102
17
1
1
2
9
83
255
102
255
63
255
255
255
234
51
0
0
0
0
211
255
124
72
27
3
6
2
6
4
12
9
3
7
0
5
6
2
2
8
1
1
1
1
4
8
13
0
11
18
11
8
23
36
84
75
101
206
85
65
79
255
103
255
60
1
4
2
3
5
11
255
255
255
255
198
255
22
255
61
0
0
0
0
225
255
124
73
24
1
6
0
1
9
1
17
8
11
2
4
6
2
0
7
1
0
2
4
6
11
5
4
1
9
5
3
19
56
88
90
113
217
10
114
255
255
255
255
17
5
2
14
13
3
8
82
255
105
255
161
255
255
255
118
0
0
0
0
255
255
147
92
35
3
7
2
3
3
8
9
1
0
9
1
10
6
3
5
0
1
5
12
11
11
2
8
4
17
4
12
28
47
83
120
111
167
173
255
255
4
255
84
12
1
1
17
7
6
5
14
255
255
255
206
255
255
255
227
0
0
0
0
255
255
137
97
48
7
7
16
15
1
2
2
8
10
2
9
0
5
11
1
3
2
16
5
4
1
6
6
10
26
6
1
17
43
103
130
96
134
41
255
255
255
152
1
4
8
7
12
16
12
7
8
131
255
255
255
217
255
198
255
0
0
0
0
255
255
144
101
62
13
8
0
1
17
1
1
12
13
2
6
4
2
8
3
10
11
3
1
4
7
7
1
20
3
5
9
20
49
56
146
74
91
144
55
255
220
9
2
5
0
14
20
4
13
11
7
71
255
134
255
194
255
76
255
0
0
0
0
255
255
164
87
60
15
11
3
4
1
4
8
2
0
7
3
4
2
12
5
7
6
9
9
8
4
1
8
8
4
1
12
3
54
50
134
52
50
189
157
255
105
4
2
4
0
14
17
9
1
1
17
11
255
255
255
199
255
255
255
0
0
0
0
255
255
164
110
57
1
11
13
9
10
8
7
5
7
7
1
6
0
4
10
2
1
4
3
0
1
4
13
6
7
17
10
2
43
52
152
50
10
190
146
255
98
2
4
2
14
9
9
16
19
3
11
20
210
255
255
255
255
255
255
0
0
0
0
255
255
167
98
58
17
14
15
7
5
5
15
7
8
3
1
7
2
2
8
1
1
1
4
6
13
8
1
1
8
15
9
0
75
55
146
58
20
223
105
255
74
13
1
4
3
1
1
1
1
17
9
5
132
255
255
255
255
255
255
0
0
0
0
255
255
189
106
61
4
0
3
7
6
4
16
8
7
1
3
10
4
1
8
2
4
8
9
8
11
12
1
1
8
13
4
13
58
7
115
62
32
254
102
255
85
8
6
3
2
3
4
4
5
8
2
1
104
255
239
255
255
255
255
0
0
0
0
255
255
195
117
48
1
2
11
1
6
1
1
9
7
0
8
3
12
0
17
4
13
5
2
2
3
3
6
3
8
10
14
11
45
17
124
69
52
255
80
255
94
25
6
21
18
19
19
1
17
22
12
7
76
255
31
255
255
255
255
0
0
0
0
255
255
204
111
55
5
19
10
0
6
2
1
9
11
1
8
3
12
7
12
40
15
3
0
0
1
2
10
7
11
8
4
10
48
22
120
82
49
255
20
255
78
1
1
13
28
6
4
21
19
21
11
10
79
255
91
255
255
255
255
0
0
0
0
255
255
193
127
62
11
4
7
21
3
15
6
12
13
5
2
10
4
30
75
67
17
12
2
1
2
7
2
5
4
7
14
10
52
44
118
126
59
255
61
255
55
4
23
16
10
7
22
19
17
20
6
4
62
255
192
255
255
255
255
0
0
0
0
255
250
218
123
70
7
10
0
9
2
9
12
1
1
7
4
4
9
18
31
45
16
7
1
1
3
9
2
0
2
6
8
13
36
26
125
125
48
255
106
255
42
2
17
11
5
20
16
13
13
13
15
10
63
255
240
255
255
255
255
0
0
0
0
255
226
242
104
61
19
3
12
1
8
2
1
10
12
0
10
3
22
3
21
22
8
4
1
0
2
10
3
0
20
8
12
5
32
21
122
102
57
255
206
255
18
14
12
14
1
3
6
6
7
8
11
14
37
255
234
255
255
255
255
0
0
0
0
255
223
252
110
57
10
8
9
1
5
6
7
3
7
5
4
2
9
30
12
9
16
8
4
1
1
8
6
15
5
14
9
0
25
16
120
122
68
255
252
255
7
2
12
11
12
14
15
15
14
15
16
22
34
255
155
255
255
255
211
0
0
0
0
255
196
253
79
73
21
13
10
1
3
1
20
3
17
9
0
19
49
46
7
12
2
7
10
0
20
10
6
6
11
1
6
4
37
9
118
121
72
221
255
240
6
5
10
8
8
9
11
12
9
8
9
15
51
255
21
255
200
255
95
0
0
0
0
255
152
254
82
84
32
1
9
2
16
5
14
10
5
1
13
19
12
7
6
20
3
14
1
8
7
4
12
6
9
2
10
7
33
15
133
109
57
234
255
219
18
3
1
1
2
4
12
11
5
2
1
8
68
255
50
255
180
255
232
0
0
0
0
255
109
250
119
76
7
18
9
19
21
10
8
2
4
6
9
3
16
5
28
6
11
22
11
16
6
0
9
4
6
5
15
0
24
5
129
106
23
208
255
200
3
14
3
1
0
2
5
13
3
1
0
7
82
255
109
255
214
255
255
0
0
0
0
255
64
255
133
85
19
7
19
7
7
19
1
5
5
5
4
19
4
14
2
1
4
9
22
7
4
7
14
7
4
10
2
7
12
1
121
105
22
216
255
255
10
6
4
1
0
0
2
3
1
0
1
8
167
255
255
255
255
255
255
0
0
0
0
255
5
255
155
83
12
17
11
2
3
9
7
3
1
0
1
7
2
8
3
18
13
8
24
8
2
3
10
1
13
13
3
9
14
2
82
43
3
255
255
255
229
5
8
6
2
1
1
0
0
0
4
15
255
255
255
255
255
255
255
0
0
0
0
255
53
255
96
74
28
12
6
3
17
4
16
5
0
18
5
5
13
2
3
16
10
4
8
5
5
6
6
16
14
8
4
7
16
7
25
20
155
255
255
255
255
187
3
3
11
7
6
4
2
3
8
197
255
255
255
107
255
33
255
0
0
0
0
255
100
255
115
64
22
14
3
13
6
19
3
2
3
16
4
1
2
5
6
3
11
6
8
6
3
5
4
8
1
9
0
2
20
0
17
23
163
76
205
255
86
255
85
10
9
4
1
6
9
0
100
255
255
255
233
135
255
255
255
0
0
0
0
255
125
255
106
51
39
3
15
6
7
5
1
4
15
15
4
2
7
4
11
18
13
7
1
4
16
2
3
11
16
4
1
6
6
15
13
22
99
12
98
255
255
255
255
60
1
8
0
16
20
94
255
255
255
255
17
255
255
255
129
0
0
0
0
255
125
255
105
54
35
9
11
1
2
7
10
12
3
3
12
7
10
9
0
21
15
1
11
16
13
3
2
7
8
1
19
22
8
8
10
34
61
55
190
243
255
19
255
255
167
90
94
140
255
255
255
255
255
97
33
255
255
255
47
0
0
0
0
255
125
255
125
54
30
17
11
1
4
3
2
5
1
2
16
5
4
15
9
24
18
4
27
3
3
7
0
5
10
19
21
11
11
17
32
47
71
166
104
156
234
255
192
255
255
255
255
255
255
255
255
255
163
51
255
255
255
200
3
0
0
0
0
255
151
255
141
49
36
31
14
4
8
5
5
2
11
6
5
14
15
19
1
9
18
14
8
2
1
12
1
7
14
4
7
17
16
6
39
41
10
71
112
99
102
188
255
255
255
68
47
14
171
255
255
144
10
154
255
255
255
36
6
0
0
0
0
255
146
255
114
42
23
5
15
2
3
5
5
9
17
5
11
1
24
15
3
22
12
1
7
5
6
0
7
0
6
4
18
5
17
11
44
40
60
44
17
42
224
198
140
146
150
255
255
255
255
253
101
19
89
255
168
255
129
9
2
0
0
0
0
255
176
255
107
35
12
4
3
3
1
2
5
17
10
1
17
10
21
1
6
30
39
4
4
21
1
4
8
3
1
11
12
12
13
12
26
94
47
33
46
66
125
139
255
255
255
140
183
174
110
93
66
151
255
255
255
255
16
11
18
0
0
0
0
255
200
255
108
34
8
5
6
14
8
11
4
4
4
10
10
6
3
5
21
23
16
16
14
7
1
14
12
4
3
13
12
6
8
28
6
160
1
39
69
137
57
255
134
160
160
145
132
127
137
189
255
255
127
255
255
3
17
26
20
0
0
0
0
208
255
255
128
39
9
13
2
7
1
4
10
10
3
0
3
1
17
0
6
27
40
5
21
6
16
1
9
0
9
1
2
6
4
4
65
18
136
255
255
255
255
255
255
255
255
255
255
255
255
255
255
255
255
239
7
4
12
6
10
0
0
0
0
123
255
211
149
43
22
3
7
3
11
2
4
2
11
11
7
9
6
6
0
42
36
0
4
7
12
4
3
8
0
8
6
11
4
32
23
158
199
132
255
58
255
255
255
255
255
255
255
231
177
255
255
255
98
8
1
23
17
1
8
0
0
0
0
92
255
97
177
14
18
4
12
3
7
1
3
1
7
11
15
10
7
7
3
28
24
6
0
4
8
7
6
0
8
3
16
3
5
22
17
5
255
255
255
255
255
255
255
255
255
255
255
255
255
255
114
8
39
1
18
7
8
2
7
0
0
0
0
42
255
45
255
10
37
6
2
11
2
3
13
17
8
8
3
12
8
5
9
20
19
1
10
15
1
1
4
9
5
2
14
11
16
21
90
211
255
255
255
130
134
143
171
175
181
153
112
70
44
7
5
4
6
3
9
9
18
6
2
0
0
0
0
4
212
59
255
143
58
37
33
14
15
13
13
12
8
6
7
8
3
3
22
38
21
19
14
3
9
8
8
5
3
22
48
29
46
82
47
157
255
255
148
29
36
41
52
48
43
39
35
32
16
26
21
18
21
10
6
5
1
7
1
0
0
0
0
27
180
113
255
22
39
90
63
16
16
24
13
21
24
5
0
7
1
13
22
47
47
18
16
3
11
15
33
34
19
13
49
58
7
6
41
185
255
255
117
7
8
16
7
4
21
7
13
21
30
23
19
20
30
36
4
18
16
10
5
0
0
0
0
11
159
183
255
43
23
16
21
37
69
34
25
3
4
5
8
2
3
6
13
28
5
17
10
11
3
19
39
42
44
30
2
21
4
22
42
203
225
255
41
23
3
3
18
21
25
18
15
12
9
4
1
2
8
5
11
18
24
16
17
0
0
0
0
1
105
255
255
104
5
21
16
5
20
12
13
23
19
19
25
34
48
68
89
108
75
28
34
41
20
22
10
0
10
0
10
9
7
9
57
255
103
227
6
60
69
61
55
52
12
6
2
10
13
31
45
40
40
27
3
6
4
4
10
0
0
0
0
20
49
255
196
211
23
6
12
5
9
2
1
5
0
3
5
6
19
27
21
28
50
25
7
3
13
4
2
6
3
7
19
2
11
14
176
255
69
91
35
61
60
57
75
74
75
78
83
91
86
70
45
34
12
41
23
21
17
0
9
0
0
0
0
18
3
153
86
255
113
1
9
2
7
12
4
10
4
9
2
8
6
11
41
55
8
9
7
14
8
8
3
16
10
6
5
3
59
231
255
35
152
55
20
47
54
59
64
69
93
85
82
82
85
112
132
134
78
29
13
36
39
21
28
0
0
0
0
7
3
9
151
52
255
163
41
3
3
4
3
6
5
7
8
2
1
17
7
15
16
8
2
10
18
5
8
4
5
3
41
171
255
255
132
238
70
38
23
2
8
9
9
9
8
12
3
3
7
9
14
18
39
0
6
2
23
38
33
0
0
0
0
23
26
4
19
145
11
255
255
161
54
8
16
2
1
12
2
7
3
18
24
1
4
9
4
12
2
20
31
60
113
250
255
255
64
255
184
2
25
5
1
12
21
40
38
16
29
9
10
14
2
6
9
20
21
21
18
39
27
4
8
0
0
0
0
10
29
47
15
44
131
129
109
255
255
255
200
126
80
51
53
38
17
22
18
27
2
55
51
81
143
224
255
255
255
255
49
255
255
155
44
17
20
53
56
56
62
62
46
35
26
16
7
2
16
16
21
15
13
13
8
7
22
20
13
0
0
0
0
13
11
11
26
36
99
147
209
178
13
187
255
255
255
255
255
255
255
255
255
255
255
255
255
255
255
255
126
104
255
255
255
169
85
56
38
28
47
56
65
46
49
47
47
51
58
64
56
48
39
46
31
29
7
4
2
1
9
13
28
0
0
0
0
11
13
8
9
1
37
55
112
174
253
255
255
208
130
32
48
80
139
163
153
117
48
26
130
236
255
255
255
240
155
101
44
22
0
2
0
19
4
0
18
21
4
0
18
0
2
6
12
20
26
12
15
15
35
18
19
5
12
6
6
0
0
0
0
0
0
0
0
0
0
0
0
0
0
0
0
0
0
0
0
0
0
0
0
0
0
0
0
0
0
0
0
0
0
0
0
0
0
0
0
0
0
0
0
0
0
0
0
0
0
0
0
0
0
0
0
0
0
0
0
0
0
0
0
0
0
0
0
0
0
0
0
0
0
0
0
0
0
0
0
0
0
0
0
0
0
0
0
0
0
0
0
0
0
0
0
0
0
0
0
0
0
0
0
0
0
0
0
0
0
0
0
0
0
0
0
0
0
0
0
0
0
0
0
0
0
0
0
0
0
