P2
64 64
255
0
0
0
0
0
0
0
0
0
0
0
0
0
0
0
0
0
0
0
0
0
0
0
0
0
0
0
0
0
0
0
0
0
0
0
0
0
0
0
0
0
0
0
0
0
0
0
0
0
0
0
0
0
0
0
0
0
0
0
0
0
0
0
0
0
5
4
3
20
51
94
145
198
245
255
255
255
255
255
255
255
255
255
255
255
255
255
255
255
255
255
255
255
255
255
255
255
211
151
103
65
40
30
27
22
14
8
4
1
0
0
0
0
0
0
0
0
0
1
3
4
4
3
1
0
0
0
0
0
6
8
77
186
255
255
255
255
255
255
255
255
255
255
255
255
255
255
255
255
255
255
255
255
255
255
255
255
255
255
255
255
255
255
255
255
243
170
99
51
34
27
15
5
1
0
0
0
0
0
0
1
3
3
2
3
3
2
3
4
4
4
0
0
14
97
225
255
255
255
255
255
255
255
255
255
248
207
165
135
118
109
107
117
147
186
204
189
162
148
145
147
160
188
230
255
255
255
255
255
255
255
255
200
99
44
20
6
0
0
0
0
0
0
0
1
3
3
0
2
1
0
1
3
4
4
0
0
56
181
222
214
239
219
155
107
82
67
51
33
16
3
3
4
4
3
0
8
21
31
36
34
22
10
6
8
14
23
35
54
85
127
175
232
255
255
255
255
210
86
26
5
0
0
0
0
0
0
0
0
0
0
1
3
3
2
3
3
2
2
0
0
52
150
135
21
41
29
2
11
14
12
8
4
1
0
0
0
0
0
1
2
3
8
11
6
1
0
0
0
1
2
1
0
3
13
31
54
82
126
169
170
156
123
46
2
2
4
8
11
12
11
8
4
0
3
3
2
3
3
2
3
4
4
0
0
10
70
125
48
110
188
181
146
103
67
41
22
8
2
7
9
13
18
19
18
20
22
19
14
12
12
12
12
12
13
14
14
14
9
11
51
108
174
195
83
90
125
47
14
23
27
28
28
29
31
33
32
23
9
0
2
3
4
4
5
6
6
0
0
9
6
70
140
125
41
33
72
89
97
105
113
116
115
112
108
110
119
119
104
83
63
55
61
69
75
81
89
102
119
143
179
223
255
255
255
250
192
92
60
136
67
9
32
71
97
111
118
115
97
68
42
33
33
22
5
4
7
8
7
5
4
0
0
12
16
4
62
130
167
165
137
98
64
41
25
9
9
24
39
67
114
169
220
255
255
255
234
218
209
200
194
188
179
169
159
149
137
111
63
5
96
182
197
133
105
175
236
226
195
176
167
166
177
192
176
111
48
28
20
5
4
7
8
8
8
0
0
13
15
9
1
9
25
43
60
74
86
101
116
123
122
117
112
113
116
100
55
6
47
35
8
43
66
83
96
109
125
149
182
216
239
239
216
182
149
119
85
63
160
255
255
152
87
93
114
131
138
142
186
242
191
75
25
17
2
7
9
11
12
0
0
17
17
9
2
1
1
1
3
3
1
1
4
9
16
24
35
58
98
145
188
229
252
237
211
200
194
187
182
175
164
153
140
121
101
80
60
55
57
48
26
33
122
219
252
255
255
255
255
255
255
183
120
191
255
248
90
20
8
4
9
10
9
0
0
21
22
12
5
1
2
1
1
2
1
0
0
0
1
3
3
1
3
17
47
88
114
98
58
27
9
1
5
6
6
7
10
13
12
10
8
0
5
5
13
70
136
146
203
255
255
255
255
255
255
255
246
193
246
255
220
63
9
1
10
12
12
0
0
21
25
16
5
0
2
1
1
2
1
0
0
1
3
4
3
0
2
3
14
22
24
22
15
8
6
4
1
1
2
0
4
7
8
7
4
1
4
7
8
52
87
68
28
2
44
148
251
248
111
86
192
152
109
191
255
156
33
0
9
14
14
0
0
21
27
17
6
3
1
0
0
0
1
2
2
3
4
3
1
0
1
3
6
11
15
14
8
2
1
1
1
2
2
2
2
2
1
4
12
14
1
17
4
20
21
7
8
103
255
255
255
255
255
255
115
36
43
88
196
214
90
5
7
15
15
0
0
21
30
19
6
3
1
1
2
1
0
0
0
0
0
0
0
1
3
3
2
3
4
4
4
2
2
3
2
3
3
2
3
4
5
6
1
4
12
31
17
4
0
9
83
255
255
255
255
255
255
255
255
139
33
50
125
206
145
33
6
12
17
0
0
24
32
20
5
2
1
0
0
0
1
2
1
0
0
0
0
0
0
1
3
3
1
0
1
2
0
3
4
2
1
1
1
2
3
7
9
9
21
32
20
6
7
35
183
255
255
73
2
3
29
185
255
255
107
29
75
165
180
74
0
10
17
0
0
23
32
22
9
4
0
3
3
0
2
1
0
0
0
0
0
1
3
4
4
4
4
4
3
1
1
3
4
4
3
1
1
3
5
9
11
10
16
22
15
5
1
60
193
205
78
18
24
24
20
21
155
255
255
33
51
122
186
116
18
13
18
0
0
19
30
22
8
2
1
2
1
1
2
1
0
0
0
0
0
1
3
3
1
1
3
4
3
1
0
2
5
4
1
1
3
4
7
12
9
3
12
27
28
24
23
80
160
121
40
22
24
24
25
22
46
211
255
142
23
83
161
151
45
13
19
0
0
17
26
19
6
1
0
0
0
0
1
3
3
1
0
0
0
0
0
0
1
2
1
0
0
0
0
1
2
2
3
5
6
5
7
11
7
3
18
45
56
45
37
102
165
98
25
18
20
23
23
22
16
102
255
243
50
51
130
168
75
4
19
0
0
16
27
21
6
2
3
1
0
0
1
4
6
5
4
3
1
0
0
0
0
0
0
0
1
3
4
2
1
2
3
5
6
5
5
6
3
4
18
53
76
55
116
255
228
77
15
17
17
18
17
16
14
32
174
255
131
17
98
160
102
13
16
0
0
14
31
29
11
2
5
2
1
3
3
2
4
6
6
6
5
4
4
4
3
1
0
1
2
1
1
2
2
2
1
1
3
4
3
2
1
5
18
48
101
214
255
255
216
37
13
15
12
11
15
18
17
9
94
236
186
30
64
136
124
33
12
0
0
13
29
29
14
1
4
3
2
1
1
2
0
2
1
1
3
4
4
4
3
2
3
3
2
3
4
4
4
3
3
5
5
4
3
1
5
1
14
25
97
255
255
255
76
8
10
10
8
8
14
19
20
17
51
176
217
78
34
106
131
49
7
0
0
18
26
20
8
2
1
1
1
3
3
1
0
1
2
1
0
0
0
1
2
0
3
4
3
2
3
4
3
2
4
6
4
2
2
3
9
3
4
3
44
128
130
48
8
11
12
12
12
12
12
13
14
13
15
108
197
104
5
75
118
55
2
0
0
25
28
17
5
1
1
1
2
4
4
4
4
4
4
4
3
1
0
0
1
2
1
1
3
4
4
3
1
2
4
1
2
0
1
3
7
6
7
8
10
32
32
23
20
20
19
18
19
18
13
10
10
8
0
60
153
113
18
54
101
56
3
0
0
35
36
22
8
2
2
4
1
3
4
4
3
1
1
3
3
1
0
1
3
3
1
1
3
3
2
2
2
3
3
0
2
1
0
2
7
11
15
15
6
37
44
31
24
24
24
25
27
26
22
19
18
19
16
48
123
117
31
38
79
51
9
0
0
34
35
22
8
3
1
1
3
4
2
1
0
2
0
2
1
0
0
0
0
0
0
0
1
3
3
1
1
2
1
0
0
0
1
7
12
11
14
16
1
32
46
38
31
29
29
31
32
32
32
31
29
29
29
44
100
112
38
21
48
34
15
0
0
22
27
20
7
2
3
2
3
6
4
1
1
2
1
0
0
1
3
3
0
2
0
3
4
4
3
2
2
1
0
0
1
3
7
14
16
13
14
13
3
29
42
39
34
31
31
32
32
31
30
32
34
32
29
35
79
100
39
10
20
10
21
0
0
9
22
22
11
5
3
2
1
1
1
0
1
2
0
2
0
3
3
1
0
1
2
0
2
1
1
3
3
1
0
0
1
4
8
10
10
12
13
7
12
33
33
22
17
17
20
22
21
21
23
24
24
24
24
26
57
77
32
4
3
7
23
0
0
1
17
23
14
5
2
2
2
1
1
0
2
1
1
2
0
3
3
1
7
20
19
7
2
1
0
0
1
3
4
3
0
5
9
8
6
10
12
2
21
36
21
3
2
5
5
4
5
8
10
9
8
9
11
12
33
51
25
2
2
6
13
0
0
3
12
20
12
4
2
2
2
2
1
1
2
2
3
4
3
2
3
4
7
15
17
8
1
0
0
1
3
4
4
3
0
5
10
11
9
9
6
5
24
30
7
10
8
6
8
9
6
5
7
8
7
5
4
4
11
28
16
2
0
3
2
0
0
4
8
14
9
7
4
0
1
3
5
4
2
3
4
4
3
1
0
2
1
13
15
6
2
1
0
0
0
0
1
2
0
1
4
10
10
3
7
17
33
32
0
20
21
23
23
21
21
23
24
24
22
19
19
20
13
0
3
2
2
16
22
0
0
6
5
12
10
9
7
3
4
7
7
4
2
3
4
4
4
4
5
9
8
3
8
2
2
1
0
0
0
1
2
1
1
2
1
6
6
0
8
21
41
36
0
19
19
22
24
25
27
28
28
28
28
28
28
28
31
28
10
3
15
41
38
0
0
3
10
18
16
12
7
5
8
10
8
5
3
3
7
9
7
6
10
18
19
14
11
8
4
1
1
2
1
0
2
5
4
1
1
4
5
1
6
20
37
29
0
12
10
11
13
15
16
16
16
16
17
18
17
16
32
46
20
4
36
53
30
0
0
1
12
24
21
12
4
1
4
7
9
10
8
5
5
6
6
5
4
3
2
6
11
11
8
4
1
0
1
1
1
0
2
0
3
6
8
3
7
16
24
19
1
7
6
5
4
4
3
1
1
3
4
4
4
4
25
47
23
6
15
6
0
0
0
5
10
25
18
5
4
7
8
9
11
10
7
6
4
2
2
2
2
10
12
7
0
7
9
5
3
5
4
1
1
2
1
1
4
7
7
3
4
8
11
11
1
6
5
2
0
0
0
1
2
1
0
0
0
1
24
46
23
3
34
59
26
0
0
4
10
24
15
2
3
7
8
7
4
1
2
6
7
5
3
1
1
3
3
1
1
3
3
2
3
3
0
2
1
1
3
3
3
4
2
2
6
14
14
0
3
2
1
0
0
0
1
3
3
1
0
0
1
4
52
86
36
22
78
97
36
0
0
8
8
22
11
1
3
4
4
3
1
2
6
7
5
4
4
3
2
2
4
9
11
8
5
5
6
5
4
4
3
0
3
3
2
2
0
2
23
71
115
94
30
1
1
0
0
0
0
1
2
1
0
0
5
29
139
164
51
51
123
115
33
0
0
10
6
22
18
14
12
6
3
2
4
7
6
2
0
1
2
3
4
4
6
9
11
11
11
13
12
9
9
11
10
6
3
1
0
0
2
3
48
129
248
255
255
109
9
4
3
1
0
0
0
0
0
0
1
117
255
207
30
82
168
114
16
0
0
14
1
19
23
20
15
5
1
0
2
0
2
1
0
1
2
0
3
5
7
7
6
7
10
13
12
9
9
10
10
11
10
5
1
1
2
10
48
94
160
255
255
255
65
4
7
5
4
4
3
1
1
3
61
255
255
153
17
121
202
97
2
0
0
19
9
10
15
13
12
6
2
3
3
1
1
2
0
4
5
2
1
3
5
7
8
7
5
4
4
5
7
7
8
12
12
7
1
3
5
11
22
26
38
125
255
255
165
26
8
10
9
7
5
5
2
28
222
255
255
44
60
180
204
64
11
0
0
18
14
0
9
11
10
7
6
4
2
4
5
2
0
1
2
1
0
0
1
5
9
8
4
1
1
4
7
9
10
9
9
10
6
2
7
10
11
10
56
117
175
255
255
112
14
9
11
8
4
1
32
208
255
255
108
19
111
246
172
25
8
0
0
15
15
5
3
5
7
6
2
0
0
1
3
4
5
7
8
7
5
3
2
4
7
8
6
4
7
10
9
9
9
8
10
11
6
3
10
12
9
0
5
26
67
210
255
255
190
68
25
24
53
126
255
255
255
185
3
49
193
255
116
5
4
0
0
13
9
3
9
8
9
6
1
3
0
3
5
7
7
5
4
3
1
0
1
3
5
6
6
8
11
12
11
9
9
10
8
5
4
3
1
5
1
3
2
13
6
103
255
255
255
255
255
255
255
255
255
255
224
11
28
126
255
236
44
13
7
0
0
12
6
9
20
21
19
16
10
4
3
4
4
4
5
6
3
1
2
1
2
5
7
8
9
10
9
8
7
5
5
5
3
3
6
9
8
5
10
3
23
15
3
32
88
164
255
255
255
255
255
255
255
190
11
31
82
255
255
139
7
9
8
0
0
13
7
10
23
26
25
23
19
13
8
5
4
3
3
5
4
2
3
6
10
13
15
15
12
7
3
2
2
2
1
1
3
4
5
9
14
12
8
12
4
1
29
41
34
60
45
84
245
255
255
218
90
6
34
71
255
255
255
31
14
8
10
0
0
19
9
11
19
19
20
19
16
11
7
7
7
5
3
1
1
3
6
10
13
14
13
12
10
5
1
1
2
1
0
1
2
2
3
9
21
21
5
2
1
8
5
48
25
85
155
150
130
106
61
9
22
35
102
255
255
255
71
18
13
17
23
0
0
22
10
14
18
12
12
11
9
7
5
4
3
2
2
2
4
7
8
8
8
8
8
8
6
3
1
1
1
0
0
1
3
3
0
6
22
45
42
2
30
39
56
71
98
175
229
184
92
28
4
35
105
250
255
255
255
87
23
24
27
33
37
0
0
28
9
37
45
19
7
5
5
7
7
4
2
3
3
3
6
7
5
4
3
3
6
6
3
2
0
3
3
1
1
4
6
4
0
3
13
53
92
129
232
255
255
140
56
37
44
70
123
193
255
255
255
255
255
255
63
28
29
32
39
42
42
0
0
37
20
33
51
21
4
3
2
2
2
1
1
3
4
3
1
0
1
2
1
0
1
2
0
2
1
1
3
4
5
6
4
2
3
4
2
15
51
189
255
255
255
255
255
255
255
255
255
255
255
255
255
255
154
3
31
27
32
38
41
43
44
0
0
54
57
28
5
17
12
1
2
3
2
2
2
3
2
1
1
0
0
0
0
2
6
7
5
4
3
2
3
5
6
5
4
5
7
10
20
40
34
65
193
255
255
255
255
255
255
255
255
255
255
211
72
11
29
24
24
30
38
42
40
38
38
0
0
80
92
71
29
29
39
24
8
2
2
1
0
1
3
3
0
2
1
0
0
1
4
6
6
6
4
2
3
4
4
4
4
5
11
22
31
38
26
2
18
71
84
67
47
26
11
8
18
34
45
44
33
21
13
12
20
29
32
33
34
32
30
0
0
85
85
57
6
8
12
26
30
27
19
10
4
0
2
0
3
3
2
3
5
7
8
8
7
5
4
4
3
1
2
8
17
25
25
16
6
2
5
2
42
90
100
91
82
75
68
61
55
48
41
36
32
28
23
18
19
24
25
26
30
31
29
0
0
60
52
27
8
20
19
12
5
18
25
28
25
18
11
8
8
8
9
12
17
23
27
28
25
19
16
16
18
22
24
24
23
18
7
5
8
0
0
10
61
106
115
112
107
100
92
85
80
76
71
65
59
52
45
39
34
33
35
35
33
31
28
0
0
32
28
11
18
17
3
11
22
18
6
5
13
17
19
19
17
17
20
26
36
48
55
49
36
28
24
21
20
19
15
8
1
10
12
6
1
2
6
5
64
107
113
115
115
112
107
100
93
88
84
78
68
57
48
41
36
33
32
30
26
22
18
0
0
15
19
7
30
37
5
8
1
9
14
15
10
3
2
4
4
3
0
3
3
0
1
2
3
1
1
1
3
8
11
12
11
7
3
4
5
5
30
33
29
70
73
79
86
94
100
103
104
104
103
99
91
80
65
46
30
23
22
20
17
16
15
0
0
3
5
7
35
70
29
8
7
4
1
2
5
6
6
5
5
8
13
21
32
42
42
29
16
12
12
12
11
9
7
5
3
1
0
1
2
46
116
105
29
6
8
13
20
28
39
52
60
64
68
74
83
89
84
67
45
29
23
20
17
17
17
0
0
26
19
5
32
101
93
19
14
11
6
3
1
0
0
1
2
2
3
5
7
6
0
4
1
4
8
9
6
3
1
0
1
4
9
3
77
195
230
148
73
55
52
48
46
46
43
37
33
32
31
27
18
6
6
15
15
6
3
3
2
4
4
0
0
43
43
37
43
106
173
134
38
12
16
9
5
4
3
0
2
2
3
4
3
1
4
2
1
4
5
1
3
5
7
10
14
4
54
169
255
255
194
104
71
71
75
75
73
73
75
76
75
72
69
69
71
71
64
49
35
32
37
37
30
22
13
0
0
43
49
58
71
105
181
243
218
130
45
3
17
15
9
5
4
4
3
2
0
7
13
9
1
2
5
11
16
18
9
26
101
212
255
255
255
196
113
86
82
85
91
95
94
89
85
83
79
72
64
57
53
51
48
41
32
29
34
42
46
41
29
0
0
36
41
51
72
100
141
218
255
255
255
208
130
68
25
1
14
20
22
23
25
23
19
19
19
14
1
34
88
160
242
255
255
255
255
252
151
104
94
88
82
80
81
84
87
87
86
86
84
80
75
69
63
56
47
37
29
24
23
29
39
47
49
0
0
32
36
41
52
71
95
129
189
255
255
255
255
255
255
255
243
210
183
160
145
141
153
183
223
255
255
255
255
255
255
255
255
211
116
66
53
50
45
38
31
28
27
25
26
30
33
36
40
44
48
50
49
47
45
42
37
31
26
25
29
39
53
0
0
25
29
36
44
52
59
69
88
119
170
242
255
255
255
255
255
255
255
255
255
255
255
255
255
255
255
255
255
255
198
126
76
50
38
32
28
25
21
14
7
3
3
3
2
3
4
4
4
5
8
11
13
15
17
19
20
20
20
20
21
25
32
0
0
21
24
29
35
41
45
47
51
56
61
71
91
122
160
200
238
255
255
255
255
255
255
255
225
187
145
106
77
61
53
48
44
40
37
35
32
29
26
21
15
9
6
7
7
6
7
8
8
7
5
5
7
9
9
7
8
11
12
13
15
15
14
0
0
0
0
0
0
0
0
0
0
0
0
0
0
0
0
0
0
0
0
0
0
0
0
0
0
0
0
0
0
0
0
0
0
0
0
0
0
0
0
0
0
0
0
0
0
0
0
0
0
0
0
0
0
0
0
0
0
0
0
0
0
0
0
0
