P2
64 64
255
0
0
0
0
0
0
0
0
0
0
0
0
0
0
0
0
0
0
0
0
0
0
0
0
0
0
0
0
0
0
0
0
0
0
0
0
0
0
0
0
0
0
0
0
0
0
0
0
0
0
0
0
0
0
0
0
0
0
0
0
0
0
0
0
0
0
0
0
0
0
0
0
0
0
0
0
0
0
0
0
0
0
0
0
0
0
0
0
0
0
0
0
0
0
0
0
0
0
0
0
0
0
0
0
0
0
0
0
0
0
0
0
0
0
0
0
0
0
0
0
0
0
0
0
0
0
0
0
0
0
255
255
255
244
244
221
194
160
151
139
139
127
103
77
76
58
53
41
54
80
127
133
126
86
80
89
91
106
114
135
155
197
213
245
255
255
255
255
255
227
178
174
168
153
163
160
159
159
160
163
150
154
157
158
158
158
158
157
155
255
0
0
0
0
255
80
14
26
59
83
119
139
137
137
124
145
163
184
181
194
190
191
181
155
123
111
129
160
196
198
188
202
182
164
150
119
84
43
10
11
46
82
98
100
64
32
10
1
7
2
1
1
2
6
6
2
0
0
0
0
0
0
1
157
0
0
0
0
245
5
130
229
255
214
185
164
134
137
145
134
124
119
104
97
84
85
86
80
87
82
100
98
102
107
109
105
113
133
147
161
173
165
154
152
148
100
24
48
67
48
22
12
13
8
8
8
9
12
1
1
1
0
1
1
1
1
1
157
0
0
0
0
154
91
111
137
210
180
155
116
100
77
60
48
20
13
11
11
17
14
23
22
13
20
21
30
25
15
16
21
31
44
64
76
100
137
171
235
255
255
143
4
79
65
65
34
16
16
19
20
19
17
17
13
7
2
3
5
5
6
5
153
0
0
0
0
118
160
74
18
12
15
5
9
21
27
43
49
59
53
51
54
63
80
67
59
43
45
45
59
59
53
55
62
70
82
100
128
146
154
154
136
148
102
84
67
22
66
126
61
50
58
46
48
43
32
17
15
12
12
16
7
3
2
3
163
0
0
0
0
120
192
86
50
66
55
43
42
31
43
44
56
44
30
29
17
6
19
54
70
89
82
73
61
61
57
45
39
21
12
7
34
55
59
68
63
25
34
32
73
44
153
231
106
65
44
38
37
42
72
72
59
41
9
10
7
4
11
7
153
0
0
0
0
150
205
148
42
52
81
76
58
38
26
23
29
30
25
10
32
52
74
73
84
91
87
60
74
71
83
82
90
72
80
76
77
92
95
100
116
134
93
62
126
17
153
167
36
2
14
27
26
24
2
12
61
87
67
32
17
11
1
3
158
0
0
0
0
188
162
169
106
80
43
27
8
13
29
37
36
46
53
48
38
57
87
107
142
152
136
95
58
56
65
71
67
74
88
89
113
130
140
146
86
21
80
169
72
24
134
113
124
141
117
72
72
64
60
20
11
51
104
88
39
15
7
3
156
0
0
0
0
198
132
142
65
39
33
35
35
52
51
57
55
45
41
45
32
28
1
53
116
156
137
80
51
39
36
32
35
15
3
19
41
57
49
47
48
51
110
133
23
13
12
93
51
14
16
35
45
50
4
8
24
25
68
121
85
21
18
13
168
0
0
0
0
200
139
127
52
33
3
5
4
0
13
14
24
8
16
31
38
64
75
63
47
32
37
74
83
90
98
87
87
91
85
92
82
69
35
7
17
28
70
59
16
21
50
98
20
57
136
224
241
192
56
7
88
170
77
97
142
90
21
13
163
0
0
0
0
200
131
141
55
29
1
2
0
6
5
2
8
7
12
5
6
13
12
38
43
50
44
31
32
22
24
20
7
14
12
24
18
9
2
30
18
16
54
37
14
13
52
138
249
255
255
255
255
255
255
163
88
162
203
22
130
147
51
19
177
0
0
0
0
212
130
142
62
32
1
14
2
4
5
2
6
3
7
1
0
1
4
9
12
7
8
12
12
4
6
7
5
5
6
3
1
6
20
32
21
0
37
14
38
42
71
146
200
167
31
62
38
43
203
255
226
196
187
130
54
153
125
38
174
0
0
0
0
219
116
147
54
37
4
12
3
4
5
2
6
2
6
1
1
2
4
7
7
1
1
6
2
12
7
9
3
6
8
7
8
1
15
12
3
1
24
6
35
34
109
177
119
44
220
252
255
196
78
116
221
225
189
184
24
100
170
60
193
0
0
0
0
223
102
153
66
23
6
11
3
4
5
2
6
2
6
0
5
8
8
3
5
5
10
6
0
7
9
6
0
7
8
11
14
8
23
20
21
5
11
19
47
61
182
152
20
255
255
236
230
255
255
141
133
255
237
208
119
43
168
130
199
0
0
0
0
227
109
157
76
27
6
13
3
4
6
2
6
2
5
3
9
5
1
4
7
3
2
1
4
9
8
8
2
7
10
15
3
4
25
20
7
23
1
15
59
125
230
50
150
255
165
34
20
69
234
255
78
157
255
247
182
19
130
179
236
0
0
0
0
251
98
163
67
29
4
4
3
3
8
4
6
2
5
4
6
2
2
7
3
7
1
2
6
6
4
7
5
6
13
3
13
0
27
20
13
20
2
13
80
189
212
7
193
239
53
6
5
8
71
255
240
15
255
255
236
90
69
191
255
0
0
0
0
240
83
167
74
28
1
3
13
2
5
8
9
2
6
4
6
0
3
10
0
10
5
6
9
4
1
4
12
7
17
11
6
5
29
24
37
12
19
19
119
255
218
18
216
179
15
5
3
3
7
138
255
102
120
255
255
173
23
160
255
0
0
0
0
249
70
189
78
42
15
0
11
8
2
5
13
6
8
2
8
3
2
7
3
9
8
8
5
1
1
5
4
13
6
2
17
10
35
11
41
2
37
4
195
255
178
63
227
100
15
6
6
6
5
47
252
224
6
255
255
249
25
116
255
0
0
0
0
255
59
177
85
40
12
0
7
6
9
2
2
12
5
3
6
7
1
5
6
8
10
5
2
1
3
9
1
0
15
11
8
0
44
1
45
20
50
31
172
213
20
159
178
48
9
7
5
3
0
12
151
255
89
151
255
255
111
69
255
0
0
0
0
255
49
185
93
38
9
0
6
3
6
8
8
1
0
9
1
8
4
1
9
4
6
8
6
6
8
5
8
8
4
1
17
11
39
5
43
30
24
41
77
25
197
184
85
6
3
3
6
7
2
1
59
255
167
39
255
255
172
24
255
0
0
0
0
255
38
174
100
55
5
2
6
2
3
12
5
5
6
7
3
5
5
0
7
1
2
4
5
4
2
3
5
15
12
7
4
8
39
2
47
36
27
62
52
204
255
135
19
1
4
13
2
6
4
2
28
227
245
21
232
255
238
17
255
0
0
0
0
255
27
180
107
52
20
4
7
1
1
3
0
11
10
4
5
4
6
1
6
0
1
0
1
3
5
10
1
2
1
12
6
9
28
9
55
54
61
81
50
159
191
40
5
2
14
12
15
5
7
6
0
132
255
73
146
255
255
46
255
0
0
0
0
255
36
186
115
52
18
5
8
1
0
0
5
3
4
2
8
2
9
4
4
3
5
6
8
8
6
3
7
7
2
13
7
13
38
12
55
55
80
109
19
106
164
32
7
10
9
7
9
13
2
14
6
69
255
107
77
255
255
91
255
0
0
0
0
255
28
193
107
56
18
7
10
2
0
1
6
0
1
7
6
3
4
9
2
10
6
5
4
2
1
1
11
11
4
13
4
20
34
10
47
68
106
115
28
133
158
22
8
4
1
1
3
3
3
12
5
47
255
151
35
255
255
119
255
0
0
0
0
255
17
201
119
61
17
10
5
4
1
2
7
2
4
8
2
7
1
6
4
7
2
0
0
1
2
6
3
3
7
12
2
15
36
21
56
77
111
136
26
149
176
30
2
2
13
12
5
4
3
2
6
26
255
188
10
255
255
146
254
0
0
0
0
255
4
210
115
47
20
8
2
6
0
5
10
3
5
6
2
9
1
4
8
17
2
4
5
5
6
10
1
0
7
9
7
13
22
14
66
72
123
125
45
153
187
31
7
4
18
16
15
14
14
18
4
35
255
239
6
255
255
166
255
0
0
0
0
255
4
199
128
56
24
9
2
4
4
9
4
6
7
3
6
6
6
5
2
8
5
5
5
5
5
3
6
2
7
6
2
10
23
10
61
92
142
119
49
175
184
38
17
15
11
7
4
19
18
21
7
33
237
255
21
255
255
167
255
0
0
0
0
255
18
206
125
64
11
6
5
2
7
5
0
9
10
1
9
1
15
3
22
13
5
1
1
1
1
1
9
4
7
3
9
5
23
10
63
103
155
103
58
179
156
21
2
18
12
7
21
17
16
19
3
23
233
255
39
255
255
169
255
0
0
0
0
255
10
193
139
54
16
1
10
4
7
0
6
15
3
6
2
9
5
7
12
6
11
3
1
1
1
4
6
9
11
3
4
16
20
14
73
89
166
80
67
176
148
8
11
7
1
15
11
8
8
9
10
27
209
255
26
255
255
158
255
0
0
0
0
255
23
199
138
64
24
7
1
4
4
8
5
6
8
4
7
3
0
0
6
4
9
3
1
2
0
6
1
4
3
6
1
6
15
18
69
106
151
46
75
179
112
6
6
9
6
2
1
1
1
1
2
13
192
255
30
255
255
167
255
0
0
0
0
255
14
192
142
62
17
2
1
6
1
0
6
1
1
8
0
2
2
6
2
1
15
6
0
16
1
5
1
1
1
9
0
13
8
26
67
107
138
31
85
184
92
0
9
9
11
13
13
13
13
13
16
0
204
255
7
255
255
185
232
0
0
0
0
255
18
172
131
62
32
2
2
7
5
12
2
11
6
1
12
8
9
13
6
5
10
0
8
0
0
7
1
1
4
8
1
18
19
35
86
104
136
4
104
188
85
1
6
7
8
8
8
8
8
8
10
10
208
226
1
255
255
203
216
0
0
0
0
255
38
172
138
58
26
6
3
9
9
7
10
4
6
8
1
2
6
11
1
5
15
7
2
5
4
9
2
1
4
9
3
6
10
26
84
93
131
15
108
183
74
6
5
1
1
1
1
1
1
1
3
23
244
225
7
255
255
195
201
0
0
0
0
255
41
148
157
69
35
7
9
15
5
2
5
3
3
0
5
3
10
6
0
7
4
4
6
13
10
5
5
2
2
7
10
16
0
37
76
77
121
58
154
236
93
1
9
5
2
0
0
0
0
0
1
36
255
231
20
255
255
158
229
0
0
0
0
255
46
162
157
82
29
0
16
4
3
6
3
8
5
6
9
2
10
8
7
5
9
1
2
7
3
5
12
6
2
3
4
4
8
29
73
59
125
69
210
255
162
28
4
9
5
2
1
1
1
1
3
77
255
197
27
255
255
95
255
0
0
0
0
255
53
141
165
84
25
8
8
3
3
2
4
3
6
6
3
4
1
0
4
14
9
1
1
6
1
2
6
2
11
7
4
6
10
19
36
70
131
48
53
248
199
116
23
3
7
9
6
5
5
4
26
190
255
119
152
255
255
34
255
0
0
0
0
255
65
121
180
71
22
2
1
11
9
8
9
1
5
5
1
9
7
6
2
13
8
1
1
6
0
1
5
3
9
1
7
3
12
8
30
53
131
99
109
89
139
204
99
16
4
1
3
4
6
3
116
255
251
42
255
255
235
3
255
0
0
0
0
255
66
117
155
59
39
10
3
5
4
6
12
1
11
11
1
12
4
6
0
13
8
1
0
4
2
0
6
1
9
1
7
2
15
7
11
58
101
103
251
170
5
235
214
60
9
3
11
9
17
86
255
255
51
227
255
255
125
54
255
0
0
0
0
255
59
102
162
64
36
0
9
1
2
1
2
2
12
12
2
2
3
2
4
14
8
3
4
1
13
2
6
0
5
5
14
10
0
3
20
45
41
33
158
255
137
166
255
202
84
38
45
58
144
255
255
141
174
255
255
255
52
162
255
0
0
0
0
255
59
99
165
65
31
10
3
13
7
6
5
10
1
1
8
2
7
5
11
18
11
8
9
12
9
3
7
2
2
12
15
0
3
3
19
37
15
9
67
223
192
3
217
255
240
230
209
232
255
255
175
137
255
255
255
193
33
255
255
0
0
0
0
255
58
97
169
68
29
20
3
8
4
4
3
1
11
8
6
5
10
10
1
5
16
7
4
9
9
1
11
3
2
13
18
8
0
17
27
42
12
3
44
137
198
135
30
89
134
175
208
231
206
106
109
255
255
255
255
86
150
255
255
0
0
0
0
255
52
102
162
61
36
18
12
2
2
5
7
6
3
1
1
10
16
1
6
6
15
7
4
9
10
2
7
1
9
0
5
14
7
7
33
27
10
28
7
59
162
192
133
50
25
53
83
54
22
168
245
224
225
255
209
56
255
193
222
0
0
0
0
255
57
79
146
65
35
7
12
10
7
5
1
5
6
6
6
16
8
17
5
21
9
8
4
8
5
8
1
9
1
10
14
19
8
9
34
22
13
13
6
3
83
77
40
1
70
118
152
183
221
241
209
208
255
255
1
207
243
78
207
0
0
0
0
255
59
79
153
51
18
3
2
7
5
5
7
6
2
4
15
11
5
0
0
14
22
6
3
0
6
2
4
5
4
7
9
9
7
2
34
36
33
2
22
23
22
20
90
86
9
135
191
212
199
209
234
255
255
36
193
255
148
21
202
0
0
0
0
255
55
67
160
51
12
12
1
5
0
3
4
0
10
5
8
6
5
1
16
29
21
8
12
5
13
3
4
5
4
7
8
1
4
12
19
26
91
132
193
168
124
85
54
41
104
175
232
255
255
255
255
174
8
187
247
159
43
6
202
0
0
0
0
255
66
41
149
63
17
11
2
1
8
6
2
6
3
4
0
0
17
5
2
16
28
1
0
7
12
6
1
7
1
11
10
2
4
6
15
22
78
106
147
181
231
255
255
255
255
255
255
253
179
110
44
77
199
237
162
54
8
5
184
0
0
0
0
255
107
11
130
63
29
1
5
6
2
9
6
9
1
0
6
6
5
3
14
29
24
14
2
7
9
8
5
4
8
1
1
3
1
2
26
64
37
26
114
62
30
61
78
97
88
64
39
24
24
85
164
229
213
114
23
1
14
2
177
0
0
0
0
255
134
26
120
77
4
2
5
6
2
8
7
9
3
2
7
8
7
3
16
15
10
1
3
3
5
3
6
6
1
5
13
0
1
24
15
122
15
195
255
255
170
113
91
81
90
99
123
165
237
255
235
138
57
1
10
3
3
8
170
0
0
0
0
255
118
11
113
125
16
3
9
4
9
5
3
7
1
0
6
7
5
2
4
25
23
12
6
13
2
6
4
0
3
14
15
4
8
26
68
192
12
185
255
255
255
255
255
255
255
255
255
235
170
112
51
10
2
7
1
2
11
0
155
0
0
0
0
229
104
11
105
133
24
25
2
8
9
8
7
1
5
5
1
0
4
4
24
31
28
15
6
4
2
1
3
21
2
2
5
4
15
30
91
195
35
99
239
105
65
75
73
70
81
71
60
49
21
18
22
17
17
9
8
3
7
0
149
0
0
0
0
179
90
2
83
127
28
22
14
20
1
5
7
3
0
0
5
2
7
7
26
19
16
16
7
8
3
8
9
8
7
7
6
0
15
32
94
179
13
64
172
35
7
15
30
27
25
27
15
24
16
9
23
6
15
1
1
8
3
6
156
0
0
0
0
166
114
18
52
127
32
18
23
23
17
2
9
3
0
0
4
17
20
9
20
19
4
13
12
14
7
5
4
5
7
9
12
11
11
13
100
149
37
59
115
3
22
19
13
6
1
13
10
9
26
22
18
19
29
20
13
3
6
17
156
0
0
0
0
153
109
26
45
129
31
11
8
7
14
11
15
6
3
4
11
5
6
11
15
9
12
5
9
14
9
9
11
16
3
9
5
4
1
34
127
150
56
44
64
35
41
33
43
34
25
16
22
29
21
16
3
1
5
14
10
8
2
18
146
0
0
0
0
124
95
47
51
142
82
17
6
7
1
5
13
1
15
17
8
6
12
19
2
12
11
1
6
13
9
9
5
2
9
4
18
7
31
110
182
135
16
50
13
49
59
60
59
58
60
64
50
56
47
44
51
30
6
1
4
16
16
17
142
0
0
0
0
116
48
67
15
125
135
76
22
8
1
4
4
3
2
2
3
1
5
12
27
21
10
6
2
5
1
3
0
13
5
5
25
66
133
158
125
34
30
51
8
27
44
35
42
50
59
53
52
52
55
63
66
45
29
17
4
20
27
28
134
0
0
0
0
131
22
45
16
48
143
137
116
64
30
1
4
2
3
3
0
8
13
16
10
6
1
1
5
5
11
5
11
24
50
92
148
168
150
100
26
42
59
33
3
17
28
32
34
35
36
41
32
24
38
37
46
34
28
14
1
7
5
24
128
0
0
0
0
156
6
33
39
0
55
109
158
152
138
106
76
47
35
17
11
19
1
3
14
8
1
20
8
25
49
81
111
146
169
167
130
96
42
30
83
80
37
20
18
18
7
3
4
6
10
6
8
10
4
5
3
12
7
2
2
2
4
3
144
0
0
0
0
154
17
16
37
57
46
2
70
114
137
158
172
177
170
147
143
120
110
105
94
89
124
140
166
173
177
179
152
133
86
67
17
38
93
126
91
43
13
34
41
39
24
21
23
26
12
19
25
10
13
12
5
11
14
1
8
7
21
15
158
0
0
0
0
157
17
18
16
48
78
90
61
13
42
57
94
102
115
136
160
150
159
161
151
137
137
124
127
93
78
61
48
18
15
59
120
135
130
75
41
15
21
39
32
48
32
45
27
30
35
24
32
22
9
14
14
10
5
1
1
19
9
12
172
0
0
0
0
255
160
155
153
168
183
207
247
255
250
203
170
142
115
106
96
100
87
96
94
105
95
111
114
136
163
181
226
255
255
255
243
203
178
164
153
152
157
172
176
179
182
176
176
178
183
190
178
186
193
179
182
183
184
187
171
176
184
180
255
0
0
0
0
0
0
0
0
0
0
0
0
0
0
0
0
0
0
0
0
0
0
0
0
0
0
0
0
0
0
0
0
0
0
0
0
0
0
0
0
0
0
0
0
0
0
0
0
0
0
0
0
0
0
0
0
0
0
0
0
0
0
0
0
0
0
0
0
0
0
0
0
0
0
0
0
0
0
0
0
0
0
0
0
0
0
0
0
0
0
0
0
0
0
0
0
0
0
0
0
0
0
0
0
0
0
0
0
0
0
0
0
0
0
0
0
0
0
0
0
0
0
0
0
0
0
0
0
0
0
