P2
64 64
255
0
0
0
0
0
0
0
0
0
0
0
0
0
0
0
0
0
0
0
0
0
0
0
0
0
0
0
0
0
0
0
0
0
0
0
0
0
0
0
0
0
0
0
0
0
0
0
0
0
0
0
0
0
0
0
0
0
0
0
0
0
0
0
0
0
0
1
1
3
6
12
28
44
51
53
44
38
42
49
60
56
55
48
51
50
42
32
28
37
60
56
62
64
71
71
67
60
49
28
16
4
1
0
6
7
3
1
2
0
0
0
0
0
0
0
0
0
0
1
3
2
1
1
0
0
0
0
0
0
2
0
18
48
56
53
37
18
0
20
3
16
4
15
42
50
54
56
58
59
45
7
3
14
55
45
48
53
54
43
27
9
14
47
50
63
55
37
10
4
3
7
1
2
0
0
0
0
0
0
0
0
1
2
1
1
1
3
2
1
1
1
0
0
4
43
49
23
25
23
42
49
44
35
43
55
55
55
43
35
32
27
27
31
24
24
28
24
31
36
36
32
35
36
42
50
50
43
36
27
2
25
58
51
14
12
6
1
1
0
0
0
0
0
0
1
2
1
0
1
1
4
3
1
1
1
0
0
24
43
50
28
33
39
30
23
16
16
10
9
4
0
1
1
1
2
0
3
2
11
12
9
6
3
1
2
4
3
8
11
23
27
33
31
50
51
38
20
27
27
7
9
0
0
0
0
0
0
0
1
1
0
1
3
2
3
3
2
0
1
0
0
67
80
25
15
116
37
7
0
1
1
0
1
0
0
0
0
1
3
1
2
4
6
3
2
1
1
0
0
0
2
2
4
1
4
4
10
13
28
69
80
15
31
8
5
1
1
2
3
3
3
2
2
1
1
2
1
1
1
0
2
3
3
0
0
78
61
58
70
51
20
48
42
31
21
11
8
1
1
2
2
3
2
4
6
6
7
15
4
1
2
3
3
3
2
5
5
4
3
2
16
33
55
99
15
73
61
44
9
8
5
3
0
1
1
4
8
5
5
1
0
1
1
1
1
0
1
0
0
80
36
65
26
40
76
84
60
27
9
5
19
25
33
33
30
32
40
43
35
35
25
24
23
24
26
26
28
31
36
42
53
64
78
75
48
10
43
113
85
70
50
52
4
7
12
18
22
23
14
6
10
7
5
9
1
2
0
0
0
1
1
0
0
78
30
29
24
45
33
19
2
17
25
40
54
58
58
54
49
37
46
33
7
13
36
29
15
17
9
4
0
7
21
28
59
78
115
118
111
74
26
20
31
56
19
120
62
28
6
3
14
16
1
28
54
30
14
6
11
0
2
0
1
3
2
0
0
76
25
36
4
8
7
9
17
23
20
25
29
32
22
20
14
8
14
42
64
79
114
84
73
76
81
69
74
65
56
43
29
8
11
18
33
18
11
11
21
62
9
41
65
61
33
18
1
7
7
51
80
17
82
2
11
12
1
1
0
1
1
0
0
71
21
35
6
11
0
1
2
0
0
1
3
0
5
3
8
14
28
35
36
17
11
5
37
44
49
50
51
49
44
43
39
37
28
18
6
2
8
18
13
29
106
113
17
133
118
72
55
31
40
64
72
106
49
107
12
13
11
1
0
1
0
0
0
76
20
41
3
11
1
1
1
2
0
1
1
4
1
2
2
1
1
5
4
14
26
18
5
7
0
0
3
1
4
2
3
1
1
5
1
4
10
6
17
0
30
3
36
89
94
79
61
50
46
40
40
92
91
75
110
0
0
6
2
3
2
0
0
72
10
45
1
11
3
2
0
2
1
1
2
2
1
1
2
0
2
1
4
2
1
2
2
2
1
2
4
1
2
0
2
2
1
3
16
11
5
1
15
13
22
18
3
0
1
40
88
98
84
47
22
68
12
66
34
99
14
8
2
1
0
0
0
70
9
43
5
12
2
2
0
1
1
2
1
2
1
2
0
1
3
2
2
3
1
2
1
1
4
2
2
0
2
0
4
0
1
1
3
8
10
2
13
6
9
2
3
3
118
71
35
49
39
155
103
94
30
3
88
51
41
4
7
0
1
0
0
68
2
50
3
9
3
2
1
1
0
3
0
1
0
1
0
0
1
1
0
2
1
1
1
2
1
3
1
2
2
2
0
3
3
3
8
2
13
15
10
1
6
6
1
139
45
156
87
78
138
146
128
132
63
58
3
81
101
5
9
1
1
0
0
59
11
51
6
11
3
1
4
0
1
2
1
1
0
1
0
0
0
0
2
2
1
0
1
2
0
1
2
2
1
2
2
1
1
4
8
2
19
29
12
6
5
11
108
20
146
3
8
7
10
48
202
137
73
29
34
62
38
44
0
4
0
0
0
61
18
53
11
7
4
3
1
1
2
1
1
1
0
1
0
0
1
2
2
1
2
1
2
1
0
0
4
2
3
1
2
1
2
2
12
3
15
35
14
3
2
26
82
125
19
4
0
0
1
12
51
151
186
13
21
34
46
92
5
8
1
0
0
54
27
57
5
10
3
1
1
0
2
0
1
1
0
1
0
1
2
1
1
3
0
1
1
0
1
3
3
0
1
1
4
2
1
1
15
6
17
28
14
16
9
62
27
95
0
4
1
0
0
2
14
136
19
119
19
37
68
66
27
4
2
0
0
48
38
59
10
10
3
0
1
0
1
1
2
1
0
1
0
1
1
0
0
2
0
0
0
0
0
3
3
1
2
3
1
1
5
4
15
12
22
42
20
8
9
93
16
77
2
0
1
0
0
1
0
20
160
165
13
22
53
0
72
3
5
0
0
45
39
61
8
10
2
0
1
0
0
2
0
3
1
2
0
1
1
0
0
1
0
0
0
1
2
3
2
1
1
1
1
1
4
8
16
13
24
43
11
7
22
183
99
36
4
0
1
2
3
1
0
9
133
22
96
4
43
59
96
2
9
0
0
41
50
62
13
13
4
1
1
1
1
0
2
2
1
0
2
0
2
1
1
1
0
0
2
3
2
2
1
2
0
3
2
2
6
6
15
20
19
23
40
70
158
9
106
6
4
1
0
4
3
1
0
3
35
129
156
1
32
84
83
23
5
0
0
34
54
55
11
13
6
2
1
3
3
0
0
1
2
3
0
2
0
1
2
0
1
0
4
2
1
1
2
2
1
5
1
1
3
4
22
22
16
23
16
72
75
128
1
1
0
2
1
3
4
2
2
1
5
152
94
52
12
91
39
54
4
0
0
30
61
56
12
14
9
4
3
0
0
4
1
0
2
3
0
1
1
0
2
1
2
2
0
0
1
2
2
0
4
2
1
1
5
7
11
25
12
22
27
12
107
6
3
0
1
0
2
3
0
2
2
3
4
103
27
110
2
74
15
82
1
0
0
28
62
56
17
9
9
4
2
1
1
1
1
2
1
1
2
1
1
1
3
1
1
1
2
2
2
1
0
1
1
1
1
2
1
8
11
22
7
14
28
37
60
8
2
0
1
1
2
3
3
0
0
3
5
42
110
144
1
58
57
103
3
0
0
24
72
64
14
16
7
1
1
2
2
3
2
2
1
2
2
0
1
0
1
2
0
0
1
1
0
1
0
3
2
1
3
1
1
4
12
27
5
7
27
31
66
6
1
1
1
3
1
1
3
4
2
1
6
12
142
130
17
37
94
106
12
0
0
28
77
62
15
12
7
3
3
2
1
1
1
3
1
2
0
0
1
0
0
1
0
0
0
1
2
4
2
1
0
1
2
1
2
12
13
26
6
3
34
23
72
0
3
0
1
0
0
0
0
1
4
1
0
2
142
90
50
21
109
92
33
0
0
26
82
65
19
13
9
3
1
1
2
1
1
3
1
1
0
0
2
1
0
2
0
1
2
2
2
3
2
0
0
1
2
0
1
9
1
17
8
3
39
24
79
1
1
1
0
0
0
0
1
0
2
1
1
4
131
50
73
14
110
77
44
0
0
22
85
63
19
16
5
1
0
2
0
1
0
1
2
2
0
2
1
3
0
3
1
3
1
0
0
1
1
1
0
1
1
3
1
6
6
21
8
1
42
20
80
2
5
0
4
2
3
4
2
3
3
2
1
7
115
7
96
16
107
74
53
0
0
15
93
63
22
13
7
1
5
3
1
1
1
0
1
2
0
2
1
3
0
3
10
2
0
0
0
0
0
2
1
2
1
0
1
7
5
19
10
2
47
9
79
0
1
1
1
5
0
1
4
2
3
1
3
4
105
15
109
16
107
76
55
0
0
12
92
57
19
17
8
4
3
3
5
1
3
1
2
2
1
0
2
1
8
15
13
5
4
1
0
0
2
1
1
1
1
2
3
8
10
18
19
1
50
8
71
3
1
4
2
1
0
4
2
2
3
0
1
6
93
37
121
11
109
76
56
0
0
4
97
54
25
15
10
3
2
0
1
1
2
3
1
0
2
1
1
1
3
4
8
4
1
0
0
1
3
1
0
1
1
1
3
5
6
19
19
5
57
15
62
3
0
3
2
0
4
2
2
2
2
2
3
4
90
45
120
18
104
73
58
0
0
9
91
47
31
10
8
3
1
3
0
2
0
1
2
2
0
2
0
4
0
4
5
0
1
0
0
0
3
0
0
4
1
3
2
5
6
19
13
2
56
37
48
5
2
2
3
1
1
1
1
1
2
3
2
8
84
45
118
21
90
69
55
0
0
2
93
48
32
13
7
0
1
2
0
1
1
1
0
2
2
1
1
4
6
3
0
4
3
1
0
0
3
2
4
1
3
2
1
3
5
18
18
0
50
43
41
6
2
2
1
2
2
2
2
2
2
3
2
9
88
31
115
12
82
39
62
0
0
3
96
43
34
5
11
2
3
1
0
1
1
4
1
4
3
1
5
10
8
0
2
1
2
2
1
4
2
1
2
3
0
1
0
6
4
17
17
2
44
51
32
5
2
2
1
1
1
2
2
1
1
1
1
8
100
3
107
2
104
17
74
0
0
1
89
34
36
5
13
4
1
2
2
3
1
2
2
1
0
4
5
3
4
2
4
1
3
0
1
1
1
3
1
2
0
2
3
6
1
20
15
1
50
55
28
1
0
0
0
0
1
3
2
1
0
0
0
7
112
12
101
7
119
48
66
0
0
1
89
27
35
13
10
1
4
0
4
4
2
1
0
1
1
3
3
5
4
7
1
2
4
2
3
2
0
2
0
1
1
3
1
4
2
19
15
6
47
64
22
3
3
1
0
0
0
2
3
1
0
0
0
7
125
20
90
1
134
89
45
0
0
2
84
19
37
13
12
2
0
4
3
1
4
0
1
1
1
2
5
3
4
2
0
2
2
4
0
1
1
2
1
0
2
0
1
1
3
18
18
16
50
102
28
5
3
0
0
0
0
0
1
0
0
0
1
2
168
84
59
11
133
130
16
0
0
6
81
4
50
18
11
0
3
1
1
0
2
2
1
0
1
0
1
0
1
0
3
2
2
5
1
0
0
2
0
2
2
1
1
2
2
13
7
19
84
92
142
9
3
2
1
0
0
0
0
0
0
0
5
50
155
162
9
44
97
140
1
0
0
3
75
5
53
3
11
4
3
1
2
4
1
4
0
1
5
2
2
3
0
0
3
1
0
2
1
1
1
1
4
3
1
1
1
2
2
4
1
25
42
91
80
134
4
0
1
2
1
1
1
0
0
1
7
186
73
99
17
109
5
103
8
0
0
8
70
14
53
10
9
1
3
0
3
2
4
2
1
2
4
0
0
0
1
1
2
2
1
1
1
0
1
1
2
0
2
0
0
4
1
3
0
23
20
88
166
22
97
4
1
2
0
0
2
2
3
12
118
73
175
8
7
160
122
36
2
0
0
6
63
20
56
7
6
6
0
3
0
2
1
0
0
3
2
0
0
1
1
2
3
2
2
0
0
3
0
1
3
4
0
0
2
0
4
3
0
16
1
29
70
90
125
33
3
2
2
1
2
1
10
80
162
168
45
12
52
106
157
6
1
0
0
6
59
20
54
7
7
5
3
1
0
0
2
2
2
0
0
3
1
2
1
1
3
2
0
1
3
2
0
0
2
2
1
3
4
2
2
0
4
11
13
44
21
67
21
140
56
7
0
2
8
31
98
146
121
84
7
27
163
71
75
4
2
0
0
2
52
21
58
10
7
3
3
3
0
1
1
0
1
1
0
4
1
2
3
2
4
2
2
6
2
1
2
0
1
3
4
3
1
3
2
5
4
18
36
25
25
27
50
51
72
111
88
85
86
87
81
105
92
10
18
44
148
176
2
1
0
0
0
5
53
26
52
15
5
5
5
2
1
2
1
1
1
3
1
1
3
2
3
0
0
4
4
0
0
1
3
0
1
3
0
0
3
3
0
5
7
3
24
26
23
3
19
59
111
76
17
0
3
27
100
65
4
4
22
199
97
73
6
0
0
0
0
2
48
24
51
9
5
3
1
3
1
1
1
1
2
4
1
2
2
4
2
1
4
0
1
2
2
1
0
2
0
1
2
4
1
3
2
6
7
14
9
1
16
49
28
29
33
26
41
36
53
66
22
5
10
31
153
37
163
9
0
0
0
0
0
2
44
31
49
9
4
1
1
0
1
0
0
2
4
2
0
3
1
4
1
0
4
8
3
1
5
1
2
3
1
0
2
1
2
2
2
2
15
9
7
13
10
38
49
58
95
56
22
20
20
5
12
4
21
147
88
190
5
4
2
2
6
0
0
5
38
36
55
8
4
1
2
1
3
2
2
1
0
1
2
1
1
1
2
4
3
0
4
3
0
0
4
4
0
0
2
2
1
3
5
4
33
7
5
12
16
11
76
38
32
30
15
11
7
5
4
55
168
29
181
16
4
4
4
3
1
0
0
1
27
48
66
10
5
0
3
0
1
1
1
2
2
0
0
1
1
4
1
0
3
7
0
4
0
3
1
3
1
2
0
1
1
0
3
13
2
16
91
106
80
68
65
31
36
39
36
46
65
108
138
79
98
138
2
4
1
1
0
2
1
0
0
1
6
79
44
18
4
3
0
2
0
3
1
1
1
3
3
2
2
0
1
1
7
5
1
0
1
2
2
2
2
0
2
1
2
0
5
3
38
35
19
93
24
65
91
106
112
107
97
79
50
33
127
132
50
8
1
0
4
3
0
2
2
0
0
3
2
86
25
20
1
5
1
3
1
2
0
1
0
2
3
3
1
1
1
0
4
3
1
0
0
1
2
2
0
2
1
3
0
1
4
4
19
99
119
116
101
120
127
125
122
119
122
125
114
75
25
3
7
6
1
3
1
2
1
1
3
0
0
6
4
60
8
68
17
8
4
1
2
1
1
3
3
2
2
1
2
1
1
1
2
3
1
1
3
0
1
1
2
2
2
1
0
5
0
15
26
81
85
26
0
2
1
7
7
10
4
3
9
5
4
1
2
1
1
2
2
3
1
1
2
0
0
2
6
32
13
47
22
11
12
7
2
2
1
3
3
2
2
2
2
0
0
3
6
1
4
4
0
2
3
1
0
1
4
10
8
9
16
2
10
74
83
9
3
6
6
8
7
5
6
6
7
2
5
3
2
3
1
2
1
0
1
0
2
0
0
6
9
28
22
50
10
6
19
11
2
5
5
2
4
5
1
1
2
1
2
2
6
8
2
4
0
2
3
7
7
5
2
10
13
1
5
4
22
54
80
8
0
0
2
1
2
3
1
1
2
5
3
3
3
5
7
0
4
4
2
0
1
0
0
2
5
22
36
56
1
5
6
3
5
15
5
5
0
1
1
3
0
1
3
4
8
2
3
1
1
0
3
8
8
9
5
2
6
1
5
2
25
45
64
4
3
2
0
5
5
4
3
2
1
0
1
2
1
4
0
2
4
5
2
3
1
0
0
3
0
9
51
61
7
1
3
3
1
7
2
1
4
3
3
5
6
9
13
16
21
15
4
6
8
2
4
0
1
4
0
1
1
2
1
2
40
19
43
7
8
11
9
8
9
0
0
2
4
4
7
9
7
7
4
2
3
0
0
2
4
0
0
4
3
1
59
42
24
0
0
2
2
1
1
1
1
1
0
2
2
5
7
5
6
12
5
2
3
3
2
1
1
2
1
4
1
2
3
11
74
22
10
7
8
7
6
10
9
10
11
12
14
13
10
5
4
3
8
5
4
2
1
1
1
0
0
3
2
3
21
26
73
0
2
1
0
1
3
2
3
1
2
0
2
2
0
6
10
1
3
1
4
2
1
0
3
2
0
1
3
2
24
79
3
25
6
4
7
8
9
10
10
15
12
12
12
12
18
21
23
12
6
2
6
6
2
4
4
0
0
0
2
0
5
29
1
71
12
2
2
0
1
1
2
1
2
2
1
0
3
0
4
3
3
0
2
3
0
1
0
1
5
6
12
67
72
39
43
5
7
5
1
1
1
5
4
2
0
2
3
3
5
0
1
7
2
2
1
4
6
5
1
0
0
2
4
4
0
13
28
15
66
52
15
2
7
0
2
0
2
1
1
1
2
3
2
0
3
0
2
1
1
3
2
4
32
73
85
9
64
23
11
5
3
2
4
5
9
9
3
7
1
2
3
0
1
2
4
5
4
3
7
5
1
0
5
0
0
3
0
4
9
3
1
17
33
16
64
65
44
23
9
1
3
1
3
6
3
11
13
11
1
5
0
11
28
49
74
82
57
13
71
52
13
2
4
2
9
8
9
10
11
8
5
4
1
0
1
4
4
5
4
3
3
2
0
3
3
2
4
0
0
1
2
1
0
4
5
14
17
36
38
6
33
61
73
75
67
62
58
47
50
46
48
59
69
76
82
78
57
23
24
59
68
43
16
5
8
6
4
8
8
10
5
7
6
6
8
9
11
9
8
6
9
5
6
0
1
0
0
1
1
5
3
0
0
4
1
2
1
1
2
5
5
13
21
41
52
53
42
29
9
7
11
25
29
27
21
6
8
29
49
63
68
56
36
15
6
1
2
1
1
0
5
1
2
2
3
1
1
3
2
1
1
1
2
4
0
2
1
7
2
4
0
2
1
1
6
0
0
1
0
2
1
2
1
1
4
1
6
4
11
15
27
33
45
50
51
55
60
56
56
50
43
32
25
14
6
0
1
2
1
3
2
2
1
3
1
3
2
2
0
2
4
0
0
0
1
3
1
1
0
0
1
1
0
1
1
2
1
3
2
0
0
0
0
0
0
0
0
0
0
0
0
0
0
0
0
0
0
0
0
0
0
0
0
0
0
0
0
0
0
0
0
0
0
0
0
0
0
0
0
0
0
0
0
0
0
0
0
0
0
0
0
0
0
0
0
0
0
0
0
0
0
0
0
0
