P2
64 64
255
0
0
0
0
0
0
0
0
0
0
0
0
0
0
0
0
0
0
0
0
0
0
0
0
0
0
0
0
0
0
0
0
0
0
0
0
0
0
0
0
0
0
0
0
0
0
0
0
0
0
0
0
0
0
0
0
0
0
0
0
0
0
0
0
0
255
10
23
32
36
40
41
39
33
21
15
17
23
26
24
20
12
3
5
18
27
20
3
9
10
4
3
10
19
28
35
40
39
37
33
28
24
19
16
12
6
5
5
3
3
1
0
0
0
0
1
1
2
2
0
0
0
0
2
2
0
255
0
0
255
42
74
89
86
78
71
62
47
31
23
25
33
36
30
23
14
2
11
29
40
29
3
18
22
10
3
13
25
38
48
58
62
63
62
58
58
58
54
44
28
18
13
6
5
3
0
0
0
0
3
3
1
1
0
0
0
0
1
1
0
255
0
0
255
102
147
156
134
101
76
59
39
26
21
22
27
28
21
14
7
3
14
29
36
25
0
21
26
15
0
9
19
30
38
49
58
65
70
71
79
96
109
106
82
52
30
14
8
4
0
0
0
0
4
4
0
0
0
0
0
0
0
0
0
255
0
0
255
171
204
191
155
102
59
38
21
14
13
12
11
11
8
4
0
6
12
21
24
15
3
17
19
12
2
4
9
13
17
25
33
41
49
54
67
105
155
178
156
107
62
29
10
3
0
0
0
0
3
3
0
0
0
0
0
0
0
0
0
255
0
0
255
228
217
164
131
88
46
27
15
10
8
6
2
1
1
0
1
4
9
15
17
9
4
13
13
6
1
1
2
2
3
7
12
17
24
31
44
91
163
207
206
163
106
48
8
1
1
1
0
0
1
0
2
2
2
1
0
0
0
0
0
255
0
0
255
255
210
107
76
62
41
30
22
15
10
7
4
3
1
0
0
2
7
12
13
6
4
11
11
4
1
2
3
4
5
8
12
15
19
25
32
68
122
165
207
204
150
62
0
4
5
3
1
4
5
6
8
7
7
5
1
1
0
1
0
255
0
0
255
255
219
77
30
29
29
28
25
18
11
6
4
5
2
3
7
11
13
14
12
3
8
13
11
5
2
5
7
10
14
19
24
24
22
21
18
32
53
95
184
225
173
61
10
9
7
3
3
10
15
20
24
20
16
12
5
3
0
2
0
255
0
0
255
255
247
89
17
5
11
17
18
14
8
3
0
0
1
9
21
31
33
31
23
3
19
26
19
9
0
4
6
11
17
23
30
28
20
7
7
12
7
54
166
218
163
56
1
4
7
4
4
12
20
33
47
50
41
26
13
6
1
1
0
255
0
0
255
255
255
117
30
4
2
7
9
8
5
2
3
6
6
13
28
44
53
54
40
6
30
43
32
16
5
0
2
7
12
18
26
26
17
6
29
42
30
54
148
173
122
54
27
9
8
7
5
19
27
34
57
86
90
61
30
14
6
1
0
255
0
0
255
255
255
134
44
13
4
6
8
9
7
4
3
7
6
12
23
38
54
60
46
9
32
47
36
21
9
2
1
2
6
12
21
26
20
5
30
44
23
59
111
103
66
45
43
15
8
8
9
36
45
31
45
104
150
127
70
31
14
4
0
255
0
0
255
255
255
141
50
16
5
8
9
12
11
7
0
4
3
8
13
22
35
41
33
8
22
34
27
18
8
0
0
2
6
13
24
31
27
2
25
38
15
45
65
45
22
26
36
20
8
2
6
32
49
29
25
92
189
207
140
64
24
9
1
255
0
0
255
255
255
148
53
16
3
8
9
12
12
8
3
1
3
7
8
12
16
18
16
5
9
17
14
10
5
3
3
4
9
17
28
33
28
3
26
38
16
21
29
17
5
19
49
69
67
30
15
27
11
4
1
61
182
255
221
122
46
15
3
255
0
0
255
255
255
156
56
17
1
8
11
12
12
8
4
0
4
8
8
9
9
8
8
4
3
8
7
5
3
4
4
4
11
19
28
32
24
0
23
34
19
1
5
10
20
66
131
169
140
55
36
102
125
106
63
15
137
255
255
197
89
25
6
255
0
0
255
255
255
165
59
19
1
8
12
12
12
8
4
0
4
8
8
7
7
6
5
4
1
5
5
3
1
3
3
4
12
20
29
33
21
4
17
23
19
17
9
14
64
165
252
254
162
54
33
118
197
230
182
70
67
214
255
255
151
48
11
255
0
0
255
255
255
175
61
20
3
8
12
12
12
8
4
0
4
7
7
6
6
6
4
4
0
3
3
2
1
2
1
4
12
21
31
35
21
6
11
12
18
29
19
27
133
255
255
255
117
29
14
69
168
255
255
195
30
149
255
255
222
89
20
255
0
0
255
255
255
184
64
21
5
8
11
12
12
8
4
0
4
5
5
7
7
5
4
4
0
1
3
3
2
3
1
4
13
23
32
37
23
5
5
6
18
36
27
52
214
255
255
207
51
5
3
17
81
230
255
255
153
63
247
255
255
146
39
255
0
0
255
255
255
193
68
23
7
7
9
12
12
9
4
0
4
4
4
8
7
4
4
4
1
0
4
4
1
3
3
5
15
25
33
39
24
5
0
3
14
40
33
88
255
255
255
137
12
1
2
0
17
130
255
255
255
49
185
255
255
212
72
255
0
0
255
255
255
204
72
25
7
4
8
12
11
11
5
0
4
4
4
8
6
4
4
4
1
1
3
3
0
2
4
7
17
26
35
41
23
7
5
20
2
41
31
133
255
255
255
83
0
0
1
0
1
51
223
255
255
177
96
255
255
255
118
255
0
0
255
255
255
216
77
27
5
1
7
11
10
12
7
0
4
4
4
7
7
4
4
3
2
2
1
1
0
3
5
8
18
26
36
43
21
8
12
41
19
24
6
190
255
255
201
43
1
0
0
0
1
11
131
255
255
255
18
255
255
255
173
255
0
0
255
255
255
228
83
28
4
0
5
9
11
12
7
0
3
4
5
5
7
5
4
1
4
2
0
0
1
4
6
9
18
26
36
44
19
7
20
62
51
29
92
248
255
252
113
16
0
0
1
1
0
1
59
255
255
255
142
184
255
255
231
255
0
0
255
255
255
240
90
28
3
0
4
8
12
11
5
1
2
4
6
4
5
7
4
0
3
2
0
0
2
4
5
10
19
26
36
43
17
5
27
78
90
113
198
255
251
134
43
3
1
0
3
3
1
1
16
176
255
255
255
92
255
255
255
255
0
0
255
255
255
252
98
29
1
1
4
8
11
9
5
3
3
4
5
4
4
8
4
0
1
1
0
0
1
4
5
10
19
26
36
40
15
4
31
87
125
195
255
255
173
51
9
1
3
0
4
5
3
1
0
107
255
255
255
10
255
255
255
255
0
0
255
255
255
255
104
31
0
3
4
8
9
8
6
3
3
3
4
4
4
8
4
0
0
0
1
1
0
3
6
11
17
25
36
37
12
5
32
91
148
246
255
255
129
18
2
2
3
0
3
6
3
3
1
55
255
255
255
108
255
255
255
255
0
0
255
255
255
255
108
33
0
4
4
8
8
8
5
1
1
2
4
4
5
7
4
1
0
0
2
2
0
1
5
12
16
24
36
35
8
7
31
91
161
255
255
255
114
10
2
1
1
0
1
4
0
4
0
23
227
255
255
191
228
255
255
255
0
0
255
255
255
255
112
35
0
3
4
7
8
8
4
0
1
3
3
4
7
5
4
3
0
0
1
1
0
1
5
11
15
24
35
32
4
9
29
90
171
255
255
255
106
6
2
1
1
1
1
1
2
3
1
6
186
255
255
255
178
255
255
255
0
0
255
255
255
255
115
37
2
1
3
5
8
8
4
0
3
4
1
4
8
4
3
4
1
0
0
0
0
3
7
9
13
23
32
28
1
11
28
92
181
255
255
255
100
1
1
3
3
2
2
0
1
2
3
3
154
255
255
255
135
255
255
255
0
0
255
255
255
255
118
39
5
0
2
4
7
7
5
1
4
4
1
4
7
5
3
4
2
0
0
0
0
3
7
8
12
21
28
24
0
12
27
95
193
255
255
255
95
3
0
3
3
1
0
1
0
3
4
7
130
255
255
255
103
255
255
255
0
0
255
255
255
255
123
40
5
1
3
4
5
5
7
3
4
5
3
3
6
9
6
2
0
0
0
0
0
1
5
8
12
19
24
21
0
12
25
97
208
255
255
255
87
4
1
2
1
1
3
2
0
4
4
9
112
255
255
255
82
255
255
255
0
0
255
255
255
255
128
40
5
3
4
3
4
5
8
3
4
6
4
2
7
13
8
1
3
1
0
0
0
1
4
7
12
17
21
19
1
12
26
101
223
255
255
255
76
4
3
2
1
3
3
1
0
3
3
10
99
255
255
255
70
255
255
255
0
0
255
255
255
255
132
41
7
3
3
2
5
6
7
2
4
5
4
4
8
12
7
2
4
2
0
0
0
3
5
6
11
15
19
16
3
11
31
109
238
255
255
238
64
4
3
2
3
3
1
0
0
1
1
9
92
255
255
255
63
255
255
255
0
0
255
255
255
255
136
43
8
1
1
3
7
6
5
2
3
4
5
7
8
8
4
3
4
1
1
0
1
4
7
7
9
13
17
12
5
8
37
120
254
255
255
217
52
4
1
2
3
1
0
0
0
0
0
9
90
255
255
255
58
255
255
255
0
0
255
255
255
255
141
46
8
1
0
4
9
7
4
1
2
3
7
9
8
5
1
3
4
2
3
0
2
4
8
8
9
12
15
9
8
6
44
132
255
255
255
197
41
4
0
1
1
0
0
0
0
0
0
10
95
255
255
255
57
255
255
255
0
0
255
255
255
255
147
50
8
3
0
4
11
9
4
0
3
2
7
10
8
4
0
0
3
6
5
1
1
4
8
8
11
12
12
7
10
6
51
142
255
255
255
182
33
3
1
0
0
0
0
0
0
0
0
9
108
255
255
255
64
255
255
255
0
0
255
255
255
255
154
52
8
5
1
5
12
10
4
0
3
2
5
8
7
5
2
3
2
8
7
3
1
4
7
8
11
12
10
4
10
4
56
146
255
255
255
174
28
2
3
1
0
0
0
0
0
0
0
7
126
255
255
255
88
255
255
255
0
0
255
255
255
255
162
52
7
7
2
7
11
9
5
1
1
1
4
5
5
7
6
5
2
8
8
4
2
3
5
8
9
11
10
2
10
2
57
140
255
255
255
178
28
2
4
3
0
0
0
0
0
0
0
1
155
255
255
255
138
255
255
255
0
0
255
255
255
255
169
52
5
7
0
8
9
8
6
2
0
0
3
4
5
8
9
7
2
8
8
4
1
1
4
7
7
9
9
3
9
3
48
118
249
255
255
208
56
10
4
3
1
1
0
0
0
0
0
21
209
255
255
223
212
255
255
255
0
0
255
255
255
255
175
52
6
4
2
7
9
9
5
1
0
0
1
4
8
9
11
8
3
8
8
4
0
0
4
5
5
8
7
3
8
6
29
81
191
255
255
255
135
58
11
1
2
2
0
0
0
1
5
78
255
255
255
100
255
255
255
255
0
0
255
255
255
255
179
55
12
1
1
5
10
11
5
1
1
1
1
5
11
11
13
8
4
8
8
4
0
0
4
5
4
6
4
1
8
11
8
43
125
202
255
255
246
151
41
2
1
2
1
0
0
0
37
181
255
255
255
49
255
255
255
255
0
0
255
249
255
255
181
61
18
0
1
5
9
11
7
4
3
3
4
7
12
13
15
8
4
8
8
5
0
1
4
7
4
3
1
3
10
16
8
19
76
114
183
255
255
255
106
16
1
3
3
1
2
25
123
255
255
255
129
190
255
255
253
255
0
0
255
239
255
255
183
64
21
1
2
7
9
9
8
6
3
3
6
8
12
16
17
8
4
9
9
6
1
3
4
8
5
3
2
10
15
20
15
12
51
59
94
219
255
255
195
63
18
8
1
6
27
99
243
255
255
212
26
255
255
255
165
255
0
0
255
230
255
255
184
64
24
4
1
7
10
8
8
6
2
2
5
7
12
19
19
9
4
11
10
5
3
5
4
7
7
4
6
16
21
24
16
12
40
34
38
134
255
255
255
133
59
22
6
35
90
194
255
255
232
65
162
255
255
255
84
255
0
0
255
223
255
255
183
65
28
8
1
5
9
8
7
6
3
2
3
5
13
21
20
11
4
12
9
3
4
5
4
6
7
3
7
18
26
28
16
12
34
24
14
66
178
255
249
169
88
31
19
76
151
234
255
215
87
69
255
255
255
186
29
255
0
0
255
215
255
255
182
68
31
12
5
4
7
8
6
5
4
0
1
5
15
23
22
12
4
12
9
2
4
3
4
6
5
2
5
17
28
31
16
11
30
22
9
28
97
175
190
136
61
6
43
98
153
180
151
74
36
193
255
255
255
91
4
255
0
0
255
204
255
255
182
70
33
16
11
6
6
8
6
4
4
3
0
8
17
24
25
13
4
13
11
3
3
2
4
5
4
3
4
15
26
31
17
7
25
21
13
22
63
119
122
61
10
45
64
82
94
78
29
41
152
255
255
255
149
29
3
255
0
0
255
192
255
255
182
69
36
20
15
10
7
8
6
5
4
3
1
11
19
25
26
14
5
16
13
5
1
2
4
4
4
4
4
12
19
26
18
1
15
16
16
30
55
83
67
1
61
75
61
42
21
15
69
145
251
255
255
178
55
2
4
255
0
0
255
177
255
255
186
70
39
23
16
12
9
9
7
6
3
1
3
11
20
27
26
14
7
19
15
8
0
3
4
4
4
4
4
8
9
14
12
3
13
19
18
24
31
38
21
21
54
52
24
12
48
93
151
219
255
255
172
69
8
5
5
255
0
0
255
155
255
255
197
77
40
24
17
12
10
11
9
5
1
0
4
10
20
28
26
14
8
20
17
11
1
4
4
4
4
3
3
4
1
3
4
21
57
67
39
2
12
10
15
21
17
1
28
67
105
141
180
207
194
136
63
13
6
8
8
255
0
0
255
129
255
255
210
85
39
25
19
12
9
12
10
4
1
0
4
11
20
28
26
12
8
19
18
12
3
3
4
4
3
2
1
2
2
16
24
76
156
169
92
9
41
34
27
13
8
30
56
89
116
128
131
118
82
40
11
2
9
11
11
255
0
0
255
107
243
255
219
89
34
25
19
12
9
12
9
4
2
0
4
12
20
27
25
10
8
18
18
11
3
1
3
3
2
3
1
4
0
18
39
139
255
255
152
4
36
30
20
4
13
30
49
67
75
67
49
31
14
3
2
7
11
12
12
255
0
0
255
91
220
255
221
92
28
22
15
11
10
11
8
4
1
0
4
12
19
25
24
10
8
19
18
9
2
0
2
1
1
3
3
7
3
13
45
180
255
255
180
25
7
9
6
4
11
17
25
26
23
16
4
1
2
4
7
11
12
13
12
255
0
0
255
76
194
255
217
97
28
21
12
9
8
8
7
4
0
0
4
12
17
23
22
8
7
18
17
8
2
1
1
0
1
1
3
7
4
9
48
194
255
255
168
32
15
11
8
11
12
10
11
7
4
6
2
0
2
7
11
12
12
14
11
255
0
0
255
59
166
242
213
105
32
24
15
9
5
5
5
3
0
0
3
10
15
19
16
6
4
13
14
7
1
2
1
0
1
0
1
4
2
8
52
193
255
255
139
28
22
21
18
17
17
13
12
12
10
12
9
6
1
7
12
13
13
12
8
255
0
0
255
43
141
224
212
115
35
26
20
13
6
5
4
1
0
0
2
7
12
13
10
6
1
8
10
5
0
1
1
1
1
1
1
1
1
8
58
186
255
232
109
24
24
23
22
22
22
18
15
18
18
18
17
15
9
2
11
14
14
9
4
255
0
0
255
34
119
208
213
127
40
24
21
17
10
8
5
1
1
1
4
7
9
10
8
4
0
5
8
4
0
1
1
3
3
3
2
1
1
12
74
185
240
189
80
20
22
20
20
22
22
20
17
20
23
24
26
26
20
7
7
12
12
7
1
255
0
0
255
34
97
187
213
146
57
24
17
16
12
10
7
3
2
3
7
9
10
12
8
0
2
5
8
4
0
2
3
4
3
3
1
1
8
36
107
189
206
142
55
16
17
16
15
16
17
19
18
19
22
24
31
36
30
17
0
9
9
5
0
255
0
0
255
39
79
156
200
167
91
40
19
13
10
8
8
4
1
4
8
12
15
14
7
3
6
7
7
3
1
0
3
3
1
2
6
16
41
84
141
177
159
98
38
13
12
12
10
10
12
16
17
16
17
20
30
38
34
25
8
6
9
6
2
255
0
0
255
43
68
120
167
170
126
77
43
22
12
7
7
3
1
5
8
15
19
14
6
4
9
8
5
3
4
3
2
5
9
18
34
58
90
123
144
138
107
66
31
13
9
9
8
8
8
11
14
13
13
16
24
31
31
26
13
1
9
10
8
255
0
0
255
42
59
87
122
142
134
112
82
52
33
21
14
7
0
5
8
16
19
15
8
4
11
8
3
1
0
6
15
25
38
56
77
97
115
119
107
86
68
51
31
15
8
8
8
7
5
7
9
10
11
12
17
22
23
20
13
4
5
12
14
255
0
0
255
36
48
62
78
94
106
112
103
83
64
49
36
23
12
5
3
12
14
15
12
0
6
2
6
14
19
30
43
57
70
85
97
99
94
77
58
48
50
46
32
17
9
8
7
6
4
6
5
5
8
9
12
15
14
13
12
7
1
10
14
255
0
0
255
29
37
45
47
51
62
75
83
83
76
67
55
41
30
21
8
2
6
12
14
8
7
12
22
34
39
49
61
70
74
77
74
64
50
35
29
33
43
41
31
19
11
8
6
7
5
5
4
3
5
7
9
10
9
8
10
8
1
5
8
255
0
0
255
24
29
33
31
27
28
33
41
50
56
57
51
44
36
27
16
7
0
8
12
12
16
22
29
39
41
45
51
51
47
41
33
26
20
17
21
28
36
36
29
19
12
9
7
8
6
4
5
6
5
6
8
8
8
6
6
7
4
0
2
255
0
0
255
16
19
20
19
14
10
10
12
16
22
27
27
27
24
19
14
8
2
4
7
9
14
18
20
25
24
22
22
19
16
12
9
8
8
10
15
19
23
25
21
13
9
8
6
6
4
3
5
6
5
5
6
6
6
5
3
4
5
2
0
255
0
0
0
0
0
0
0
0
0
0
0
0
0
0
0
0
0
0
0
0
0
0
0
0
0
0
0
0
0
0
0
0
0
0
0
0
0
0
0
0
0
0
0
0
0
0
0
0
0
0
0
0
0
0
0
0
0
0
0
0
0
0
0
0
0
