P2
64 64
255
0
0
0
0
0
0
0
0
0
0
0
0
0
0
0
0
0
0
0
0
0
0
0
0
0
0
0
0
0
0
0
0
0
0
0
0
0
0
0
0
0
0
0
0
0
0
0
0
0
0
0
0
0
0
0
0
0
0
0
0
0
0
0
0
0
13
37
14
69
78
13
17
14
3
21
52
91
59
64
46
42
104
86
37
27
27
46
47
12
2
39
53
101
136
122
69
5
15
26
31
7
64
57
12
45
29
76
61
44
3
25
19
37
61
61
26
14
35
63
94
86
37
36
33
33
6
105
0
0
19
12
12
20
45
24
10
6
12
5
25
7
12
56
81
34
4
6
11
16
22
60
2
64
32
0
31
64
35
2
32
64
20
24
12
24
84
136
124
46
14
21
102
91
7
57
81
39
29
70
68
18
35
37
20
9
25
46
17
4
13
35
0
0
17
31
39
10
36
57
17
71
24
28
9
20
10
32
50
26
108
88
3
23
7
46
74
42
23
35
41
53
72
62
38
49
58
60
36
25
57
45
20
17
75
130
126
105
68
22
0
5
16
17
12
36
33
9
46
85
53
23
14
5
26
57
0
0
74
63
55
66
49
44
19
26
18
12
43
31
18
67
36
13
11
47
36
0
30
31
28
29
0
0
9
14
55
32
40
71
6
5
56
12
46
60
80
56
26
47
104
85
2
18
0
35
73
41
11
66
125
115
49
4
19
22
44
63
6
37
0
0
34
1
8
0
8
23
93
92
18
31
14
7
29
15
66
36
2
2
18
14
2
9
34
41
43
64
37
38
44
19
48
9
48
34
11
28
30
8
33
1
10
0
13
17
7
38
76
41
6
21
4
24
24
19
14
7
30
1
22
2
1
29
0
0
15
13
60
75
24
6
28
42
29
34
42
53
88
105
73
22
32
46
34
69
84
4
58
29
0
0
2
38
70
34
18
55
53
45
61
26
24
66
41
21
67
51
21
7
13
49
32
17
37
9
72
67
64
103
123
86
28
23
69
63
6
18
0
0
27
12
41
38
39
36
255
255
255
255
255
255
255
255
255
255
255
255
255
255
255
255
255
255
255
255
255
255
255
255
158
22
25
11
25
30
14
9
29
36
48
11
16
38
28
2
6
9
4
21
36
9
18
22
62
28
6
34
63
50
67
51
0
0
108
98
55
17
22
44
233
255
255
255
255
255
255
255
255
255
255
255
255
255
255
255
255
255
255
255
255
255
255
255
255
29
40
28
13
32
1
10
3
33
52
23
64
4
59
54
19
16
21
3
11
12
4
75
127
64
20
22
26
62
55
17
0
0
9
3
9
17
18
36
53
58
29
24
56
5
83
88
25
5
25
4
4
2
76
123
112
103
106
74
15
72
6
59
17
12
11
11
0
19
7
57
19
44
28
70
14
26
7
25
38
61
84
95
104
63
13
22
35
67
29
3
11
22
27
103
0
0
100
68
72
68
61
26
29
37
2
3
6
1
2
15
42
42
1
29
8
11
30
35
38
41
3
0
5
40
98
111
63
3
53
58
0
18
23
44
42
44
18
3
16
25
32
74
81
30
11
51
64
25
29
58
29
1
2
1
26
59
24
58
0
0
20
47
17
40
60
39
4
14
39
30
26
19
71
44
19
15
26
8
60
37
73
134
118
103
98
58
13
0
30
59
1
55
27
0
0
33
40
44
63
35
83
84
8
64
25
30
70
96
94
65
13
2
5
52
48
28
21
42
70
35
38
103
0
0
96
60
68
68
34
28
56
55
38
15
6
10
33
36
28
30
0
25
2
11
32
51
2
44
65
35
5
40
58
29
59
81
12
52
5
6
0
67
77
9
16
41
56
3
0
70
75
16
77
36
19
46
25
12
10
28
56
11
34
14
44
82
0
0
42
72
25
3
30
33
27
72
38
4
8
6
14
29
18
35
46
41
30
35
54
26
3
6
20
42
33
8
0
23
38
22
22
15
0
6
1
20
0
11
83
114
50
43
41
21
33
18
66
3
85
69
12
33
17
21
26
34
16
10
26
16
0
0
6
8
18
36
20
19
10
24
44
16
35
60
21
2
22
51
17
95
72
14
37
87
54
10
32
23
74
62
12
71
34
63
44
2
7
34
60
3
43
17
11
30
45
52
28
20
19
48
81
11
65
11
52
1
39
13
11
7
4
37
96
66
0
0
32
20
19
10
24
22
24
42
9
45
25
33
53
43
17
50
19
12
35
73
52
36
52
10
20
29
4
27
11
23
36
18
9
46
35
25
56
12
82
8
78
53
10
0
2
7
4
4
35
98
104
23
22
32
69
62
16
8
40
46
17
18
0
0
42
47
52
1
37
12
43
43
24
56
61
30
54
38
30
23
29
18
14
15
26
62
46
9
0
19
9
8
1
60
82
16
10
20
36
23
64
95
60
19
43
82
83
61
41
54
31
33
66
15
29
4
2
9
9
9
8
21
51
15
58
20
0
0
54
3
32
8
16
10
9
33
91
82
16
20
34
18
33
68
13
3
44
4
50
20
25
70
60
29
13
26
2
3
10
20
39
61
10
47
6
78
101
37
11
13
33
43
29
32
42
0
86
131
79
55
75
23
31
34
46
14
44
32
5
38
0
0
16
63
49
13
40
3
43
62
42
45
83
11
19
3
0
15
11
63
99
40
16
16
10
5
4
14
51
58
43
66
52
1
7
32
47
87
86
34
0
32
69
43
20
51
30
31
31
14
20
26
31
8
19
35
10
1
2
35
76
11
18
48
0
0
11
15
50
66
19
9
50
94
112
97
35
6
12
21
31
34
17
5
3
25
64
61
46
40
18
21
45
16
9
3
2
4
2
0
0
0
4
30
48
54
51
34
111
76
32
35
15
19
13
12
7
89
109
34
41
37
29
65
54
31
48
38
0
0
7
36
37
31
13
55
58
33
24
27
13
6
57
44
6
3
8
7
2
19
12
8
26
50
51
28
7
14
67
53
35
66
7
18
10
74
107
37
4
27
64
3
103
113
73
3
73
64
15
60
42
11
11
1
11
2
31
89
105
34
36
20
0
0
25
35
28
100
118
54
38
92
120
97
33
8
19
29
39
38
13
51
34
2
10
22
34
46
50
79
40
84
144
76
27
54
85
118
77
43
38
23
18
11
44
20
4
8
20
22
20
56
28
12
24
16
76
102
57
33
7
63
6
90
96
34
0
0
80
72
19
60
25
86
76
44
46
110
96
3
76
47
6
15
28
38
52
21
2
11
48
80
57
52
129
102
11
30
23
39
10
9
1
29
29
10
8
10
39
6
19
1
3
26
19
33
3
72
72
53
23
71
88
0
14
74
110
62
13
6
0
0
64
88
77
3
44
30
70
48
92
97
47
20
42
44
20
6
64
18
19
6
1
0
4
16
20
38
35
16
54
42
5
5
63
118
87
38
2
22
38
13
20
20
12
24
34
57
60
51
62
76
74
68
19
61
54
27
1
68
34
0
0
0
0
0
109
108
43
16
39
45
41
45
7
57
38
9
2
4
2
37
74
36
38
62
18
10
45
43
12
26
51
63
62
42
16
13
8
5
40
71
42
20
28
14
11
8
6
42
40
2
66
11
83
25
78
78
15
22
20
29
59
59
25
25
73
83
0
0
37
76
68
60
66
103
70
25
6
99
111
95
93
38
11
28
59
22
12
8
26
52
22
12
12
6
8
53
90
35
12
24
71
42
12
37
14
17
8
28
15
74
54
10
54
79
51
15
41
54
34
76
95
46
44
66
23
20
35
50
25
0
0
0
57
98
85
54
34
7
4
29
22
7
4
2
2
1
8
6
13
5
41
22
18
51
49
23
21
11
0
17
11
22
11
27
30
28
34
19
17
38
35
2
34
22
15
30
11
52
0
13
75
85
28
39
76
48
6
47
84
26
29
9
47
57
0
0
2
59
37
2
4
25
40
20
27
85
104
95
73
4
35
7
3
6
24
31
16
41
4
39
56
24
6
24
27
27
20
47
66
14
11
15
26
7
1
10
30
72
69
2
40
36
15
20
9
2
28
20
4
45
117
115
45
12
1
15
50
35
0
0
27
38
32
13
37
35
7
48
55
44
26
23
26
1
29
68
33
5
22
40
20
40
10
10
27
62
53
2
17
33
40
42
7
11
27
36
42
38
1
24
10
0
40
80
40
0
1
2
8
6
15
28
32
9
14
7
2
0
3
9
6
15
0
0
16
74
70
15
29
23
30
69
101
96
73
105
77
36
55
19
26
31
64
28
67
83
15
43
45
1
24
25
2
26
2
17
28
83
89
33
6
16
70
96
57
11
1
99
255
255
255
255
255
174
57
68
30
45
117
115
16
49
9
40
31
18
0
0
10
6
17
26
47
34
255
255
255
255
255
255
255
255
255
255
255
255
255
255
255
255
255
255
255
255
255
255
255
255
255
79
9
10
67
55
59
76
14
48
152
255
255
255
255
255
255
255
255
255
255
255
131
18
47
64
36
12
36
21
5
13
0
0
4
2
1
12
38
48
164
255
255
255
255
255
255
255
255
255
255
255
255
255
255
255
255
255
255
255
255
255
255
255
212
10
11
20
65
36
7
5
63
20
255
255
255
255
148
14
22
18
184
255
255
255
255
161
28
12
39
81
45
14
8
5
0
0
22
5
14
1
22
75
90
47
26
19
58
43
65
87
24
44
28
2
41
46
17
15
30
39
108
116
75
35
8
29
22
7
54
119
144
112
57
62
233
255
255
239
8
59
18
73
125
192
103
18
3
151
255
255
146
39
55
14
43
11
42
4
0
0
33
30
6
42
64
66
86
90
34
27
30
21
49
50
10
29
36
43
59
107
114
49
13
30
22
2
35
74
16
54
19
38
25
31
66
54
12
82
255
255
237
24
18
60
50
20
10
11
32
64
47
19
79
255
255
209
75
99
119
94
49
29
0
0
7
18
51
58
62
94
90
60
29
23
21
24
54
27
15
43
55
53
65
66
20
18
3
6
75
116
75
13
31
41
17
26
74
93
97
81
143
255
255
101
128
128
128
69
56
44
116
156
47
47
95
28
107
160
255
255
198
38
12
1
15
34
0
0
11
39
17
9
3
0
27
21
0
4
4
39
49
15
14
21
9
3
19
78
90
20
25
19
45
18
11
61
30
42
34
19
20
100
104
32
179
255
235
11
66
132
87
82
88
44
6
10
11
41
19
2
48
40
121
255
125
25
52
65
70
62
0
0
33
30
20
36
3
14
27
42
8
31
81
26
44
27
28
87
104
72
59
41
25
53
16
3
10
19
64
61
11
60
101
40
18
45
47
109
255
75
147
94
57
160
172
96
64
106
39
88
8
17
22
46
75
11
72
198
255
100
22
19
17
0
0
0
7
16
17
45
60
28
4
2
21
42
7
88
89
26
3
12
2
54
92
32
36
22
0
3
6
5
16
7
31
59
30
10
42
50
19
162
255
160
15
25
28
72
113
130
2
33
18
21
87
147
135
5
107
62
12
137
252
76
67
40
4
11
0
0
25
11
14
24
27
47
23
17
51
74
62
30
10
8
24
24
8
25
68
71
24
33
9
29
17
11
24
3
32
88
62
12
0
0
0
17
81
90
31
128
75
42
88
92
26
57
1
82
70
5
28
2
1
58
68
46
53
16
26
15
24
76
0
0
14
50
19
22
57
16
65
104
73
24
12
13
9
34
48
17
5
25
65
48
23
49
71
57
11
48
58
10
51
45
5
50
93
28
239
255
139
15
92
35
59
110
53
50
42
57
110
130
147
154
143
33
90
55
16
2
126
255
171
18
3
21
0
0
11
22
11
27
23
27
41
44
26
23
45
21
5
0
20
14
68
65
54
27
38
91
68
21
12
6
14
28
13
42
17
41
88
73
144
255
207
54
4
12
16
30
20
11
124
94
27
47
94
99
1
74
81
124
152
96
83
226
125
21
0
56
0
0
28
15
27
0
3
23
1
10
10
38
11
37
60
47
23
41
25
28
25
14
53
40
16
26
26
71
70
66
31
8
17
20
35
32
19
37
32
88
159
132
3
92
62
5
43
20
5
78
161
174
109
15
6
26
7
3
2
17
9
31
64
44
0
0
46
24
22
20
10
19
13
3
9
0
26
73
64
29
37
27
5
29
44
22
0
15
30
9
41
7
28
7
8
28
21
21
44
46
1
52
28
12
18
35
14
26
59
64
3
5
7
71
78
90
46
139
219
163
121
12
46
41
38
15
26
93
0
0
109
56
4
11
24
10
36
66
58
15
21
51
74
73
54
57
33
1
14
28
14
13
39
51
71
54
10
3
54
49
31
34
40
40
18
1
45
55
55
117
50
22
31
6
1
28
97
94
63
5
11
10
44
4
110
48
51
51
33
19
38
43
0
0
32
4
8
20
1
16
50
1
39
53
49
37
64
27
1
28
10
2
40
50
40
47
34
9
3
29
51
35
6
24
52
48
34
33
105
33
52
1
11
123
143
77
44
6
15
71
72
44
74
54
105
0
174
189
120
19
99
22
20
6
50
76
0
0
52
75
54
31
7
3
16
1
16
55
78
28
4
1
11
7
0
0
11
2
37
16
16
29
74
17
64
68
8
98
103
40
29
28
43
70
6
37
23
22
5
40
24
71
17
1
114
175
177
83
23
55
42
18
38
71
99
90
45
51
20
22
0
0
32
38
23
33
11
12
24
30
32
19
40
16
67
26
40
93
77
9
32
16
27
36
51
11
22
11
3
24
39
6
24
12
10
60
239
255
69
30
11
123
121
15
31
7
117
65
100
122
40
22
58
69
113
223
137
19
143
255
81
86
50
26
0
0
16
33
52
80
39
34
15
28
4
66
78
7
90
51
20
18
0
0
17
10
31
24
0
37
53
23
53
31
36
15
42
50
60
14
118
214
83
86
120
62
15
32
70
154
73
44
94
101
115
111
12
144
84
15
48
124
16
216
149
17
58
55
0
0
4
67
75
8
18
26
36
5
35
42
2
54
46
16
41
30
37
5
56
26
26
13
27
41
10
5
9
38
77
28
12
58
51
32
20
16
22
8
13
89
121
32
31
45
153
108
104
146
96
84
15
44
73
233
163
2
3
38
63
80
14
55
0
0
36
30
22
17
49
57
11
30
16
22
47
13
73
35
17
54
75
56
6
30
17
0
0
0
21
66
43
34
45
14
43
116
93
18
35
238
255
247
70
83
129
107
15
77
61
95
144
83
13
51
53
24
18
98
13
193
255
148
13
6
31
29
0
0
46
65
70
25
13
14
18
46
67
48
25
42
20
26
21
45
40
23
26
7
27
33
40
54
36
17
7
37
77
40
6
7
13
2
35
89
255
207
34
97
58
13
19
50
76
58
36
57
2
22
91
101
112
136
80
119
255
97
111
135
93
30
0
0
37
76
80
109
123
81
48
39
18
71
42
39
60
52
73
56
16
42
21
3
0
0
0
13
37
69
53
9
41
46
11
11
4
40
68
70
60
229
125
1
50
102
7
77
77
107
170
113
24
13
97
90
42
76
155
254
150
30
17
28
31
34
0
0
40
7
7
23
7
11
29
38
33
6
9
42
44
39
44
36
57
26
0
4
11
34
45
89
100
36
10
23
24
24
21
9
21
34
36
45
90
255
255
210
65
85
39
90
85
30
51
30
91
14
113
119
48
155
255
255
221
4
36
56
73
55
0
0
50
25
0
39
111
105
37
34
26
28
3
3
62
54
42
78
57
30
87
67
35
14
0
8
34
10
41
29
11
20
80
85
37
24
55
57
60
203
255
255
9
88
41
29
30
63
150
114
9
1
18
2
197
255
255
171
24
10
5
0
8
54
0
0
23
5
13
34
83
78
2
27
3
19
54
84
90
32
30
36
10
3
6
35
33
0
15
51
54
5
37
17
22
46
9
57
13
41
53
12
51
34
153
255
255
218
7
29
4
111
124
47
28
72
70
112
255
255
104
31
38
50
24
59
25
21
0
0
14
21
23
30
93
96
37
16
5
2
48
54
25
55
10
24
10
23
79
68
2
52
67
47
16
3
63
3
57
71
106
61
25
22
5
3
13
41
6
191
255
255
255
255
174
79
91
20
113
255
255
255
255
123
9
21
31
11
19
46
11
70
0
0
32
32
34
55
59
39
24
23
30
8
15
20
23
4
48
40
36
46
55
89
57
2
17
19
27
34
49
41
43
40
9
21
19
32
34
21
21
50
26
17
130
255
255
255
255
255
255
255
255
255
255
255
132
39
27
3
70
30
38
26
27
54
0
0
17
11
34
10
18
19
60
48
47
38
15
28
10
66
42
7
12
5
35
42
5
36
52
68
25
11
49
33
8
4
21
7
58
48
1
5
18
36
18
37
74
37
24
80
255
255
255
255
255
119
59
81
100
88
23
31
62
63
5
34
11
4
0
0
13
21
6
9
28
23
44
76
71
65
37
16
55
114
101
4
70
28
25
77
51
11
2
49
79
62
43
40
58
26
14
12
1
50
63
7
74
39
11
41
13
42
8
7
26
18
4
2
0
17
35
19
36
70
35
28
42
28
70
60
60
24
0
0
25
8
6
26
39
32
30
71
96
79
41
38
3
32
37
45
62
94
64
31
44
27
35
68
40
31
34
2
32
64
11
42
7
34
4
29
29
10
72
121
120
92
33
26
63
8
37
4
24
11
17
22
36
23
9
34
102
139
89
37
77
92
0
0
14
72
91
26
30
10
43
11
21
16
3
18
10
43
59
9
11
18
36
41
39
6
52
7
68
70
43
40
27
48
108
52
29
43
7
28
29
33
4
23
29
23
40
66
51
62
92
30
0
2
4
2
2
19
61
73
1
76
35
14
19
8
0
0
23
49
39
3
15
32
26
28
12
24
2
34
42
21
20
32
23
76
16
11
20
1
19
52
24
10
28
47
4
43
42
85
35
6
17
24
12
9
85
98
74
69
57
76
101
65
5
5
11
8
47
65
82
83
12
25
32
112
129
79
20
18
0
0
2
95
101
37
29
95
118
74
66
75
49
30
40
39
23
54
22
3
36
64
13
9
16
15
18
18
5
10
21
1
40
43
39
40
45
64
23
22
5
41
42
15
17
11
2
81
91
22
5
2
20
80
96
29
51
71
10
66
12
74
39
3
0
0
0
0
0
0
0
0
0
0
0
0
0
0
0
0
0
0
0
0
0
0
0
0
0
0
0
0
0
0
0
0
0
0
0
0
0
0
0
0
0
0
0
0
0
0
0
0
0
0
0
0
0
0
0
0
0
0
0
0
0
0
0
0
0
