P2
64 64
255
0
0
0
0
0
0
0
0
0
0
0
0
0
0
0
0
0
0
0
0
0
0
0
0
0
0
0
0
0
0
0
0
0
0
0
0
0
0
0
0
0
0
0
0
0
0
0
0
0
0
0
0
0
0
0
0
0
0
0
0
0
0
0
0
0
0
0
0
0
0
0
0
0
0
0
0
0
0
0
0
0
0
0
0
0
0
0
0
0
0
0
0
0
0
0
0
0
0
0
0
0
0
0
0
0
0
0
0
0
0
0
0
0
0
0
0
0
0
0
0
0
0
0
0
0
0
0
0
0
0
255
191
255
255
255
208
255
160
249
174
207
216
251
218
231
77
220
193
255
244
226
205
226
251
255
234
237
216
255
255
243
138
230
255
255
218
211
255
255
255
189
209
164
245
219
255
255
255
255
216
233
135
189
197
255
255
242
255
255
255
0
0
0
0
255
36
82
81
7
80
18
15
76
55
66
89
80
57
27
56
0
52
26
20
27
7
23
33
41
35
52
91
53
24
33
28
10
6
10
107
44
54
18
0
43
80
100
6
65
70
46
37
70
13
28
107
29
88
7
52
23
29
12
169
0
0
0
0
202
55
23
42
39
54
29
36
4
98
81
60
48
40
27
17
36
4
46
8
6
13
20
57
74
14
50
13
49
126
7
33
49
17
45
19
42
74
25
61
65
23
59
3
25
77
4
11
14
33
16
80
1
16
111
22
33
48
69
255
0
0
0
0
239
29
41
23
4
10
39
85
132
95
112
81
61
74
82
163
134
99
87
108
109
84
70
62
96
73
69
85
13
15
93
28
42
8
2
1
37
56
7
40
90
70
39
66
15
25
47
26
1
31
31
31
22
31
40
62
16
63
78
184
0
0
0
0
133
22
8
30
50
158
255
255
255
255
255
255
255
255
255
255
255
255
255
255
255
255
255
255
255
255
255
255
255
137
13
42
6
35
31
18
17
4
9
14
19
44
13
32
64
25
42
15
89
16
7
57
38
43
52
62
6
14
40
255
0
0
0
0
224
36
60
4
171
39
98
88
55
72
124
153
190
139
94
74
104
79
47
56
67
65
65
41
47
86
121
21
31
19
153
22
83
31
8
18
5
31
94
40
31
39
29
6
57
47
31
76
15
56
57
19
82
33
38
59
25
25
25
255
0
0
0
0
236
1
47
22
255
28
77
255
145
174
102
63
21
40
64
116
141
97
130
149
137
68
75
121
99
75
138
255
91
22
255
51
13
12
13
39
61
63
18
14
14
7
5
27
3
24
57
69
4
26
47
6
63
18
30
0
33
16
26
226
0
0
0
0
255
5
42
80
255
78
255
255
255
255
255
255
255
255
255
255
255
255
255
255
255
255
255
255
255
255
255
255
255
111
255
63
63
37
8
3
12
38
28
26
31
14
52
56
16
38
37
23
3
15
49
20
60
99
9
17
36
8
24
208
0
0
0
0
255
54
19
119
255
118
107
255
178
97
114
174
174
38
70
21
130
119
156
49
8
14
41
74
97
126
203
255
76
89
255
43
6
32
41
17
13
14
44
7
92
66
29
49
18
69
7
13
11
0
29
17
19
35
14
40
8
54
49
145
0
0
0
0
179
11
65
51
255
201
33
255
88
44
51
0
23
27
35
2
12
45
6
53
42
45
20
24
12
20
120
255
6
115
255
42
36
29
36
26
25
23
18
13
8
21
31
7
28
92
40
42
4
46
41
0
21
28
42
6
13
43
41
255
0
0
0
0
198
32
15
36
255
123
59
255
153
38
48
24
20
4
3
8
56
24
50
47
45
33
23
26
26
55
114
255
16
119
255
29
17
3
16
11
31
43
50
45
82
67
5
54
9
11
11
83
43
64
28
57
59
38
35
76
36
30
8
255
0
0
0
0
255
12
20
15
255
99
77
255
114
50
18
86
37
40
39
4
20
69
62
21
55
96
14
1
26
20
169
255
111
63
255
85
51
69
8
9
36
24
32
13
5
60
8
25
61
40
39
4
26
42
4
26
36
36
2
50
61
40
37
255
0
0
0
0
255
58
20
75
255
40
106
255
127
4
35
72
53
43
63
40
17
19
15
14
38
2
46
11
74
17
74
255
78
33
255
105
1
43
10
41
84
59
2
2
8
3
31
2
40
48
23
15
21
60
2
71
37
34
55
49
18
26
1
255
0
0
0
0
255
10
48
45
255
147
71
255
128
24
19
86
0
68
22
62
52
82
4
1
40
19
46
56
41
22
50
255
142
41
255
110
24
30
6
18
63
32
28
5
54
2
5
81
40
70
0
4
90
1
55
15
3
72
51
5
41
75
37
216
0
0
0
0
198
24
29
99
255
68
121
255
99
19
29
30
51
16
51
1
61
45
51
69
45
54
6
82
30
24
3
255
84
88
255
81
11
9
11
3
41
60
3
1
40
17
23
1
13
37
16
25
82
61
2
19
17
43
87
78
6
38
4
182
0
0
0
0
159
32
43
113
255
109
96
255
40
30
17
76
4
5
32
25
52
25
16
37
27
37
19
3
23
35
101
255
78
116
255
54
28
9
62
45
43
18
11
28
64
85
0
4
43
5
29
19
37
5
7
36
31
44
32
48
127
83
20
238
0
0
0
0
239
25
36
73
255
32
72
255
23
51
13
43
53
80
56
32
28
11
32
5
17
39
19
17
12
4
92
255
84
95
255
98
47
22
57
59
38
72
55
30
44
101
101
76
6
12
6
28
13
3
54
88
58
19
4
79
29
45
23
255
0
0
0
0
255
15
40
100
255
60
70
255
93
1
49
16
3
13
43
47
38
22
87
35
7
53
42
53
5
23
131
255
121
86
255
110
75
34
47
58
24
50
4
55
41
7
60
22
51
7
14
22
43
28
42
14
35
50
16
3
33
66
49
188
0
0
0
0
255
30
49
62
255
78
75
255
179
65
12
16
3
44
3
19
1
43
54
13
3
10
29
39
36
51
112
255
114
35
255
119
78
26
33
34
15
57
65
20
31
43
50
20
16
6
35
25
2
23
6
3
10
77
33
27
41
13
61
220
0
0
0
0
255
33
19
54
255
131
67
255
117
55
11
48
59
17
27
37
44
36
42
41
12
21
15
5
24
43
87
255
54
80
255
83
6
52
3
42
3
37
121
5
39
102
65
50
42
17
3
19
92
77
75
43
33
60
12
7
4
76
21
226
0
0
0
0
255
13
6
0
255
117
24
255
7
2
12
27
2
76
10
2
68
67
17
0
46
23
14
11
7
4
29
255
75
26
255
74
1
58
18
7
23
36
39
7
13
36
31
45
22
48
19
46
40
20
42
48
76
14
46
11
60
67
26
255
0
0
0
0
208
78
15
23
255
7
37
255
4
11
52
39
15
5
52
16
57
64
23
46
34
49
82
65
44
35
42
255
37
49
255
55
11
70
74
57
16
18
29
5
50
5
32
13
29
38
64
35
41
37
39
34
36
23
8
1
39
50
81
255
0
0
0
0
234
30
98
48
255
17
34
255
55
31
14
100
43
47
4
65
43
43
67
26
6
25
37
15
51
102
6
255
112
6
255
153
104
23
8
10
60
26
9
13
33
2
49
61
32
62
2
66
58
87
63
68
16
61
23
79
18
69
40
205
0
0
0
0
255
45
14
79
255
62
86
255
90
1
44
21
46
15
25
31
22
1
24
9
19
33
43
37
2
7
55
255
88
49
255
65
37
64
2
26
17
30
11
17
8
27
36
45
33
19
39
57
12
12
7
38
21
16
10
44
27
19
23
213
0
0
0
0
255
45
9
122
255
140
34
255
7
43
77
44
9
57
40
39
22
69
26
77
24
47
49
23
30
51
61
255
164
71
255
92
38
42
22
19
17
7
13
8
6
71
16
42
89
15
0
66
22
31
42
23
18
82
53
34
37
36
35
172
0
0
0
0
172
57
67
156
255
89
132
255
36
18
17
12
66
3
53
6
4
21
58
1
47
15
7
35
94
9
32
255
65
130
255
67
33
47
38
6
20
17
46
4
2
43
23
36
86
51
69
50
60
21
36
79
5
44
20
9
69
34
3
222
0
0
0
0
177
92
21
118
255
75
158
255
202
132
145
135
123
69
67
86
116
77
54
95
118
134
54
122
64
80
140
255
186
14
255
132
34
3
12
17
12
28
74
58
89
68
96
166
255
255
255
186
177
104
53
57
26
30
8
19
25
54
12
211
0
0
0
0
255
32
24
123
255
115
255
255
255
255
255
255
255
255
255
255
255
255
255
255
255
255
255
255
255
255
255
255
255
83
255
82
34
52
0
18
27
66
26
91
251
255
255
159
12
54
47
58
255
255
231
121
27
18
3
38
10
37
11
228
0
0
0
0
240
0
29
51
255
95
66
255
180
32
66
77
176
95
63
53
75
74
15
10
34
83
160
79
79
31
99
255
173
13
255
81
31
0
10
22
22
8
149
161
124
29
18
13
55
112
97
22
62
24
107
130
236
68
78
57
29
28
19
255
0
0
0
0
255
66
49
27
130
40
49
1
48
122
79
121
59
57
100
46
129
69
81
54
88
83
52
101
149
166
129
115
3
82
227
29
46
17
102
63
68
165
255
151
43
121
129
127
254
255
255
215
143
177
97
68
255
210
83
44
21
36
32
255
0
0
0
0
176
31
90
39
75
142
246
255
255
255
255
255
255
255
255
255
255
255
255
255
255
255
255
255
255
255
255
255
255
193
77
18
23
19
70
42
247
194
132
125
255
255
255
59
47
58
120
36
255
255
255
121
169
200
219
82
38
60
20
255
0
0
0
0
255
28
21
15
68
25
6
111
89
100
88
95
142
93
108
102
125
77
73
51
90
89
117
16
57
21
65
48
56
63
30
90
119
108
48
197
255
171
97
255
222
158
24
68
80
30
150
35
188
118
230
109
142
147
189
255
7
12
42
242
0
0
0
0
206
26
26
13
29
31
4
4
25
32
41
7
31
5
41
29
61
38
10
64
85
16
23
56
11
13
16
17
34
82
67
30
87
105
101
163
112
255
255
245
34
69
63
16
27
41
23
30
2
33
52
162
248
187
70
191
86
55
28
255
0
0
0
0
220
12
79
43
12
59
58
49
73
8
50
98
22
1
9
2
34
18
17
9
51
50
17
29
41
24
5
34
33
10
17
41
26
80
255
216
59
255
201
21
49
26
8
96
12
111
57
32
190
88
33
7
174
255
20
137
248
56
23
201
0
0
0
0
238
17
29
22
26
18
9
43
27
52
49
25
19
30
21
28
6
53
86
53
31
21
31
24
44
50
15
53
64
62
37
70
88
196
255
80
255
255
17
51
5
53
0
7
0
55
8
33
22
56
16
7
36
255
189
93
237
89
53
255
0
0
0
0
233
42
11
0
16
8
13
14
22
35
40
12
15
29
50
61
38
31
101
42
53
67
5
5
69
7
3
20
35
79
58
66
24
255
169
143
255
113
121
27
154
135
86
4
12
62
23
47
119
12
8
48
43
183
214
5
157
227
46
255
0
0
0
0
255
10
36
10
16
39
33
17
39
65
7
72
45
17
23
44
15
24
6
11
26
24
17
19
7
46
42
16
9
26
35
38
107
255
187
45
253
71
99
91
58
19
92
103
73
0
75
129
159
130
28
24
113
158
255
66
80
255
106
255
0
0
0
0
250
15
60
38
71
6
21
5
6
5
44
37
23
29
5
62
5
13
66
15
24
10
41
10
8
42
10
56
75
44
15
6
115
200
39
197
255
135
31
15
74
108
71
76
33
52
63
64
60
44
14
14
96
121
255
95
43
231
167
255
0
0
0
0
255
35
27
45
12
48
16
2
36
8
34
52
30
30
18
34
39
76
3
38
33
0
46
25
56
38
18
36
2
26
13
74
221
153
27
106
73
87
124
114
28
101
115
32
19
80
90
39
54
81
108
130
33
102
218
232
30
152
241
255
0
0
0
0
254
18
23
57
13
99
100
77
33
10
43
46
10
48
24
20
23
5
70
14
13
9
62
53
33
10
32
81
27
42
33
8
229
95
232
255
147
13
63
14
96
75
69
134
77
121
8
164
123
130
79
142
83
18
90
255
112
10
213
255
0
0
0
0
255
23
67
42
11
96
51
19
90
25
9
70
7
0
53
44
47
16
3
59
51
37
7
1
2
38
6
50
10
32
31
6
255
130
16
242
44
85
17
132
79
5
128
50
105
86
120
43
121
1
92
0
58
59
94
244
10
96
255
255
0
0
0
0
196
28
12
62
41
27
83
33
67
33
1
72
24
28
8
38
58
27
17
28
21
2
2
9
11
94
59
13
47
0
5
60
255
39
170
255
81
127
5
15
72
19
48
50
69
31
103
119
98
24
52
61
130
19
47
234
35
7
255
250
0
0
0
0
209
45
54
54
13
28
43
43
31
10
27
22
32
16
64
33
23
12
13
11
21
24
13
104
43
11
48
35
33
74
33
115
255
35
120
204
55
42
18
27
33
13
42
35
97
99
121
191
8
8
134
35
60
1
97
255
84
2
255
255
0
0
0
0
224
20
42
3
8
21
13
10
37
3
15
114
36
4
26
18
43
23
6
24
24
23
23
24
15
5
16
5
19
22
22
62
245
105
201
255
46
60
9
72
0
2
42
60
41
66
5
46
133
50
44
130
129
188
7
255
154
3
255
255
0
0
0
0
255
38
96
10
18
56
1
17
76
19
73
62
12
1
40
6
34
19
46
14
28
3
42
14
1
87
66
36
20
8
52
93
223
94
1
187
87
45
57
30
31
36
21
3
17
4
169
44
131
65
8
57
70
22
210
176
82
156
183
255
0
0
0
0
255
73
17
38
3
24
3
25
20
46
64
3
60
52
59
79
25
10
23
20
20
69
7
14
83
6
29
14
56
92
53
20
150
255
8
202
255
70
103
92
38
19
69
71
113
117
113
89
6
81
6
30
106
46
222
23
11
255
73
246
0
0
0
0
210
2
3
49
42
17
26
43
24
46
15
45
57
18
76
26
16
48
16
14
6
18
13
23
9
37
1
43
38
10
6
27
120
255
69
161
255
139
38
50
23
11
26
28
75
13
84
26
95
54
67
5
44
54
255
148
4
255
45
223
0
0
0
0
215
96
61
83
24
51
28
78
52
37
47
14
2
2
59
36
8
2
30
5
25
15
32
27
16
7
76
106
57
45
10
65
52
224
153
57
255
246
22
83
47
21
40
55
16
128
100
17
124
16
81
40
134
13
223
69
150
255
119
240
0
0
0
0
231
80
35
8
25
41
46
3
3
17
66
23
45
51
21
87
29
24
22
8
13
28
15
11
70
71
8
29
26
10
28
27
71
128
255
9
128
255
19
119
9
30
168
63
102
101
80
52
121
81
106
104
28
255
255
124
181
158
2
141
0
0
0
0
255
28
17
47
1
16
51
43
28
25
12
28
3
59
63
65
13
40
20
28
28
59
44
54
0
8
53
50
20
24
74
54
1
19
236
255
40
255
251
71
33
30
6
53
8
99
12
5
23
23
94
140
227
255
11
136
255
65
10
205
0
0
0
0
255
38
73
109
57
39
12
51
36
1
64
16
27
31
36
34
36
72
50
6
12
3
33
13
20
50
8
61
82
18
3
43
18
6
47
182
1
140
255
208
124
1
100
67
25
4
53
64
4
101
157
255
255
174
125
61
108
83
46
175
0
0
0
0
255
75
0
4
20
27
9
16
97
19
106
24
52
6
38
40
6
3
38
14
34
40
16
65
76
12
29
2
41
39
13
27
24
3
15
224
140
222
160
255
255
153
149
29
21
131
27
63
9
55
174
225
161
254
255
140
70
32
112
255
0
0
0
0
238
31
24
99
88
26
30
51
10
41
42
56
46
14
9
26
37
5
48
8
13
40
45
44
18
62
46
24
1
82
13
76
6
3
65
61
189
255
180
255
255
255
115
34
110
80
136
168
229
255
255
207
131
254
255
64
8
63
25
238
0
0
0
0
245
18
3
96
49
25
19
3
83
10
36
31
8
72
11
35
23
5
13
18
2
2
9
28
57
47
16
10
11
3
15
15
10
7
85
0
86
181
255
4
195
47
80
114
255
255
255
255
137
84
32
106
255
230
54
12
9
8
53
244
0
0
0
0
255
1
41
45
18
17
56
63
28
74
56
27
13
15
27
28
20
32
34
64
27
1
8
34
6
4
3
34
5
46
29
29
157
62
21
27
26
22
201
128
113
110
15
21
69
58
138
18
33
82
136
158
199
40
28
19
42
5
45
255
0
0
0
0
243
14
48
64
33
60
6
32
53
10
37
26
18
35
47
22
11
15
7
51
25
13
66
2
23
37
10
96
50
52
1
26
56
9
37
38
40
0
33
139
255
255
233
115
22
9
146
114
193
255
220
33
5
12
45
23
23
15
26
242
0
0
0
0
255
22
56
2
19
65
14
43
2
20
28
25
17
18
4
67
12
17
93
34
22
79
38
12
24
27
24
28
6
4
15
46
77
16
25
35
27
52
57
26
85
35
76
158
255
255
255
255
142
96
43
25
9
19
73
18
15
16
16
255
0
0
0
0
196
10
20
9
19
29
44
69
15
28
85
22
12
51
44
36
47
25
54
39
14
69
21
38
78
5
11
3
35
30
102
4
33
24
5
7
20
12
10
52
42
50
1
26
30
59
4
26
48
20
81
86
53
23
94
20
64
80
84
206
0
0
0
0
170
29
18
18
53
104
29
64
1
19
60
72
68
71
58
33
2
49
26
50
36
26
87
36
21
81
34
35
52
86
38
55
24
54
20
33
17
27
34
109
32
16
21
70
47
13
45
79
42
44
7
39
29
5
27
23
61
44
76
249
0
0
0
0
255
195
240
252
228
207
255
255
255
255
255
189
255
184
255
200
211
197
193
255
236
242
233
245
255
249
255
247
255
163
255
192
255
188
249
222
255
255
155
174
223
255
255
239
232
159
206
184
236
227
255
255
255
238
194
199
231
255
173
255
0
0
0
0
0
0
0
0
0
0
0
0
0
0
0
0
0
0
0
0
0
0
0
0
0
0
0
0
0
0
0
0
0
0
0
0
0
0
0
0
0
0
0
0
0
0
0
0
0
0
0
0
0
0
0
0
0
0
0
0
0
0
0
0
0
0
0
0
0
0
0
0
0
0
0
0
0
0
0
0
0
0
0
0
0
0
0
0
0
0
0
0
0
0
0
0
0
0
0
0
0
0
0
0
0
0
0
0
0
0
0
0
0
0
0
0
0
0
0
0
0
0
0
0
0
0
0
0
0
0
