P2
64 64
255
0
0
0
0
0
0
0
0
0
0
0
0
0
0
0
0
0
0
0
0
0
0
0
0
0
0
0
0
0
0
0
0
0
0
0
0
0
0
0
0
0
0
0
0
0
0
0
0
0
0
0
0
0
0
0
0
0
0
0
0
0
0
0
0
0
255
249
239
250
219
233
222
255
240
255
231
250
237
243
237
243
234
249
241
255
255
254
240
236
240
255
251
253
241
253
229
223
211
243
229
240
230
255
250
241
232
225
254
219
250
226
255
236
243
233
234
255
245
255
246
238
251
242
255
227
233
255
0
0
235
4
14
5
7
16
7
15
22
2
16
8
8
1
8
3
34
2
13
18
5
3
7
2
0
9
4
0
5
14
9
7
17
0
5
22
2
10
5
2
10
8
2
11
3
6
2
1
3
8
6
1
20
9
8
10
2
1
11
12
20
231
0
0
240
5
9
15
13
5
14
3
6
15
14
15
19
15
12
7
7
3
11
4
4
4
0
4
3
6
8
6
16
14
2
9
2
5
2
1
23
1
10
4
2
8
13
16
0
12
10
7
5
13
1
10
19
2
19
1
12
4
7
0
17
219
0
0
233
7
13
8
5
10
10
1
10
1
24
17
14
10
9
5
7
7
1
10
0
1
3
3
10
13
4
9
0
12
27
0
6
12
4
10
1
7
12
7
10
10
6
12
1
1
14
1
4
0
5
3
16
2
1
23
0
11
11
19
7
252
0
0
240
4
8
9
4
1
6
4
1
12
8
12
5
1
1
0
19
9
2
1
5
6
0
2
7
1
2
1
4
18
7
21
10
10
2
2
2
11
12
2
4
15
10
6
16
5
5
11
8
1
5
5
6
4
6
4
11
5
10
15
14
245
0
0
221
20
5
0
8
7
23
72
81
75
55
65
63
75
84
73
69
71
86
81
80
76
84
81
87
89
76
77
76
65
24
3
11
0
10
8
2
2
3
5
3
1
6
0
8
12
10
9
5
22
5
4
12
8
6
12
12
4
6
7
11
244
0
0
235
1
7
12
5
30
4
13
31
3
4
12
14
20
8
3
1
9
1
5
2
1
4
2
7
7
1
13
15
1
15
26
2
18
6
0
2
1
7
20
7
7
6
5
5
10
9
9
15
2
13
14
7
15
2
7
12
2
5
7
5
248
0
0
241
4
2
8
8
56
13
7
56
0
21
6
1
7
5
2
8
14
0
9
12
13
4
1
8
1
0
2
58
6
0
64
2
1
5
3
7
11
14
7
1
3
3
2
8
2
6
12
13
5
7
9
4
15
5
7
1
5
1
7
7
255
0
0
241
19
5
10
3
85
27
51
170
75
78
65
77
76
79
77
68
78
82
78
74
68
77
75
76
85
73
86
158
61
33
74
4
14
8
0
1
4
10
7
4
3
5
9
10
3
7
9
6
1
3
9
5
11
18
1
3
8
2
4
5
249
0
0
243
0
14
7
11
77
10
3
82
4
5
9
17
20
13
2
13
13
5
17
4
12
15
6
1
2
9
7
73
10
6
83
7
2
11
10
5
5
3
10
1
17
13
4
8
3
11
6
3
3
4
4
4
0
6
2
7
3
9
10
19
222
0
0
217
8
3
12
3
67
25
3
67
2
11
13
3
0
6
7
0
1
13
0
12
5
8
7
7
3
0
7
80
10
3
81
7
10
6
6
5
4
4
2
5
3
2
7
2
2
16
9
7
2
11
6
2
7
8
9
2
3
6
5
6
231
0
0
240
9
10
3
4
70
6
1
76
15
8
12
6
6
2
0
4
12
6
12
9
7
4
2
6
4
10
4
64
17
6
77
9
5
4
3
2
3
11
11
5
19
16
3
11
1
1
3
16
6
15
6
9
13
12
5
16
9
9
1
10
234
0
0
246
2
2
6
14
79
6
1
72
7
14
3
17
7
8
8
2
4
15
14
3
8
18
2
0
4
0
18
88
9
2
77
1
10
13
0
1
6
9
4
1
1
11
0
5
12
7
10
1
10
6
1
1
3
8
3
9
14
7
11
24
255
0
0
255
5
12
3
2
79
11
4
85
8
1
12
14
18
11
16
10
7
1
6
4
10
1
13
1
16
7
4
72
4
6
64
7
4
7
3
6
13
12
1
2
5
0
8
4
5
7
5
4
6
11
1
15
4
5
11
8
5
9
1
1
234
0
0
246
2
0
9
8
87
16
1
75
10
7
1
18
1
16
5
13
6
16
1
2
5
3
11
9
6
3
4
93
11
6
82
6
6
6
1
1
9
2
6
3
15
2
4
18
3
13
3
3
19
2
11
4
2
15
9
3
9
15
6
4
251
0
0
251
10
9
6
6
74
5
7
89
3
2
5
6
11
3
12
3
9
6
10
14
9
8
3
18
10
1
16
72
0
2
80
1
3
2
1
0
7
12
1
3
13
3
5
4
0
6
2
8
13
11
1
6
5
12
17
13
6
4
6
13
243
0
0
255
18
3
8
7
87
9
5
70
5
3
5
15
5
3
10
5
8
4
1
6
4
6
6
4
8
10
8
85
0
5
91
9
8
5
15
8
8
3
1
8
14
14
4
2
10
3
6
4
6
2
1
5
8
9
1
9
27
14
4
1
251
0
0
250
0
3
7
2
76
11
2
70
8
9
2
5
9
16
12
9
5
3
4
1
2
6
3
2
1
3
0
74
1
2
80
3
7
3
11
12
6
11
9
3
4
16
16
15
3
3
0
6
1
0
8
16
13
2
2
18
7
11
5
4
242
0
0
248
7
4
8
4
82
2
0
68
4
3
11
1
1
6
10
9
7
1
18
10
3
13
14
13
4
9
9
97
5
1
94
0
14
8
4
9
4
7
3
13
10
4
9
7
11
1
4
3
8
8
9
7
7
13
6
2
4
13
10
11
247
0
0
234
16
10
13
8
89
4
3
89
16
11
6
1
0
12
2
1
1
7
7
4
1
0
7
4
10
12
2
86
5
9
75
6
15
5
4
7
2
12
13
6
7
9
14
4
1
0
8
5
3
9
1
3
0
18
10
4
7
2
10
2
252
0
0
255
9
7
4
2
79
10
3
76
7
8
4
8
11
6
5
6
8
5
7
8
3
4
1
0
6
6
3
66
4
4
72
1
2
9
0
10
4
10
26
5
11
20
11
6
10
4
3
1
18
14
14
10
4
10
2
4
3
14
0
7
255
0
0
241
4
1
4
15
86
5
20
71
17
2
5
4
0
19
3
4
15
15
9
0
13
5
6
4
1
1
4
58
4
9
66
2
2
9
0
1
5
8
5
0
4
5
1
9
6
7
7
8
3
6
9
8
14
5
8
3
13
12
4
7
255
0
0
236
4
16
2
17
65
17
6
77
12
2
10
5
6
3
12
5
12
15
5
10
7
8
15
12
10
2
20
64
9
3
77
8
2
13
13
10
5
4
6
1
10
2
6
3
2
7
16
4
11
5
3
2
6
3
1
0
11
7
14
8
255
0
0
233
1
6
24
7
77
11
12
81
6
8
2
20
7
12
2
15
10
8
15
6
1
8
6
7
9
19
9
82
6
17
86
14
19
2
5
2
15
3
3
4
7
3
11
13
3
12
0
13
10
15
9
12
3
13
5
14
7
12
5
10
239
0
0
246
9
13
1
1
80
4
4
82
5
1
8
3
13
4
8
4
4
3
9
0
5
6
7
8
0
5
6
90
5
4
78
7
5
11
2
5
7
6
1
3
1
5
9
9
8
6
12
10
3
2
4
8
5
3
3
8
10
1
4
5
254
0
0
255
4
12
2
7
80
12
11
79
18
3
16
12
3
12
9
6
6
17
4
18
8
13
11
1
2
11
1
86
19
1
68
8
10
7
2
4
5
0
2
2
2
14
1
12
19
0
0
13
5
6
6
3
0
18
10
7
9
8
11
17
246
0
0
248
14
7
16
17
77
1
12
84
8
3
4
2
18
2
14
0
4
6
14
1
8
2
1
10
22
5
13
91
8
13
75
3
8
9
6
2
4
4
8
2
0
6
6
4
5
1
5
4
9
0
4
14
1
11
4
1
17
7
0
4
255
0
0
248
11
15
2
5
78
7
2
93
7
11
12
11
12
2
1
1
10
3
7
2
7
11
8
8
1
2
1
78
11
13
68
13
7
0
2
3
1
6
15
6
11
1
10
21
52
44
48
27
23
8
1
7
6
3
1
5
5
12
7
9
254
0
0
253
4
5
6
7
86
38
56
153
81
68
79
65
77
72
75
76
70
87
75
87
64
82
79
91
74
70
72
160
56
24
89
3
6
11
3
4
4
12
1
9
36
73
43
25
13
14
16
2
46
52
35
17
1
4
0
7
5
6
2
3
240
0
0
250
4
0
6
2
62
15
5
49
13
9
0
0
21
1
1
6
3
0
18
13
5
1
17
4
5
6
2
50
13
7
48
8
6
3
6
3
6
9
23
20
16
7
10
4
0
10
5
1
11
16
18
12
41
0
18
12
4
6
3
10
237
0
0
255
1
15
9
4
22
5
4
9
0
9
2
10
2
4
6
10
14
3
0
8
3
2
3
4
14
14
14
36
2
5
40
1
9
2
19
10
3
25
39
26
3
8
12
17
44
45
58
35
16
20
12
11
41
31
6
10
5
5
4
3
232
0
0
254
20
10
21
2
20
31
37
77
57
83
71
81
81
74
85
72
76
66
77
77
74
73
77
72
74
73
89
79
53
31
8
2
1
4
13
7
40
18
22
20
58
71
53
3
5
0
12
9
43
57
51
24
33
19
37
4
6
11
1
15
240
0
0
249
5
3
7
1
9
9
7
9
5
3
1
1
12
1
7
4
13
1
1
8
2
2
11
12
0
11
1
7
0
3
5
17
18
17
6
30
52
35
13
38
28
19
4
13
17
2
30
1
34
5
37
2
33
34
18
53
9
0
9
1
235
0
0
239
9
6
1
3
6
8
3
2
10
6
9
1
6
1
10
4
15
7
3
12
16
8
4
12
4
2
2
2
4
14
12
2
10
22
13
14
21
62
47
40
15
14
11
3
7
10
2
9
8
12
4
27
33
33
11
23
10
10
3
7
249
0
0
236
2
1
15
7
0
10
10
9
17
1
8
19
3
1
5
0
10
6
2
1
6
12
3
8
5
3
2
7
10
1
2
11
6
9
52
38
4
44
25
3
8
10
4
21
4
22
9
5
40
18
8
6
22
56
5
21
44
19
1
13
250
0
0
245
1
5
3
2
5
1
1
11
7
9
6
1
4
6
7
7
2
10
12
10
7
10
5
8
11
7
3
10
13
10
9
16
14
22
52
21
47
68
7
8
5
7
5
2
1
7
5
12
3
16
1
5
7
58
23
28
42
8
9
8
255
0
0
235
1
10
1
1
5
1
1
3
8
4
6
4
1
3
9
11
7
2
19
5
8
16
1
5
18
5
0
5
12
15
8
17
6
44
18
22
49
8
24
4
28
20
19
2
8
14
8
11
32
0
2
11
4
21
24
8
20
31
0
5
252
0
0
248
9
3
5
2
1
7
6
3
8
12
1
14
8
3
2
5
2
5
8
3
7
9
2
3
3
11
7
6
1
4
6
12
8
74
28
3
36
8
23
22
5
5
20
20
16
4
14
26
34
25
3
8
20
11
86
0
0
74
6
2
239
0
0
243
2
4
16
13
18
5
7
1
2
1
8
3
7
7
2
12
2
2
16
1
6
6
9
3
6
11
0
12
14
9
3
5
12
25
16
34
44
18
2
2
14
17
9
21
5
11
12
19
15
10
6
4
16
11
33
8
5
29
22
0
245
0
0
248
5
6
6
6
0
8
2
1
7
0
3
11
5
10
6
8
12
19
1
10
7
2
8
7
10
4
3
8
1
6
1
11
34
28
14
4
1
10
22
24
1
12
21
3
3
16
23
3
0
14
22
20
6
16
32
35
2
23
39
0
242
0
0
255
1
4
0
10
3
15
16
16
6
2
11
12
0
12
2
6
3
1
17
3
5
3
11
12
7
1
9
18
12
11
11
10
42
32
36
84
18
3
17
6
21
9
11
29
6
22
0
34
21
25
10
23
13
8
5
44
15
8
32
7
251
0
0
247
5
7
16
3
1
17
3
4
16
2
2
11
4
4
11
8
12
5
0
11
8
7
1
3
1
6
4
8
3
4
6
8
44
24
12
31
1
14
3
29
13
5
27
7
15
15
27
4
28
4
21
4
9
11
10
40
7
13
48
0
226
0
0
237
9
1
9
14
11
2
17
6
9
4
3
14
3
7
2
9
14
3
2
3
3
1
1
2
1
18
8
4
11
4
0
1
51
3
28
46
13
27
6
6
12
3
7
10
6
9
14
13
13
4
10
5
23
3
1
35
1
9
43
7
238
0
0
225
0
12
13
8
2
4
8
9
4
2
8
4
5
6
14
6
9
2
1
3
4
5
1
21
7
2
9
10
2
17
2
15
44
7
10
25
5
5
3
8
4
2
10
2
21
22
14
36
7
5
26
4
14
3
12
65
1
8
62
2
230
0
0
230
3
5
3
2
2
3
4
1
6
1
3
21
3
1
2
5
11
4
0
4
4
8
6
3
6
1
4
3
3
9
3
2
44
29
29
53
2
12
5
17
4
3
8
10
6
11
3
10
28
16
12
27
22
38
14
55
18
8
49
4
254
0
0
245
5
1
21
0
6
12
0
5
17
0
17
12
1
0
10
2
10
3
9
1
6
2
9
5
0
18
10
8
3
6
10
13
35
12
10
26
7
9
15
3
9
8
4
1
1
7
34
3
27
15
3
12
19
4
40
22
14
26
25
9
252
0
0
239
3
15
8
10
1
4
2
5
4
11
13
4
14
12
8
15
5
5
4
6
2
16
0
0
18
1
3
0
11
19
9
9
18
40
7
27
45
3
24
14
6
4
15
7
25
28
14
17
0
14
2
4
20
23
30
10
8
46
4
1
239
0
0
237
6
1
1
14
7
2
5
7
2
7
3
7
9
1
12
2
4
10
2
4
1
7
3
4
0
10
1
12
10
6
1
4
12
66
5
20
54
16
16
12
3
2
0
4
12
1
18
4
15
10
15
5
13
1
100
14
14
73
7
3
240
0
0
238
1
17
9
21
8
13
11
19
13
4
8
3
0
0
11
8
5
1
7
2
7
3
8
7
2
4
14
21
11
11
5
14
3
30
19
3
41
35
5
14
9
0
17
14
6
31
22
7
22
4
10
8
28
14
24
3
21
58
16
3
232
0
0
236
0
15
12
1
7
10
9
1
1
6
14
0
12
13
10
17
4
4
3
3
3
8
2
1
13
14
5
2
10
1
5
9
14
13
45
12
9
52
8
19
7
12
40
4
19
14
16
5
24
17
13
20
18
54
42
29
26
18
5
22
247
0
0
255
10
7
3
15
1
2
8
7
6
3
4
7
2
8
11
8
3
6
0
6
4
13
7
11
4
0
12
10
8
3
13
12
2
3
34
56
6
54
41
23
5
4
4
10
3
22
3
5
3
4
11
13
31
44
12
23
50
6
6
4
251
0
0
247
0
5
12
22
9
6
1
11
6
4
10
3
2
5
2
8
8
12
10
2
1
3
8
1
3
12
2
12
19
1
0
11
3
1
0
22
4
21
38
30
15
2
13
10
3
7
9
16
6
23
26
40
44
35
20
4
16
21
9
16
245
0
0
251
1
15
4
1
5
7
3
4
22
1
22
10
15
5
10
11
3
1
9
4
6
7
0
10
15
2
10
1
12
5
4
3
6
1
5
43
10
46
33
41
51
18
36
1
1
30
1
13
4
24
22
23
32
50
55
18
13
7
26
11
244
0
0
237
1
4
3
16
14
4
8
13
0
12
10
11
10
4
2
2
7
2
9
1
6
10
11
4
1
14
11
7
7
19
8
18
3
4
12
1
28
40
36
44
70
65
18
0
12
4
12
17
34
66
51
40
25
27
41
2
2
14
2
2
229
0
0
239
1
3
2
15
6
7
2
2
20
0
6
3
2
16
5
7
2
0
1
6
2
2
5
6
10
11
4
1
3
1
2
0
3
1
17
5
10
23
40
4
33
8
12
13
68
58
79
50
13
3
2
18
44
36
1
2
0
2
11
1
240
0
0
242
11
3
10
11
2
1
10
13
7
15
7
5
2
1
7
7
4
7
8
11
6
3
3
9
1
5
0
5
2
7
5
4
31
10
1
4
3
5
35
13
17
8
4
8
6
32
14
9
11
4
18
20
32
1
7
1
10
2
7
0
254
0
0
247
3
4
6
14
4
15
2
6
12
4
8
8
5
4
11
3
4
1
7
10
9
9
15
3
3
9
0
18
7
10
2
10
6
5
8
4
7
2
2
21
36
71
35
16
15
10
42
17
23
77
30
0
5
4
11
8
8
7
6
7
255
0
0
255
5
3
11
5
3
17
6
8
4
4
4
4
5
6
7
14
1
8
20
4
2
15
4
1
3
8
3
3
5
3
5
9
16
2
8
7
3
10
11
1
10
6
7
25
44
69
51
53
19
4
6
4
2
2
11
2
3
6
4
5
255
0
0
255
11
1
2
2
7
3
11
13
0
8
19
6
4
12
10
4
11
5
9
10
6
13
4
4
15
1
1
0
10
5
22
0
9
6
2
2
5
5
3
11
12
11
1
9
1
1
15
3
18
7
18
15
11
3
16
3
11
13
14
8
242
0
0
253
14
3
5
4
8
22
10
16
3
6
11
14
12
12
10
7
0
15
7
12
10
8
19
3
5
18
4
7
10
19
8
14
6
12
2
7
4
6
2
19
4
4
6
13
7
0
11
18
9
9
2
9
7
1
6
4
9
4
11
6
249
0
0
250
6
9
2
0
1
5
3
10
6
2
16
12
14
13
14
13
8
10
10
3
3
2
1
1
4
5
9
1
11
11
13
12
14
13
4
5
3
4
20
9
3
8
7
3
1
17
7
16
4
6
1
5
0
1
11
6
4
7
16
9
219
0
0
255
255
244
254
255
243
247
236
249
247
254
246
230
240
228
247
248
255
243
246
241
255
228
241
238
255
248
255
241
237
203
235
232
255
240
249
243
251
255
255
247
241
255
255
255
248
240
254
249
255
248
247
241
252
250
250
238
255
253
255
251
255
0
0
0
0
0
0
0
0
0
0
0
0
0
0
0
0
0
0
0
0
0
0
0
0
0
0
0
0
0
0
0
0
0
0
0
0
0
0
0
0
0
0
0
0
0
0
0
0
0
0
0
0
0
0
0
0
0
0
0
0
0
0
0
0
0
