P2
64 64
255
0
0
0
0
0
0
0
0
0
0
0
0
0
0
0
0
0
0
0
0
0
0
0
0
0
0
0
0
0
0
0
0
0
0
0
0
0
0
0
0
0
0
0
0
0
0
0
0
0
0
0
0
0
0
0
0
0
0
0
0
0
0
0
0
0
255
1
4
4
13
10
12
10
0
6
11
5
1
3
8
16
7
28
33
23
12
20
12
9
24
3
19
18
5
13
37
33
10
32
20
4
9
15
11
16
20
2
4
10
25
25
16
8
7
15
2
8
5
7
5
13
4
5
8
19
14
255
0
0
255
8
16
12
15
31
1
7
3
1
11
10
7
5
15
31
5
37
43
27
18
16
2
17
23
11
36
27
3
0
35
43
8
40
28
8
11
15
3
2
20
16
9
22
46
38
20
6
6
24
22
33
17
14
23
23
1
7
1
19
31
255
0
0
255
16
27
25
13
46
17
8
11
1
11
12
11
2
12
24
7
27
31
19
15
5
11
21
13
26
49
31
0
17
21
38
5
30
23
19
24
6
18
25
2
20
18
22
54
42
13
9
4
20
31
50
23
18
34
23
7
4
1
11
31
255
0
0
255
19
31
27
5
40
21
6
9
11
16
10
11
7
2
2
17
14
14
10
8
3
9
17
9
25
48
27
2
12
19
26
11
20
17
13
19
7
18
43
22
6
24
6
32
29
4
12
1
9
20
42
18
18
34
19
15
25
9
2
10
255
0
0
255
26
38
21
0
21
10
1
8
23
16
11
15
18
8
10
16
7
4
3
1
1
3
7
6
17
33
17
10
9
19
5
24
14
10
0
9
14
6
39
34
11
17
11
4
9
1
4
1
4
5
21
14
4
24
24
9
34
20
0
10
255
0
0
255
34
45
12
0
30
47
56
56
31
8
23
29
24
3
9
2
5
1
2
4
6
4
0
1
9
12
6
13
28
37
35
29
15
3
5
6
16
10
19
33
22
5
20
25
1
6
11
1
6
4
11
14
11
17
35
11
23
22
3
13
255
0
0
255
32
40
4
4
105
202
218
141
27
3
37
39
20
15
26
15
3
7
4
10
16
8
8
7
1
6
2
95
186
204
119
25
16
4
3
4
17
23
2
25
24
4
16
25
5
12
24
1
12
18
14
10
6
20
33
25
7
17
9
6
255
0
0
255
23
25
1
6
212
255
255
239
18
8
35
31
17
10
23
27
16
7
3
21
24
7
18
18
1
6
3
211
255
255
223
20
14
8
1
2
15
24
14
7
18
15
2
16
10
8
22
1
15
24
9
6
12
16
12
25
5
11
19
5
255
0
0
255
20
10
3
2
255
255
255
255
11
5
13
10
23
9
7
27
27
4
19
39
25
4
27
29
12
3
10
255
255
255
255
16
14
5
8
11
13
14
13
12
8
28
15
14
24
1
18
1
12
20
0
24
26
6
7
18
15
4
32
25
255
0
0
255
26
5
4
13
255
255
255
255
12
1
8
7
24
19
4
18
23
2
25
46
20
15
31
29
23
8
24
255
255
255
255
9
14
0
15
22
9
1
7
21
4
28
22
16
32
1
27
5
15
19
0
26
25
3
3
14
21
5
38
44
255
0
0
255
28
7
1
15
255
255
255
255
17
4
8
8
12
11
5
9
8
1
12
27
9
14
21
17
23
9
33
255
255
255
255
5
16
0
22
29
8
13
6
12
15
8
14
11
18
3
34
8
21
25
12
14
22
14
15
9
13
11
22
41
255
0
0
255
18
5
13
6
255
255
255
255
12
12
6
2
1
2
0
4
1
4
9
3
5
4
2
5
17
13
29
255
255
255
255
11
18
6
30
33
8
24
18
1
23
8
11
5
5
2
21
6
16
27
31
3
24
32
29
3
6
11
7
16
255
0
0
255
3
4
22
2
255
255
255
255
3
19
19
6
6
10
3
6
6
4
24
18
13
1
9
4
12
23
11
255
255
255
255
22
16
14
40
37
6
29
20
1
17
1
17
20
17
16
5
2
7
19
40
14
20
41
37
11
19
5
22
5
255
0
0
255
6
14
21
3
255
255
255
255
14
23
24
1
8
7
3
20
6
7
29
9
8
8
1
11
2
22
7
255
255
255
255
22
9
15
44
41
9
30
22
0
2
15
25
24
14
24
25
16
7
5
32
15
12
42
38
17
26
4
16
11
255
0
0
255
8
14
11
15
255
255
255
255
17
22
13
8
3
2
13
32
7
24
34
5
6
20
22
14
15
8
16
255
255
255
255
8
1
10
35
38
14
25
21
3
3
20
30
24
10
21
33
36
18
11
11
7
7
40
35
28
38
9
9
15
255
0
0
255
12
3
5
22
255
255
255
255
13
9
13
17
6
12
22
36
8
34
35
14
20
21
31
8
21
1
16
255
255
255
255
3
4
8
19
26
14
11
11
10
9
15
30
26
12
17
29
41
26
11
1
8
17
35
28
39
49
5
9
18
255
0
0
255
19
2
16
24
255
255
255
255
0
13
34
19
10
19
28
31
3
33
22
19
24
15
23
1
8
3
14
255
255
255
255
5
12
17
9
4
3
0
6
29
33
6
31
35
19
12
18
27
23
7
9
15
35
31
19
39
45
3
8
16
255
0
0
255
19
3
15
17
255
255
255
255
13
25
33
12
6
20
29
23
7
33
3
25
21
9
11
2
9
14
18
255
255
255
255
2
25
37
11
19
29
1
17
40
43
5
27
44
23
5
7
12
19
26
20
13
37
26
15
19
25
4
6
13
255
0
0
255
13
7
10
8
255
255
255
255
20
14
11
0
3
18
26
10
22
37
9
31
19
0
0
1
20
23
21
255
255
255
255
5
33
48
11
27
38
6
16
25
25
5
17
39
11
7
2
1
14
30
18
7
18
19
17
1
10
21
16
19
255
0
0
255
15
14
5
10
255
255
255
255
24
2
13
9
2
10
21
1
32
37
8
27
17
11
10
1
20
16
4
255
255
255
255
12
31
38
1
23
28
19
14
2
7
10
5
18
9
14
1
10
6
23
17
11
6
20
25
4
12
21
1
28
255
0
0
255
22
21
3
16
255
255
255
255
30
7
16
10
9
4
18
3
33
35
3
17
12
12
16
4
3
9
21
255
255
255
255
13
25
20
16
20
16
25
12
20
29
24
4
8
25
13
11
17
7
26
23
24
7
29
24
3
14
1
22
26
255
0
0
255
21
16
10
11
255
255
255
255
33
32
2
5
8
8
16
7
27
31
2
6
3
2
17
18
26
37
27
255
255
255
255
13
20
16
17
22
15
16
5
24
27
19
8
25
30
2
19
9
21
35
21
13
15
35
13
4
1
23
29
14
255
0
0
255
15
1
8
6
255
255
255
255
28
43
22
1
4
14
9
9
8
20
2
8
4
6
14
37
50
47
7
255
255
255
255
18
15
24
4
22
18
6
0
21
14
5
15
31
22
7
12
9
27
30
8
9
34
26
2
6
24
29
11
3
255
0
0
255
12
8
2
13
255
255
255
255
17
30
30
9
10
11
1
8
14
4
5
16
6
8
8
46
53
31
23
255
255
255
255
27
1
23
11
13
17
2
5
9
3
1
18
25
11
2
5
20
14
11
3
22
38
9
18
9
37
23
10
12
255
0
0
255
14
3
12
0
255
255
255
255
3
13
30
18
3
0
2
4
23
7
2
15
8
8
0
44
44
11
40
255
255
255
255
30
18
6
17
1
12
3
9
5
9
0
8
3
0
11
19
18
7
8
6
16
27
1
26
2
24
15
13
8
255
0
0
255
18
1
25
18
255
255
255
255
8
9
28
18
2
5
0
0
19
6
0
14
12
4
1
44
38
2
45
255
255
255
255
24
26
14
13
7
4
10
2
11
19
7
5
19
6
19
20
7
19
16
9
1
3
4
23
8
3
6
6
2
255
0
0
255
26
8
43
29
255
255
255
255
12
8
18
5
5
3
1
7
6
1
2
15
15
4
6
41
34
7
40
255
255
255
255
21
20
18
9
11
0
21
13
8
19
16
6
22
2
17
10
6
18
10
11
10
22
10
11
0
9
5
2
12
255
0
0
255
32
11
47
28
255
255
255
255
11
2
6
2
11
14
1
9
4
3
4
15
17
1
7
32
36
1
33
255
255
255
255
15
5
12
2
10
3
26
27
5
6
30
31
21
28
18
11
45
45
16
11
11
26
10
8
1
10
7
7
11
255
0
0
255
28
3
30
24
255
255
255
255
10
7
4
8
4
21
6
3
7
8
1
13
21
22
2
32
41
7
33
241
255
255
255
2
5
14
9
5
12
14
17
12
26
66
85
86
77
27
40
102
93
58
51
34
5
6
17
12
4
0
10
1
255
0
0
255
21
12
4
20
201
255
255
219
7
12
6
17
6
23
9
1
5
7
5
12
21
31
3
38
39
10
35
163
255
255
215
19
3
27
18
4
23
16
44
103
114
110
94
101
98
38
48
115
103
109
144
147
82
12
22
20
5
6
9
15
255
0
0
255
16
22
19
6
95
194
193
107
6
14
1
8
11
14
2
2
5
3
3
7
11
19
4
32
32
13
28
68
210
224
91
34
0
42
25
7
43
86
154
221
193
112
45
58
81
48
27
71
64
124
217
255
189
74
5
11
10
4
2
22
255
0
0
255
10
18
28
13
23
33
29
16
10
16
5
8
8
0
6
9
12
11
3
2
1
7
6
11
21
16
8
10
63
58
11
49
4
48
34
13
99
202
255
255
179
61
23
1
53
60
3
9
11
99
212
255
255
179
88
16
1
2
1
14
255
0
0
255
2
2
23
24
0
16
20
14
10
13
2
12
1
11
10
12
15
8
10
15
0
11
18
3
12
9
4
4
19
1
52
61
14
44
27
64
208
255
255
177
82
9
38
15
35
61
19
19
5
64
138
210
252
255
204
78
4
1
13
4
255
0
0
255
16
18
9
22
3
13
7
5
1
1
9
10
10
11
12
12
13
5
18
30
1
20
19
0
8
3
3
11
22
2
46
54
13
32
33
189
255
255
163
50
4
4
8
0
7
34
27
32
1
50
66
93
159
255
255
182
40
7
29
20
255
0
0
255
21
28
5
13
4
8
7
7
12
18
11
17
24
2
13
12
17
17
13
39
13
17
12
7
7
10
18
0
12
4
14
21
4
2
150
255
255
223
46
2
2
1
3
7
27
9
37
48
4
50
34
21
50
220
255
255
134
31
37
25
255
0
0
255
15
20
10
4
2
3
12
13
18
18
5
28
28
3
12
16
32
37
3
46
27
11
9
5
8
6
22
11
6
6
17
13
22
55
255
255
255
104
8
20
20
11
26
22
33
3
34
39
2
38
11
10
17
136
255
255
247
82
34
18
255
0
0
255
6
2
6
0
4
6
8
13
18
4
25
30
18
4
5
21
45
44
2
42
28
9
7
3
1
1
9
4
17
7
23
30
33
119
255
255
255
28
1
47
10
32
43
23
17
1
15
19
7
15
11
35
44
66
255
255
255
147
19
1
255
0
0
255
2
14
2
4
0
10
1
5
10
13
35
18
0
1
4
19
44
36
5
24
16
7
1
2
3
0
1
7
13
17
14
28
9
185
255
255
207
6
7
23
25
41
21
2
2
11
7
9
5
1
19
54
54
20
242
255
255
212
18
17
255
0
0
255
3
16
6
16
20
4
9
16
9
21
28
1
12
5
8
13
29
23
8
8
3
6
6
17
5
3
5
6
6
15
6
14
55
255
255
255
163
15
6
29
59
32
28
39
12
25
14
18
5
18
7
50
61
5
182
255
255
255
57
24
255
0
0
255
0
6
3
28
47
14
20
42
29
17
10
9
12
10
8
6
9
10
7
2
6
10
1
26
10
7
19
2
0
6
6
0
126
255
255
255
99
19
5
47
67
21
60
64
15
35
15
25
9
52
50
33
66
23
111
255
255
255
114
18
255
0
0
255
6
6
5
35
65
29
30
62
38
5
12
13
5
12
7
3
6
1
3
7
10
18
10
19
3
10
22
4
6
1
3
6
169
255
255
216
26
2
15
21
51
20
63
75
10
52
30
12
8
47
52
27
53
21
60
255
255
255
153
14
255
0
0
255
2
17
14
37
65
27
39
70
31
11
28
12
3
10
7
14
15
8
10
9
11
20
13
1
17
14
7
7
9
4
2
3
180
255
255
187
12
1
45
14
30
31
44
69
5
79
57
3
11
1
8
34
25
7
45
232
255
255
165
21
255
0
0
255
11
27
22
33
54
20
38
62
19
15
23
5
2
11
7
22
17
8
6
1
11
10
1
7
35
23
8
22
12
4
2
6
197
255
255
170
16
7
54
28
10
29
26
48
28
92
68
2
38
42
24
22
1
25
29
217
255
255
175
27
255
0
0
255
24
34
20
29
42
15
29
38
11
3
3
6
10
19
2
22
14
3
2
5
4
2
14
3
33
24
6
19
10
3
0
16
217
255
255
162
8
9
38
25
7
9
21
26
45
76
48
19
40
33
13
13
16
14
4
198
255
255
187
24
255
0
0
255
30
33
5
28
33
11
21
10
6
10
26
16
18
19
0
15
5
5
6
2
6
4
10
2
12
9
7
4
2
11
7
17
205
255
255
183
11
7
22
20
19
8
13
7
32
26
18
14
5
8
8
26
15
1
2
203
255
255
173
9
255
0
0
255
28
22
10
23
25
9
18
0
5
5
21
19
5
1
4
2
9
11
2
7
11
0
3
2
6
9
15
26
18
11
15
3
144
255
255
248
57
4
14
9
12
2
5
3
8
30
4
14
33
25
1
4
12
4
60
255
255
255
119
3
255
0
0
255
22
10
10
7
16
9
13
9
13
8
3
9
16
29
8
12
19
10
5
13
11
2
13
13
8
11
15
28
26
2
14
16
58
255
255
255
124
0
3
3
8
16
16
4
35
40
12
30
37
4
20
7
19
5
125
255
255
255
44
1
255
0
0
255
6
5
5
12
7
8
4
16
25
8
18
6
19
37
6
17
12
0
9
11
6
1
12
15
3
9
22
15
14
1
6
21
1
208
255
255
196
3
23
5
6
10
2
3
29
2
33
25
9
48
26
19
32
0
165
255
255
204
15
16
255
0
0
255
12
4
16
19
2
0
2
8
22
1
13
13
2
19
1
9
15
16
8
4
0
1
5
8
2
31
37
7
5
10
1
14
16
135
255
255
255
46
47
4
15
19
24
12
18
39
56
20
24
77
23
53
49
34
212
255
255
144
38
23
255
0
0
255
17
4
15
11
7
8
4
11
1
5
0
11
18
3
1
9
42
28
6
0
1
1
3
6
7
35
40
3
14
15
0
2
4
68
230
255
255
136
34
5
26
33
29
14
23
47
62
18
38
82
26
58
71
126
255
255
255
75
32
8
255
0
0
255
9
5
9
0
4
5
0
27
23
3
4
3
22
10
7
30
53
29
3
1
1
7
10
11
7
22
26
4
10
9
4
11
7
25
122
255
255
234
48
12
14
1
5
22
38
24
48
12
24
67
38
54
128
248
255
255
162
22
12
8
255
0
0
255
7
6
1
8
3
2
6
33
29
11
3
7
12
2
16
39
42
17
1
1
3
20
24
15
6
1
10
5
5
3
10
11
0
9
47
197
255
255
196
91
6
63
26
40
54
2
32
13
10
39
29
95
230
255
255
164
66
7
9
4
255
0
0
255
18
1
23
17
3
5
1
27
22
9
7
15
7
2
20
33
17
3
2
8
0
25
36
15
20
15
7
5
17
5
9
4
14
5
3
96
193
255
255
224
50
89
47
54
69
22
17
25
38
10
48
191
255
255
159
48
7
12
19
14
255
0
0
255
19
9
42
24
19
20
8
17
9
4
9
11
14
1
22
23
0
18
5
9
4
18
34
14
19
21
5
10
18
5
10
6
21
28
16
33
86
198
255
255
116
42
20
80
89
40
11
63
75
82
151
255
255
210
62
11
15
14
16
23
255
0
0
255
15
8
40
25
25
26
8
15
2
19
4
5
21
2
21
15
3
23
14
5
8
4
19
16
6
20
9
3
12
10
23
24
15
49
26
6
29
96
224
255
130
37
55
118
101
49
21
116
131
141
180
238
198
81
6
18
9
19
11
15
255
0
0
255
8
1
21
22
14
17
0
14
8
24
2
13
12
0
11
5
4
23
24
6
18
9
6
19
3
19
25
5
11
18
36
43
4
58
38
8
14
33
95
137
81
78
108
128
86
46
34
136
152
137
106
124
87
19
8
14
1
21
12
4
255
0
0
255
0
7
5
22
7
2
9
11
12
25
2
12
5
8
8
6
14
25
24
16
28
13
9
22
1
23
30
5
17
25
37
41
2
49
39
18
6
12
26
33
23
64
95
90
46
29
36
105
107
73
7
26
35
21
5
19
5
11
15
23
255
0
0
255
8
11
4
24
22
2
8
8
16
26
1
18
8
18
19
12
25
28
11
26
30
7
23
20
13
29
18
2
17
17
29
31
5
29
30
20
2
5
17
3
4
34
39
26
5
5
19
40
32
11
31
2
29
33
6
35
20
1
17
33
255
0
0
255
15
15
3
23
27
4
0
4
19
25
8
31
1
29
31
16
23
22
2
20
17
4
27
5
27
31
3
14
17
0
14
20
5
9
19
16
6
8
29
3
4
11
10
2
25
12
14
6
2
11
25
4
24
27
13
49
32
9
18
37
255
0
0
255
19
16
3
21
27
10
13
4
15
17
21
37
2
34
33
16
13
15
6
10
1
10
15
15
33
24
19
30
29
6
4
1
5
3
15
16
12
22
40
1
24
11
14
17
8
17
25
12
3
8
10
4
4
2
21
39
22
14
8
28
255
0
0
255
15
10
10
17
24
6
21
14
7
4
32
31
3
26
29
5
8
17
5
9
7
10
2
27
27
12
22
41
46
1
21
23
10
8
14
17
20
25
41
1
33
26
13
26
15
9
24
18
8
5
0
2
6
16
23
14
0
14
9
5
255
0
0
255
5
4
11
11
17
2
13
14
4
3
28
19
3
15
23
8
6
17
1
7
9
9
9
24
17
3
16
35
43
5
26
31
12
8
8
12
20
11
28
5
22
23
6
21
20
2
15
15
6
7
2
2
1
12
16
0
9
7
11
8
255
0
0
0
0
0
0
0
0
0
0
0
0
0
0
0
0
0
0
0
0
0
0
0
0
0
0
0
0
0
0
0
0
0
0
0
0
0
0
0
0
0
0
0
0
0
0
0
0
0
0
0
0
0
0
0
0
0
0
0
0
0
0
0
0
0
