P2
64 64
255
0
0
0
0
0
0
0
0
0
0
0
0
0
0
0
0
0
0
0
0
0
0
0
0
0
0
0
0
0
0
0
0
0
0
0
0
0
0
0
0
0
0
0
0
0
0
0
0
0
0
0
0
0
0
0
0
0
0
0
0
0
0
0
0
0
0
0
0
0
0
0
0
0
0
0
0
0
0
0
0
0
0
0
0
0
0
0
0
0
0
0
0
0
0
0
0
0
0
0
0
0
0
0
0
0
0
0
0
0
0
0
0
0
0
0
0
0
0
0
0
0
0
0
0
0
0
0
0
0
0
255
6
180
176
255
189
255
210
147
216
253
200
170
255
22
230
255
218
56
51
161
255
190
23
190
99
255
255
255
63
231
55
209
255
255
142
195
255
106
255
255
255
200
108
154
116
58
11
16
155
15
255
16
120
255
252
221
255
240
255
0
0
0
0
119
255
120
72
193
255
255
211
251
172
50
255
216
238
255
255
255
155
151
107
255
163
104
27
74
129
255
255
225
214
255
137
255
255
255
101
255
255
141
56
255
255
255
61
81
50
5
51
63
130
8
255
255
108
211
175
255
197
192
236
0
0
0
0
92
218
126
88
189
255
160
36
255
255
70
255
219
255
183
211
177
84
255
89
109
134
47
9
22
119
70
230
231
255
255
255
255
236
255
149
196
130
255
145
122
108
68
153
47
38
35
81
79
99
255
255
255
205
93
117
164
255
255
213
0
0
0
0
152
250
255
144
124
15
58
203
245
255
255
22
255
16
8
255
132
87
104
100
97
255
99
76
94
139
175
255
255
255
255
34
49
255
255
226
255
255
90
105
22
77
120
255
128
140
114
255
43
141
132
165
191
128
89
14
173
233
112
237
0
0
0
0
255
204
135
92
9
136
255
255
114
255
255
94
255
255
255
255
255
255
46
255
255
201
75
255
171
195
255
255
36
255
68
255
183
169
255
170
179
255
25
111
71
27
88
173
183
255
145
117
133
185
179
208
249
255
170
111
125
255
255
255
0
0
0
0
108
122
150
122
255
255
255
255
255
255
255
255
255
255
255
255
255
255
255
255
255
255
255
255
255
255
255
255
255
255
151
176
255
57
128
20
94
198
238
255
48
135
68
81
255
242
160
205
149
255
12
74
211
255
237
42
74
115
152
136
0
0
0
0
208
146
219
96
58
255
255
255
255
255
255
255
255
255
255
255
255
255
255
255
255
255
255
255
255
255
255
255
255
255
8
82
110
102
118
255
130
6
255
0
233
158
170
49
215
255
49
122
140
211
215
255
197
192
159
40
49
88
114
138
0
0
0
0
110
126
62
114
255
255
255
254
255
255
255
255
255
179
224
255
255
255
217
255
255
165
255
255
255
255
255
255
255
255
255
126
55
152
182
127
160
145
210
255
147
255
168
119
28
234
171
179
78
206
255
255
156
130
151
255
83
100
255
12
0
0
0
0
109
10
162
115
255
255
255
255
170
255
36
130
13
168
125
183
255
116
145
255
255
166
93
255
243
79
127
255
255
255
255
141
129
85
100
180
255
246
255
255
161
255
86
135
11
234
255
99
233
131
255
121
215
143
255
190
90
61
114
215
0
0
0
0
255
255
218
255
255
255
255
255
34
141
125
108
101
127
235
128
128
138
155
189
255
252
66
159
100
69
13
119
255
255
255
85
255
128
49
104
107
226
220
224
46
255
83
222
255
255
230
130
143
252
255
255
255
234
197
255
98
118
105
109
0
0
0
0
255
234
40
255
200
255
255
255
255
173
144
255
199
227
226
147
38
255
239
143
151
108
96
123
47
29
48
255
255
255
255
131
108
113
116
255
191
255
105
161
198
255
255
195
86
80
149
181
158
255
255
255
85
255
178
14
151
255
90
92
0
0
0
0
44
128
159
255
148
255
255
255
130
118
212
48
7
216
255
158
239
143
131
130
144
240
119
255
146
120
53
255
255
255
255
167
56
224
129
255
255
255
117
192
71
253
255
147
114
149
58
255
163
238
64
255
7
255
124
99
163
114
129
98
0
0
0
0
118
112
255
91
255
255
255
255
255
185
247
43
255
255
242
249
234
181
169
255
228
179
75
172
255
9
114
255
255
255
255
173
105
127
145
240
4
255
253
255
168
255
199
104
35
77
119
255
164
229
151
95
151
217
171
158
207
255
209
77
0
0
0
0
92
42
210
255
255
255
255
58
170
217
255
255
122
202
89
176
255
93
255
233
255
225
152
132
163
255
194
144
255
255
255
123
124
255
182
255
255
255
255
203
247
191
138
120
74
14
75
255
248
247
255
255
255
9
133
101
6
255
8
177
0
0
0
0
190
164
255
153
255
255
255
255
210
82
173
223
192
144
255
120
37
185
189
180
159
63
184
121
60
23
7
255
255
255
168
106
255
62
160
241
82
255
204
244
39
255
176
91
75
78
150
255
206
255
255
255
255
215
108
116
155
255
194
255
0
0
0
0
199
255
252
169
135
255
255
255
60
255
208
99
81
125
182
179
24
255
167
184
24
48
192
156
192
131
255
255
255
255
155
19
96
113
11
78
168
170
100
162
119
73
194
205
255
139
171
255
255
164
255
255
123
239
106
161
200
255
255
255
0
0
0
0
177
255
126
142
255
255
255
131
255
243
52
84
67
255
186
81
255
232
147
255
157
123
255
224
255
184
80
255
255
255
255
27
90
116
230
204
108
102
101
64
41
255
8
255
83
23
132
186
183
255
255
255
255
223
146
255
229
255
35
255
0
0
0
0
162
191
255
126
134
255
255
49
188
159
152
47
90
141
148
133
224
126
55
165
255
245
110
93
200
40
83
202
255
255
255
53
234
216
255
255
130
70
34
222
248
255
158
255
153
142
170
179
0
255
127
37
255
201
189
145
32
217
226
255
0
0
0
0
255
180
198
151
255
255
255
255
104
49
134
166
22
255
91
21
255
87
66
119
16
174
181
255
252
255
155
255
255
255
255
70
114
169
186
233
62
235
193
255
168
185
145
107
109
136
255
145
128
62
194
231
255
191
255
63
212
245
255
255
0
0
0
0
94
123
255
193
255
255
255
255
155
134
137
255
89
180
158
143
131
108
46
246
98
255
63
255
89
233
252
32
255
255
12
186
204
96
37
188
128
7
231
255
147
86
51
40
116
191
255
138
118
19
255
255
255
141
235
206
255
255
68
194
0
0
0
0
255
23
103
255
191
255
255
155
173
69
68
168
255
165
179
255
198
100
43
84
105
76
107
137
222
255
255
14
255
255
255
236
255
40
164
134
167
255
200
108
106
11
55
53
4
190
193
59
126
200
255
186
38
255
246
198
255
178
124
61
0
0
0
0
255
255
255
108
134
255
255
7
83
255
116
115
108
129
136
255
180
255
140
131
176
83
89
164
255
239
160
170
255
255
194
160
184
85
255
223
26
160
174
176
198
58
23
143
104
255
112
231
161
255
86
244
255
224
162
255
174
89
26
33
0
0
0
0
255
195
255
255
103
255
255
255
250
193
88
64
106
255
108
174
52
26
163
106
122
89
5
2
255
148
176
171
255
255
28
134
98
126
92
255
128
22
181
133
110
100
160
179
255
194
196
255
255
255
255
95
49
171
255
225
186
25
50
87
0
0
0
0
195
226
177
80
131
255
255
66
254
255
155
126
62
110
86
133
157
255
255
156
141
110
133
150
255
129
190
255
255
255
255
177
52
56
111
116
106
74
120
255
158
158
255
156
255
216
255
255
255
255
165
255
92
160
69
255
217
152
114
195
0
0
0
0
250
255
30
134
255
255
255
255
255
252
10
255
13
24
84
255
18
200
226
150
255
136
101
91
235
255
219
255
255
255
136
255
110
106
88
213
142
99
23
138
255
235
216
133
107
107
153
169
236
255
115
120
77
71
143
154
23
149
255
188
0
0
0
0
201
204
255
255
255
255
255
72
222
255
173
145
150
46
179
140
43
181
255
148
131
91
81
160
49
255
255
71
255
255
255
86
116
237
87
141
131
29
125
78
126
151
255
120
128
101
255
144
54
84
35
56
72
5
161
170
255
31
19
204
0
0
0
0
168
255
193
71
255
255
255
255
10
128
157
158
238
255
255
255
175
4
18
162
135
114
116
255
243
255
16
255
255
255
190
172
106
174
113
84
150
129
81
25
10
84
121
145
207
34
255
234
123
79
78
77
72
255
255
195
32
211
147
255
0
0
0
0
255
255
255
163
255
255
255
255
255
255
20
255
255
255
219
255
255
255
255
118
255
146
255
255
255
255
100
255
255
255
86
249
237
255
3
31
255
188
160
67
131
180
255
255
255
255
255
255
255
73
255
206
94
140
168
156
175
26
19
11
0
0
0
0
177
1
100
60
3
255
255
255
255
255
255
255
255
255
255
255
255
255
255
255
255
255
255
255
255
255
255
255
255
255
255
28
255
255
177
155
113
135
255
143
255
255
255
255
255
255
255
255
255
255
133
255
92
96
142
163
255
130
174
199
0
0
0
0
174
255
215
255
240
255
255
255
255
255
255
255
255
255
255
255
255
255
255
255
255
255
255
255
255
255
255
255
255
255
125
153
255
221
85
53
180
191
204
255
255
255
255
10
44
255
255
212
255
255
255
255
220
143
255
77
194
157
111
244
0
0
0
0
168
58
255
196
56
120
135
255
255
168
255
255
255
255
60
255
10
255
241
98
127
255
69
255
102
255
255
236
81
28
177
6
255
255
176
128
255
255
255
255
255
255
42
255
49
54
240
255
75
255
255
255
255
255
117
105
132
138
117
57
0
0
0
0
37
72
96
125
160
255
255
255
152
115
91
92
100
84
113
165
195
255
47
185
14
44
137
219
255
138
197
92
157
108
176
124
253
175
255
238
255
255
255
255
95
255
186
70
177
255
255
20
255
255
231
237
255
255
255
136
223
255
199
192
0
0
0
0
197
119
125
189
93
163
133
135
141
48
255
191
255
92
184
139
170
158
226
133
53
101
211
218
102
213
255
3
158
103
206
12
194
255
255
125
255
135
255
220
25
70
255
255
104
201
255
255
158
255
29
255
194
255
255
14
58
255
182
40
0
0
0
0
119
133
85
181
116
116
99
98
255
189
234
255
167
150
255
255
18
255
255
219
159
20
255
180
154
152
200
211
114
178
176
237
75
50
165
255
255
255
255
255
255
255
255
226
255
255
255
16
211
255
255
255
37
84
255
255
203
255
92
135
0
0
0
0
255
137
123
27
91
255
108
131
212
230
255
255
164
85
84
127
164
255
86
255
155
179
207
255
140
211
214
207
255
255
255
223
171
126
255
255
255
255
255
255
255
223
255
75
128
158
255
255
255
255
155
255
255
62
255
255
54
55
113
86
0
0
0
0
227
157
255
172
142
156
255
184
255
255
32
187
54
27
68
80
136
178
35
95
227
152
255
169
216
68
255
252
255
255
255
228
112
168
255
255
255
255
92
255
255
103
144
255
255
255
255
96
255
170
243
27
201
231
255
255
255
18
87
41
0
0
0
0
255
96
215
255
165
134
187
144
191
199
142
3
19
66
34
76
9
255
255
81
204
189
202
255
163
255
221
161
214
255
244
255
206
255
255
255
255
255
211
98
112
41
255
255
255
255
66
11
213
255
255
255
3
27
85
255
255
196
49
50
0
0
0
0
70
142
176
255
235
139
117
175
194
255
76
58
80
48
75
83
91
217
232
234
255
63
255
255
166
183
255
159
206
255
200
190
140
255
255
31
255
108
255
217
10
102
165
255
255
57
73
255
255
192
62
255
255
255
255
255
255
255
50
105
0
0
0
0
157
177
31
36
255
240
255
29
255
129
46
76
49
255
162
69
131
255
211
255
240
161
255
80
133
123
219
172
32
214
150
206
255
55
255
255
255
255
37
255
255
255
255
236
255
166
255
255
255
255
101
255
43
255
92
147
255
255
56
107
0
0
0
0
255
145
127
141
255
184
218
255
129
80
84
127
70
205
192
255
160
255
168
130
120
180
192
238
170
163
232
255
255
12
9
207
80
255
195
214
131
225
255
222
255
79
255
255
255
255
182
255
255
70
255
255
69
255
18
255
255
255
148
53
0
0
0
0
192
255
105
179
71
82
114
255
131
109
210
55
255
147
255
202
159
140
255
110
95
238
42
13
255
255
255
21
103
242
255
255
82
255
255
255
160
255
255
200
255
255
255
255
217
37
186
129
58
91
255
255
255
255
255
158
255
255
255
255
0
0
0
0
255
212
40
136
98
255
93
209
93
136
255
184
226
82
64
255
82
29
102
56
79
147
104
143
41
66
61
59
181
255
196
222
255
255
255
255
255
169
102
198
255
195
10
129
255
255
255
215
255
255
255
255
250
255
191
255
255
255
255
127
0
0
0
0
21
153
128
239
253
255
255
57
99
148
122
102
60
66
214
164
85
82
91
94
104
13
68
94
147
255
255
183
159
48
70
116
255
255
255
255
255
255
14
222
215
255
255
255
106
255
159
226
188
255
255
255
132
255
243
255
255
255
255
160
0
0
0
0
255
138
134
124
158
255
255
50
221
255
140
109
10
180
255
252
135
122
224
176
211
255
113
77
83
139
97
202
145
197
102
145
180
230
255
255
170
210
255
255
255
255
73
255
213
72
255
255
255
255
255
255
255
75
249
255
255
255
255
102
0
0
0
0
185
112
8
166
255
255
147
223
133
255
172
162
101
237
129
103
85
156
170
255
136
146
111
255
126
2
32
176
255
255
23
174
255
255
255
255
41
175
44
255
255
255
255
255
255
126
249
255
113
9
255
5
118
255
255
205
255
255
255
127
0
0
0
0
214
156
86
68
152
255
255
106
176
118
175
255
190
88
72
70
40
255
173
143
151
61
103
111
144
98
62
176
214
10
241
164
151
255
255
255
128
255
142
255
168
21
164
255
255
255
255
165
94
222
255
255
255
255
158
255
255
106
255
15
0
0
0
0
255
47
233
243
244
218
255
175
150
167
145
255
77
128
62
67
131
146
220
110
82
53
88
165
255
255
209
142
255
193
255
255
243
55
255
255
255
255
255
182
255
239
255
255
255
255
254
50
255
149
255
255
255
139
58
255
255
255
161
255
0
0
0
0
255
186
255
255
70
218
255
210
255
171
132
195
255
131
111
186
255
144
103
159
142
93
255
106
51
152
210
255
255
239
255
238
124
255
255
255
255
255
39
255
48
255
186
255
255
255
42
255
133
133
31
10
255
255
255
255
255
252
111
226
0
0
0
0
255
255
255
255
255
191
219
140
205
253
107
200
99
222
42
151
91
15
59
55
45
40
54
49
77
148
255
172
255
184
235
181
113
82
255
255
255
255
57
251
255
255
114
255
255
255
255
255
61
194
89
170
255
255
255
255
255
177
49
255
0
0
0
0
174
150
134
135
118
121
109
115
220
255
82
253
255
255
74
255
177
60
17
81
44
6
66
75
80
89
163
232
199
140
255
157
255
73
245
255
255
255
255
77
233
255
255
255
255
180
255
255
253
255
255
81
255
191
255
255
255
255
255
243
0
0
0
0
102
45
62
75
94
82
128
74
255
205
255
255
119
250
255
17
110
41
17
50
46
58
126
31
15
255
215
255
101
19
238
232
59
255
255
158
255
255
255
255
255
26
236
255
255
255
255
255
27
98
255
255
79
255
255
255
255
254
255
205
0
0
0
0
143
110
34
172
204
255
4
29
249
55
64
255
255
255
83
78
82
96
98
72
255
144
255
255
255
198
58
189
24
242
255
113
255
255
235
255
255
255
158
255
255
255
93
255
255
75
200
255
255
106
255
255
255
255
255
203
255
255
255
22
0
0
0
0
136
127
191
255
255
252
104
255
247
255
84
221
176
255
213
148
68
255
37
91
148
110
232
119
255
255
6
188
89
255
255
255
101
164
28
181
40
255
255
255
255
255
230
20
206
255
255
255
255
255
255
255
255
255
9
119
246
184
176
165
0
0
0
0
162
125
195
17
255
40
154
92
162
169
91
112
167
74
255
127
105
147
61
255
185
120
194
163
255
120
6
184
255
229
158
35
255
181
149
159
255
200
255
255
255
255
125
255
255
58
255
255
255
255
255
255
255
255
105
182
191
255
169
144
0
0
0
0
255
116
100
16
214
146
92
230
114
88
134
122
255
50
176
115
110
144
226
249
255
177
255
236
113
255
159
48
118
164
211
255
232
7
151
108
255
166
231
169
255
255
255
255
255
255
255
255
255
255
255
255
62
146
4
102
209
179
238
13
0
0
0
0
137
48
84
108
255
130
163
191
216
0
79
81
170
150
113
255
168
47
255
255
222
68
61
29
179
198
69
60
56
255
246
140
255
255
88
128
137
103
215
179
255
89
28
255
255
255
255
255
255
44
255
233
255
180
138
255
105
199
146
109
0
0
0
0
218
225
79
146
237
255
172
255
255
222
219
162
64
113
99
91
154
96
14
255
121
79
174
219
255
24
92
79
139
130
224
255
255
164
174
141
138
80
125
166
159
152
199
255
170
255
255
255
156
149
94
255
255
141
73
151
246
219
255
190
0
0
0
0
18
191
134
63
255
255
255
255
255
74
64
39
255
255
159
146
162
92
252
255
171
184
56
255
126
144
124
255
107
231
150
168
217
38
246
255
149
155
38
255
255
238
53
255
251
175
160
138
115
162
97
208
230
80
93
218
255
175
255
255
0
0
0
0
244
255
12
193
255
255
209
222
3
127
143
235
145
225
175
113
255
255
255
255
232
169
119
255
206
59
118
168
255
255
255
211
255
244
138
43
185
255
255
113
255
238
176
241
84
255
255
50
163
255
193
255
255
178
219
255
255
255
42
255
0
0
0
0
255
255
205
206
232
255
60
232
255
172
124
88
255
255
6
126
155
228
216
56
77
49
255
237
132
82
99
196
255
255
255
255
162
228
255
121
127
132
142
255
146
38
142
248
255
255
255
157
116
81
39
145
120
132
255
255
255
27
235
200
0
0
0
0
0
0
0
0
0
0
0
0
0
0
0
0
0
0
0
0
0
0
0
0
0
0
0
0
0
0
0
0
0
0
0
0
0
0
0
0
0
0
0
0
0
0
0
0
0
0
0
0
0
0
0
0
0
0
0
0
0
0
0
0
0
0
0
0
0
0
0
0
0
0
0
0
0
0
0
0
0
0
0
0
0
0
0
0
0
0
0
0
0
0
0
0
0
0
0
0
0
0
0
0
0
0
0
0
0
0
0
0
0
0
0
0
0
0
0
0
0
0
0
0
0
0
0
0
0
0
