P2
64 64
255
0
0
0
0
0
0
0
0
0
0
0
0
0
0
0
0
0
0
0
0
0
0
0
0
0
0
0
0
0
0
0
0
0
0
0
0
0
0
0
0
0
0
0
0
0
0
0
0
0
0
0
0
0
0
0
0
0
0
0
0
0
0
0
0
0
255
255
255
255
255
255
255
255
255
255
255
255
255
255
255
255
255
255
255
255
255
255
255
255
255
255
255
255
255
255
255
255
255
255
255
255
255
255
255
255
255
255
255
255
255
255
255
255
255
255
255
255
255
255
255
255
255
255
255
255
255
255
0
0
5
0
14
32
41
27
3
9
5
5
13
18
23
25
21
13
5
1
7
13
16
8
10
23
19
1
18
29
31
18
5
19
20
14
8
4
27
43
35
10
10
8
3
0
16
30
32
32
36
36
22
5
27
32
21
9
9
13
9
1
5
10
0
0
11
14
9
3
3
4
3
6
1
3
11
14
13
8
2
20
37
35
19
5
3
9
15
19
17
10
1
5
4
3
11
16
17
10
1
3
4
10
12
5
30
46
44
32
24
22
17
7
2
8
17
18
17
20
24
23
15
0
13
11
1
10
0
0
10
13
11
11
7
6
15
12
3
7
14
18
21
17
4
18
37
36
22
10
10
13
7
3
9
5
6
17
18
4
7
2
19
22
15
19
31
29
18
19
36
58
68
58
28
5
22
24
19
11
2
20
34
36
32
29
25
11
7
10
8
20
0
0
15
14
2
1
6
5
26
35
22
3
2
3
11
22
26
18
6
1
4
9
9
3
1
7
14
13
1
13
14
1
11
1
18
22
16
18
29
34
26
9
0
7
21
21
2
25
31
24
19
20
13
5
16
4
16
18
3
8
6
0
4
7
0
0
1
4
7
4
0
20
87
190
255
255
255
255
255
255
255
255
255
255
255
255
255
255
255
255
255
255
255
255
255
190
87
3
25
27
27
23
20
16
6
13
25
22
13
10
17
25
24
11
1
2
10
17
18
21
23
17
1
19
30
31
27
16
0
0
28
34
24
14
6
53
216
255
255
255
255
255
255
255
255
255
255
255
255
255
255
255
255
255
255
255
255
255
255
255
192
25
27
22
16
11
14
19
15
0
17
26
24
14
3
1
2
8
11
6
6
16
14
2
8
3
1
9
19
17
8
5
0
0
21
25
11
3
6
44
206
255
255
255
255
255
255
255
255
255
255
255
255
255
255
255
255
255
255
255
255
255
255
255
196
39
8
6
6
3
2
3
2
4
9
24
21
6
6
6
4
16
23
23
20
11
8
30
34
14
3
1
7
5
7
10
0
0
1
4
0
5
2
12
83
193
255
255
255
255
255
255
255
255
255
255
255
255
255
255
255
255
255
255
255
255
255
190
86
19
2
4
1
2
13
19
12
3
8
22
22
7
0
12
25
26
21
16
12
8
0
10
10
1
8
7
2
2
23
30
0
0
29
36
31
30
25
7
16
27
25
18
13
6
5
14
19
18
10
5
16
15
8
0
7
9
3
1
6
2
14
28
26
12
1
6
4
5
12
13
3
7
9
2
10
18
20
18
13
3
5
1
5
8
14
23
27
17
8
7
1
6
2
7
0
0
6
12
13
17
25
23
13
3
1
1
2
12
22
18
3
5
3
6
13
4
21
43
46
33
17
7
3
1
6
6
0
5
5
2
2
8
15
20
15
2
22
27
8
12
13
4
17
18
20
21
15
0
18
24
12
7
11
3
11
4
27
25
0
0
32
32
21
11
2
14
25
25
16
6
4
16
30
33
24
14
12
17
22
13
13
35
36
20
5
3
1
11
25
33
28
13
1
6
2
6
11
10
4
2
5
3
2
1
13
35
40
21
4
6
15
9
9
18
10
3
1
16
27
13
18
27
0
0
34
37
24
16
12
0
18
24
15
1
13
21
24
18
12
11
20
30
30
24
20
19
17
17
22
28
25
9
16
34
33
15
4
8
2
8
17
20
19
18
17
7
11
23
30
35
28
7
10
11
3
2
0
6
9
5
3
7
15
20
15
5
0
0
5
4
2
3
7
13
7
2
5
2
1
2
1
2
5
15
26
30
19
9
17
32
30
11
3
14
28
27
7
8
5
4
2
9
11
6
5
9
12
10
10
6
7
19
24
20
16
9
8
21
15
2
11
8
4
2
5
14
22
32
37
23
0
0
18
26
22
11
1
6
5
3
6
11
10
3
20
23
16
7
4
13
8
4
3
10
14
0
10
1
16
22
15
13
22
23
10
1
2
7
18
20
13
5
1
1
4
6
6
6
3
1
12
30
31
11
9
15
12
9
2
12
21
23
21
10
0
0
10
22
19
3
8
5
0
7
21
23
7
19
37
34
22
12
10
14
18
17
10
0
9
13
8
1
3
0
10
23
29
22
11
6
4
13
30
40
33
17
4
13
27
30
28
24
21
15
5
0
7
15
8
11
19
10
1
9
7
1
0
0
0
0
2
1
4
4
2
2
3
18
29
22
3
14
19
20
21
18
19
25
25
12
1
2
1
9
13
0
15
20
13
1
7
11
13
8
7
15
0
29
42
30
7
19
38
43
35
23
14
4
11
23
15
5
15
9
3
7
5
7
17
18
14
7
0
0
9
21
21
15
5
4
3
2
3
15
21
15
2
2
0
1
7
19
29
23
9
5
3
5
12
7
6
16
20
17
10
0
8
3
15
29
23
3
9
9
10
15
13
3
0
1
3
11
22
29
22
12
9
3
6
11
3
31
34
12
1
1
0
0
2
11
13
10
6
8
9
5
28
42
32
5
16
21
18
14
4
12
21
19
15
15
10
2
9
6
1
3
4
11
20
20
11
7
8
5
3
6
14
18
3
25
45
45
33
15
1
6
1
8
16
24
23
4
13
13
5
2
3
8
1
8
0
0
4
1
12
21
20
6
8
7
1
6
4
9
21
20
10
1
3
6
7
10
19
25
21
12
9
6
8
34
48
28
8
31
34
29
16
3
9
2
17
24
10
21
48
51
30
7
4
3
6
16
23
23
7
16
22
13
10
16
13
7
22
18
0
0
11
20
23
29
32
20
4
28
45
48
31
12
4
1
4
4
1
3
5
5
1
10
18
20
14
3
31
55
57
31
2
22
29
27
16
2
4
0
3
0
6
15
24
26
12
7
11
1
7
3
8
17
20
11
3
2
9
12
5
30
36
22
0
0
30
37
28
24
33
42
32
5
19
29
18
6
21
20
12
10
11
5
3
6
0
11
22
29
20
6
35
45
31
11
1
4
3
0
2
11
14
9
2
15
20
13
3
14
21
24
14
5
13
31
43
41
25
1
13
9
8
23
41
45
34
17
0
0
11
11
1
14
8
13
26
25
19
12
7
14
25
20
10
13
17
2
20
24
12
2
2
6
1
18
23
3
21
22
5
16
30
37
36
24
14
12
14
16
13
4
7
17
23
18
11
18
35
41
30
14
5
22
18
2
6
14
27
11
13
17
0
0
16
22
22
28
37
34
15
8
19
13
6
18
13
6
1
9
14
8
8
17
18
18
18
14
10
5
13
39
51
37
15
1
9
25
41
39
25
17
18
15
1
13
17
14
5
7
6
9
20
12
9
23
28
28
19
6
3
7
13
24
30
21
0
0
20
22
15
14
28
38
29
9
1
11
23
28
24
15
4
2
4
5
1
4
7
6
4
0
6
12
23
34
37
25
12
16
24
18
2
15
11
2
1
5
1
11
20
14
9
30
29
17
16
31
50
58
50
33
23
20
10
10
25
25
18
8
0
0
7
16
15
3
14
18
6
9
12
4
1
0
6
10
11
14
14
7
2
6
6
8
6
1
6
6
2
9
9
2
3
3
12
16
8
3
3
4
4
6
11
7
1
1
11
18
17
20
31
39
40
43
39
17
2
1
6
1
16
18
8
0
0
0
13
26
28
15
3
3
13
26
37
42
40
30
13
3
17
23
17
4
5
8
11
13
10
2
3
10
11
4
4
1
5
2
3
2
12
15
15
16
9
7
20
27
26
18
10
2
1
10
22
26
18
11
6
8
20
15
2
1
7
8
0
3
0
0
12
18
17
11
2
3
4
0
2
9
6
2
4
1
4
9
13
14
15
18
19
19
9
3
10
10
1
5
4
3
2
6
1
15
26
22
14
15
20
17
3
16
16
27
99
164
194
183
135
73
32
19
15
6
2
0
9
12
7
3
7
12
0
0
15
26
23
4
8
24
113
228
255
255
255
255
255
255
255
255
255
255
255
255
255
255
255
255
255
255
255
255
255
219
118
36
6
17
14
5
3
0
16
41
82
138
194
241
255
255
255
255
255
255
226
157
76
9
18
15
2
2
6
12
7
5
0
0
11
17
12
10
28
25
197
255
255
255
255
255
255
255
255
255
255
255
255
255
255
255
255
255
255
255
255
255
255
255
229
65
1
5
7
20
22
15
10
76
187
255
255
255
255
255
255
255
255
255
255
255
197
74
6
10
10
15
22
21
11
0
0
0
3
4
4
15
34
5
164
255
255
255
255
255
255
255
255
255
255
255
255
255
255
255
255
255
255
255
255
255
255
255
236
63
10
18
12
3
1
17
82
196
255
255
255
255
255
223
212
231
255
255
255
255
255
197
96
23
13
22
18
10
6
4
0
0
11
8
2
8
1
13
87
191
255
255
255
255
255
255
255
255
255
255
255
255
255
255
255
255
255
255
255
255
255
215
108
13
31
42
46
40
39
85
192
255
255
255
211
145
87
47
42
65
109
161
203
246
255
255
207
92
18
11
24
23
12
1
0
0
11
2
16
31
34
32
30
24
18
14
9
2
4
3
5
12
14
13
8
2
17
24
15
4
1
4
13
20
12
1
5
0
9
20
30
47
106
220
255
255
211
74
5
6
23
31
19
13
13
5
14
80
196
255
255
210
106
54
43
31
12
2
0
0
12
8
8
27
40
47
49
39
23
9
9
27
34
26
13
8
8
7
7
6
2
11
12
13
20
22
15
3
5
8
10
0
22
41
40
15
141
255
255
209
88
20
8
26
42
21
22
35
14
3
4
24
97
209
255
255
158
62
21
9
4
11
0
0
4
5
4
9
19
22
16
7
3
14
26
27
15
2
8
11
10
5
11
29
33
21
7
2
9
13
12
2
16
34
36
8
35
66
54
38
177
243
177
66
18
32
45
35
17
3
19
21
16
14
12
0
31
100
192
235
181
70
7
27
27
20
0
0
3
1
14
22
18
14
15
16
17
18
12
5
20
22
21
24
22
8
11
23
22
13
7
7
13
18
12
2
1
10
24
19
3
24
3
101
187
169
72
10
26
52
47
24
4
3
7
0
17
34
30
7
16
45
104
164
157
75
12
40
30
15
0
0
10
10
4
18
22
20
14
6
1
0
8
25
32
22
14
19
23
19
18
18
8
4
7
3
3
13
19
9
8
15
5
7
6
1
25
83
102
60
8
3
23
14
12
27
25
9
1
17
39
47
33
11
13
36
74
124
129
74
1
21
1
12
0
0
11
14
8
2
10
20
26
23
13
2
19
29
20
0
13
12
5
2
12
17
6
12
19
13
0
11
12
11
15
23
27
20
8
25
89
132
113
67
44
33
5
55
73
45
0
28
29
13
3
3
7
9
12
18
36
78
112
101
50
8
5
10
0
0
5
7
12
16
8
14
34
33
12
13
23
14
1
10
15
18
15
1
17
22
14
3
2
2
5
17
21
13
2
0
5
6
4
49
120
144
98
39
27
34
7
29
36
6
35
54
49
44
56
65
42
5
38
41
27
16
84
120
93
35
6
4
0
0
6
2
4
13
12
5
30
38
22
1
5
8
21
22
22
24
20
7
8
17
20
16
8
1
4
2
5
15
26
26
16
8
12
52
118
145
103
25
23
25
15
5
5
18
34
43
41
35
29
23
8
22
49
58
49
3
70
112
96
46
12
4
0
0
10
16
12
1
1
7
15
12
2
10
1
20
33
29
24
25
21
10
1
13
25
30
26
16
1
15
22
18
12
8
7
13
18
27
51
68
50
2
44
39
3
29
36
27
25
22
2
24
46
52
31
2
21
11
13
10
23
49
49
31
22
19
0
0
28
30
19
10
5
1
11
19
22
15
1
10
12
7
2
1
8
17
22
24
21
17
18
23
17
5
22
15
5
15
14
12
15
16
9
9
23
38
37
15
14
38
41
20
3
21
43
71
91
81
35
24
56
45
13
3
4
15
18
15
19
18
0
0
26
25
13
4
3
12
20
18
6
7
9
3
17
18
11
7
8
9
6
0
9
13
4
15
27
23
13
12
22
30
34
36
30
9
13
11
6
12
9
14
20
10
9
14
2
28
42
38
24
2
20
34
22
5
17
3
21
29
18
1
9
6
0
0
2
6
14
10
5
12
21
19
2
21
15
11
34
32
19
10
4
0
5
12
17
12
2
4
9
19
30
28
13
0
1
8
6
3
3
9
16
10
3
12
25
21
3
7
4
17
4
28
51
48
19
15
49
72
64
34
6
0
10
19
26
23
0
0
20
26
23
11
2
5
9
7
8
22
20
10
0
4
9
16
13
1
11
16
12
4
2
10
14
2
27
31
10
12
17
9
1
19
55
69
43
9
1
8
16
13
2
3
19
12
38
86
88
51
4
24
24
13
5
22
57
70
50
15
9
17
0
0
11
12
2
12
13
3
3
4
6
9
1
19
31
19
9
26
20
5
3
0
9
15
14
5
8
10
1
7
2
18
29
29
15
40
114
125
62
15
48
46
35
14
10
33
45
22
24
46
30
1
7
11
40
54
44
6
85
122
87
15
21
15
0
0
12
22
30
28
11
4
7
1
3
17
20
3
19
20
1
16
12
3
2
7
11
11
10
7
1
8
15
19
12
6
12
22
18
32
102
116
64
8
38
25
13
2
12
18
18
15
24
44
52
43
10
22
25
15
17
1
59
107
88
20
23
21
0
0
10
28
41
33
16
3
4
2
2
3
12
14
6
5
15
24
27
16
2
11
9
2
1
4
11
11
7
30
31
12
5
6
1
13
66
123
126
70
25
35
51
40
18
8
29
27
8
47
55
31
8
26
3
26
36
55
89
104
76
29
2
10
0
0
6
2
4
2
1
2
12
20
14
2
5
7
13
0
25
41
37
13
12
18
12
6
5
9
16
18
9
5
11
3
8
11
6
0
35
118
169
137
64
35
42
31
3
26
40
40
23
2
12
2
25
33
19
3
44
106
129
87
18
18
17
7
0
0
28
39
40
37
27
21
24
26
15
11
27
22
13
18
35
41
27
6
8
12
12
13
13
11
8
3
3
10
17
22
25
26
18
0
20
110
194
183
94
20
1
2
5
15
22
15
1
10
16
18
14
14
26
21
52
150
166
87
5
32
12
4
0
0
22
37
45
43
36
28
19
10
1
11
25
34
31
22
16
9
6
17
15
9
5
3
5
18
27
27
14
6
20
18
5
6
15
21
9
52
146
197
158
52
28
34
9
57
66
50
26
0
14
4
21
24
20
68
174
236
181
68
8
14
2
4
0
0
1
11
20
13
2
5
10
14
17
17
17
17
11
0
12
22
25
12
9
19
17
15
22
36
45
36
15
2
5
7
21
28
25
12
1
29
113
226
255
168
21
44
17
28
32
14
4
20
21
4
41
75
129
224
255
255
152
46
11
23
24
8
0
0
10
10
15
37
57
53
35
19
5
8
17
23
29
31
28
26
21
3
21
32
28
20
15
18
21
16
7
5
15
25
25
19
14
6
11
39
100
207
255
255
164
52
7
9
12
1
16
35
37
22
18
110
229
255
255
219
114
45
26
29
20
3
0
0
10
13
15
20
26
21
8
0
5
15
32
41
33
20
13
14
11
2
6
13
19
22
16
4
2
3
7
1
6
10
9
2
6
9
4
18
39
102
202
255
255
255
204
128
72
37
16
11
45
105
174
255
255
255
186
72
21
9
8
4
1
2
0
0
7
7
6
14
21
21
20
18
15
18
27
28
15
5
4
1
5
7
7
14
21
18
6
11
18
8
2
5
19
28
30
19
4
25
23
6
10
31
90
210
255
255
255
255
252
237
237
243
255
255
255
255
255
194
71
0
12
1
11
15
21
24
0
0
9
6
7
25
40
32
13
2
6
2
0
2
3
8
20
15
1
8
9
12
14
6
5
14
17
15
15
23
33
33
24
14
5
4
8
4
6
14
33
105
233
255
255
255
255
255
255
255
255
255
255
255
160
51
1
4
2
1
3
4
10
21
0
0
9
4
3
9
10
3
20
29
31
28
25
22
20
13
0
10
10
2
13
12
0
12
15
7
2
1
9
10
5
1
5
3
7
16
9
3
2
8
18
36
81
133
172
215
255
255
255
255
255
255
197
117
46
5
5
15
11
1
11
17
9
0
0
0
3
12
15
16
18
22
24
18
12
8
6
7
14
24
24
13
8
13
16
7
4
4
3
15
18
7
3
4
18
19
7
7
15
19
9
8
16
16
11
13
19
22
12
31
94
151
187
185
136
64
7
13
8
1
5
6
7
28
43
47
43
31
0
0
17
29
29
23
19
19
16
8
2
1
1
6
19
29
25
13
10
7
4
14
10
9
26
29
15
3
9
3
22
33
28
10
8
15
5
9
16
16
20
33
39
28
7
2
8
21
20
6
4
8
9
13
20
14
3
17
25
30
35
38
37
28
0
0
7
9
12
11
7
5
2
9
24
25
13
1
7
6
8
13
14
7
1
0
2
9
14
5
13
21
14
3
10
27
38
32
13
1
3
5
2
4
0
12
13
0
21
30
21
2
11
9
2
5
12
26
34
20
8
27
17
8
18
6
14
21
0
0
3
15
16
16
23
28
24
17
20
21
12
2
3
7
0
7
1
10
7
3
3
1
2
6
17
15
4
0
1
12
25
21
1
18
20
16
13
16
25
33
33
29
32
39
40
27
9
2
4
0
1
0
0
2
2
1
14
36
48
43
23
5
0
0
255
255
255
255
255
255
255
255
255
255
255
255
255
255
255
255
255
255
255
255
255
255
255
255
255
255
255
255
255
255
255
255
255
255
255
255
255
255
255
255
255
255
255
255
255
255
255
255
255
255
255
255
255
255
255
255
255
255
255
255
255
255
0
0
0
0
0
0
0
0
0
0
0
0
0
0
0
0
0
0
0
0
0
0
0
0
0
0
0
0
0
0
0
0
0
0
0
0
0
0
0
0
0
0
0
0
0
0
0
0
0
0
0
0
0
0
0
0
0
0
0
0
0
0
0
0
0
