P2
64 64
255
0
0
0
0
0
0
0
0
0
0
0
0
0
0
0
0
0
0
0
0
0
0
0
0
0
0
0
0
0
0
0
0
0
0
0
0
0
0
0
0
0
0
0
0
0
0
0
0
0
0
0
0
0
0
0
0
0
0
0
0
0
0
0
0
0
55
9
26
31
28
15
1
30
5
17
2
43
43
24
38
54
26
30
93
9
25
28
91
32
76
1
15
33
6
16
103
101
63
90
3
9
40
23
12
93
15
16
5
30
25
21
3
53
79
5
10
10
15
7
56
28
31
8
33
23
6
5
0
0
1
40
74
36
61
38
8
48
34
23
57
45
32
36
91
28
36
60
117
18
4
56
2
64
2
2
61
68
23
34
34
74
18
116
40
70
12
30
62
56
36
15
30
33
93
39
3
29
41
2
30
40
39
1
48
1
37
18
25
6
91
41
0
0
39
33
51
62
36
63
55
53
14
36
31
30
46
44
92
2
14
20
77
1
31
28
60
32
17
1
85
65
68
12
2
63
64
120
24
77
33
13
52
35
25
56
74
67
106
44
0
5
6
5
68
76
53
37
84
13
25
7
34
1
70
53
0
0
16
15
19
54
15
88
79
68
38
38
17
1
38
19
16
51
17
5
4
20
10
29
30
29
4
0
69
92
73
20
42
43
10
79
20
0
20
24
18
48
74
29
48
1
48
40
0
35
3
35
75
38
29
27
83
8
37
22
26
21
4
45
0
0
22
53
2
56
22
59
13
46
22
57
12
15
15
1
48
6
22
40
34
10
38
67
16
67
15
10
23
86
32
21
80
3
66
0
25
66
26
42
31
45
56
0
7
55
7
20
0
35
6
55
26
4
4
13
24
29
6
81
54
50
25
1
0
0
15
91
16
45
26
10
42
4
67
56
12
9
34
41
25
52
12
64
30
33
54
14
32
47
26
20
16
14
2
44
60
59
65
21
11
34
6
70
9
39
25
37
1
43
21
33
32
17
3
9
8
11
16
45
3
94
24
91
19
29
10
40
0
0
13
78
47
32
65
2
172
255
51
41
2
62
79
7
26
59
33
48
7
66
46
57
22
9
13
10
25
10
18
216
188
28
47
3
17
24
18
17
49
30
36
79
18
34
26
34
54
29
10
43
22
3
32
28
6
94
48
24
11
2
23
13
0
0
6
22
31
13
42
4
255
255
16
25
8
78
76
35
14
15
48
20
25
34
3
68
4
35
8
0
52
0
52
255
255
7
46
6
9
30
11
24
77
37
50
27
12
6
1
34
23
42
7
39
3
48
16
67
3
0
24
38
48
10
13
1
0
0
25
7
23
9
14
16
255
255
29
8
8
7
23
2
63
9
71
28
2
26
20
71
8
67
16
32
15
0
6
255
255
20
53
13
24
3
3
15
7
14
26
14
44
58
17
55
4
43
12
55
24
27
31
100
35
57
35
57
63
20
19
7
0
0
80
18
36
10
5
60
255
255
78
47
10
67
6
13
88
14
43
1
48
55
106
37
58
29
13
64
37
30
88
255
255
5
35
0
10
6
59
44
62
22
64
3
64
69
54
92
13
54
5
33
6
7
33
78
41
55
70
55
26
13
110
74
0
0
60
7
37
30
2
109
255
255
73
28
18
1
21
12
61
21
4
24
40
5
87
0
78
3
2
32
19
60
86
255
255
23
21
24
44
43
58
18
21
11
1
38
6
74
27
106
60
84
4
31
35
16
9
34
36
28
35
28
0
29
114
87
0
0
36
40
42
58
24
94
255
255
28
3
34
76
23
34
50
42
24
53
6
51
10
17
30
16
11
35
11
30
68
255
255
1
20
4
25
56
58
35
13
37
24
37
84
37
52
60
59
20
5
20
81
8
7
2
74
28
0
45
0
84
38
60
0
0
42
40
3
47
36
47
255
255
26
0
16
72
12
51
48
21
64
63
8
35
50
10
3
32
30
62
33
8
80
255
255
34
80
17
6
30
97
12
70
37
23
4
46
33
57
15
31
94
10
79
75
57
4
25
61
55
4
94
22
88
0
50
0
0
4
30
44
46
12
41
255
255
48
16
31
48
5
48
10
5
11
83
46
34
9
9
34
8
46
1
52
26
40
255
255
59
36
8
3
48
112
47
71
35
17
8
29
58
6
8
19
104
5
77
61
33
46
7
71
67
19
83
40
35
22
12
0
0
0
36
59
40
56
34
255
255
15
17
71
25
31
21
19
0
31
88
97
79
80
40
100
32
34
57
26
41
11
255
255
68
19
32
29
41
114
44
44
6
34
27
36
48
6
17
6
70
27
24
42
83
54
42
105
52
48
74
10
18
35
54
0
0
0
43
70
31
57
18
255
255
42
54
25
28
22
4
70
11
5
94
94
119
100
72
100
37
18
45
29
56
19
255
255
28
32
26
50
15
68
39
22
61
3
60
25
71
7
10
33
107
54
9
19
116
44
35
117
33
58
117
9
97
42
22
0
0
0
13
54
106
28
64
255
255
9
74
56
74
14
20
39
8
51
75
90
82
76
30
37
18
2
15
27
50
8
255
255
4
7
1
12
23
22
14
15
7
39
59
3
105
7
6
62
96
12
45
81
19
31
5
77
8
28
116
10
152
91
0
0
0
36
53
63
93
22
47
255
255
16
29
57
37
35
41
0
11
83
15
83
10
94
18
10
5
26
10
27
16
3
255
255
13
11
2
79
53
94
50
22
32
25
101
38
105
28
17
29
38
22
10
103
54
57
51
54
25
8
39
16
81
86
28
0
0
47
21
44
28
13
29
255
255
10
75
13
6
42
41
7
22
51
69
67
25
96
17
22
28
18
3
53
26
3
255
255
30
32
0
92
80
118
52
8
20
3
70
55
56
54
55
29
31
27
40
39
3
7
24
31
11
21
5
30
55
4
90
0
0
17
4
3
3
35
37
255
255
46
27
41
38
17
12
8
21
40
71
72
19
56
6
4
32
1
0
61
26
25
255
255
48
11
16
84
24
91
17
2
59
8
77
25
1
25
17
87
2
79
46
32
47
31
39
9
46
23
19
33
66
68
96
0
0
31
23
42
18
82
22
255
255
68
31
5
62
37
45
41
68
23
93
38
38
18
12
20
28
2
53
4
62
50
255
255
74
13
26
41
31
74
55
4
55
0
128
0
18
8
22
82
42
90
28
56
0
44
64
69
85
71
53
42
26
52
34
0
0
34
2
35
56
17
90
255
255
2
56
58
19
66
35
78
127
2
100
0
5
16
7
10
14
35
6
65
90
9
255
255
63
36
11
25
21
89
36
8
4
3
68
11
15
19
42
13
61
13
42
30
47
27
13
80
76
102
4
86
30
5
0
0
0
74
22
43
19
58
30
255
255
20
19
59
84
30
28
36
80
4
46
3
36
27
26
24
8
68
88
45
32
80
255
255
41
15
8
69
12
86
6
32
21
22
16
6
4
36
77
26
83
50
68
2
50
55
79
2
11
1
50
34
0
14
0
0
0
55
22
33
38
45
51
255
255
65
11
20
67
2
56
2
19
8
34
28
56
4
2
9
3
46
90
15
1
84
255
255
53
56
7
56
43
52
38
40
10
35
22
46
0
48
46
56
7
79
5
30
76
67
110
38
65
51
65
19
19
43
19
0
0
15
54
8
44
22
31
255
255
52
41
19
55
1
6
3
18
1
42
60
60
10
22
28
14
32
84
2
57
64
255
255
28
29
36
0
43
0
37
6
38
5
22
40
22
24
3
49
77
63
60
58
62
9
82
10
80
7
80
23
38
47
38
0
0
27
68
11
48
0
25
255
255
22
75
38
50
8
39
0
16
5
17
49
26
6
11
45
5
25
119
24
113
17
255
255
19
26
70
14
17
47
32
27
18
32
22
13
44
39
0
34
43
17
3
38
11
8
22
6
33
60
32
1
11
7
19
0
0
52
91
69
56
10
35
255
255
7
47
26
51
15
18
19
5
19
46
60
11
64
11
6
25
14
108
20
116
17
255
255
9
14
32
21
17
68
13
43
8
2
22
53
2
80
4
69
14
37
18
32
20
4
51
35
51
37
16
5
9
26
25
0
0
107
86
80
61
27
5
255
255
3
10
10
29
18
65
5
2
17
35
40
2
60
2
10
32
7
48
31
98
13
255
255
62
29
31
21
34
80
10
79
4
8
0
38
40
40
8
53
32
18
12
35
4
8
65
70
81
2
20
17
41
26
61
0
0
76
48
32
35
33
7
255
255
37
24
39
23
59
2
69
3
60
37
26
10
27
49
37
1
19
47
64
79
70
255
255
67
28
81
27
75
88
0
74
6
31
13
1
139
135
26
101
37
187
104
15
8
30
5
35
37
62
27
61
42
21
38
0
0
12
38
5
8
5
50
255
255
56
58
22
68
127
43
110
0
57
88
24
18
74
98
74
28
38
68
40
68
100
255
255
5
33
56
53
93
63
30
12
4
32
145
68
184
215
97
111
79
255
203
32
162
197
16
13
4
92
14
112
59
3
1
0
0
14
54
9
10
34
82
236
254
56
67
2
90
105
2
78
0
54
39
7
48
60
67
41
76
22
31
28
40
100
255
255
58
69
30
69
36
45
19
27
126
255
255
136
32
18
142
30
68
28
57
53
255
255
129
22
4
21
5
81
74
14
5
0
0
2
31
10
37
54
39
4
11
64
29
2
81
35
13
6
18
24
8
23
32
49
11
22
21
8
6
71
13
76
17
76
59
116
43
76
32
29
28
131
255
255
255
62
171
70
151
37
4
21
44
9
255
255
255
146
37
13
28
21
13
28
22
0
0
17
8
6
32
58
8
56
6
34
39
24
41
1
0
16
37
18
17
37
25
28
1
31
22
42
12
69
10
6
42
9
78
131
13
72
80
20
152
255
255
55
46
20
138
36
142
68
31
60
36
3
211
137
255
255
207
7
73
11
76
19
49
0
0
23
42
41
24
40
8
56
20
27
41
21
16
2
27
9
51
27
17
33
68
38
38
45
12
15
6
3
39
49
59
19
64
84
47
75
73
155
255
255
139
126
14
46
63
4
60
40
98
25
17
9
142
29
2
255
255
106
50
4
81
7
6
0
0
51
67
71
39
15
18
15
3
54
20
2
85
27
89
42
63
39
15
69
44
96
12
65
9
49
10
19
35
30
56
16
41
20
12
48
12
255
255
97
95
44
2
17
20
52
44
134
136
117
79
17
28
18
32
119
255
255
19
42
35
44
2
0
0
67
52
58
34
25
8
27
30
32
21
7
64
66
97
50
31
36
32
87
15
77
73
44
61
68
9
34
33
79
16
55
4
40
35
7
175
255
255
159
32
121
2
20
24
58
20
51
86
92
33
46
84
55
37
18
255
255
120
52
35
47
30
0
0
21
12
15
35
50
10
54
40
31
66
37
28
45
38
13
0
8
88
82
22
42
66
22
67
70
13
68
79
37
79
48
24
38
56
19
255
255
92
149
51
136
46
93
44
66
23
46
35
19
9
37
31
85
48
18
209
255
255
17
40
4
19
0
0
17
19
38
76
25
47
35
59
39
56
64
50
4
2
12
8
2
101
64
67
18
19
27
75
35
17
74
73
36
68
18
0
18
68
38
255
255
76
35
74
7
14
148
10
98
73
11
6
44
39
22
58
105
42
16
72
255
255
4
15
46
36
0
0
4
32
45
70
3
8
53
78
7
30
38
43
5
36
8
35
13
59
23
12
45
1
49
45
27
68
80
10
67
37
35
22
27
6
155
255
255
29
58
21
87
60
63
4
142
19
68
0
9
76
37
63
100
141
34
94
255
255
159
2
51
65
0
0
23
34
27
11
25
55
85
68
66
9
33
23
7
54
16
8
8
31
0
1
38
19
16
13
54
72
66
38
13
6
1
19
26
55
255
255
177
52
54
40
92
92
24
99
152
44
57
29
26
53
123
162
69
164
14
76
199
255
255
3
4
38
0
0
16
49
41
40
77
79
53
44
108
44
7
9
24
19
25
53
31
2
25
40
25
4
40
26
6
69
54
32
1
0
9
18
1
12
255
255
58
38
15
18
13
94
102
141
185
84
69
12
31
40
143
123
32
138
3
27
74
255
255
35
16
18
0
0
22
64
46
64
68
105
37
49
115
56
72
39
8
13
9
45
71
39
50
32
50
57
26
9
49
31
36
25
44
0
7
5
4
2
255
255
12
88
12
55
132
84
109
86
135
3
133
99
28
18
12
25
27
121
3
120
44
255
255
59
34
21
0
0
9
20
64
33
20
110
38
90
78
41
77
51
36
3
8
15
49
53
36
10
36
59
13
47
35
48
42
15
70
11
21
12
8
12
255
255
69
57
61
27
114
54
97
42
119
8
195
112
65
27
39
138
6
4
26
144
21
255
255
35
42
33
0
0
18
24
92
2
21
60
28
61
59
3
29
17
18
17
33
16
44
34
42
20
22
53
20
51
7
67
65
35
72
0
22
12
0
71
255
255
112
27
77
39
93
5
114
72
105
109
164
24
38
92
41
10
2
75
8
23
33
255
255
6
30
74
0
0
32
25
82
1
63
13
22
9
72
63
18
106
12
29
57
17
70
16
51
6
11
28
40
11
0
9
38
4
6
6
7
42
33
104
255
255
54
51
17
56
107
22
34
89
9
81
80
69
23
39
39
125
24
40
22
115
7
255
255
17
20
80
0
0
26
60
11
7
57
30
2
6
42
85
38
80
5
0
30
13
31
31
16
6
13
26
33
67
0
77
11
6
53
70
36
88
46
40
255
255
155
28
17
57
9
21
89
25
75
73
44
28
62
34
74
55
101
31
93
79
161
255
255
42
0
26
0
0
44
95
58
22
21
36
23
42
40
34
20
43
16
91
16
18
8
78
9
54
9
24
26
63
21
33
17
9
58
47
10
34
20
18
164
255
255
54
24
70
53
48
30
88
41
120
112
25
105
5
60
52
116
35
112
56
255
255
59
1
36
17
0
0
14
37
27
2
48
18
86
21
63
2
40
92
58
110
43
0
15
39
4
26
8
13
1
13
24
35
51
32
61
56
50
44
95
36
66
255
255
14
3
37
25
30
87
41
101
38
8
30
124
30
97
86
95
83
69
112
255
255
33
56
14
1
0
0
48
38
48
15
13
53
65
0
40
24
77
13
85
37
39
22
21
18
50
22
9
26
28
0
15
24
13
100
43
118
39
28
63
12
13
255
255
169
30
99
41
157
29
23
175
123
70
5
119
75
123
42
126
132
103
33
255
255
21
32
79
5
0
0
104
29
52
29
13
46
8
12
35
76
31
76
92
0
29
73
14
65
56
11
13
19
14
0
18
1
43
91
23
92
10
17
23
12
5
113
255
255
46
125
100
193
25
46
156
52
2
107
136
154
115
17
14
140
30
239
255
235
67
9
53
30
0
0
73
2
34
27
13
5
4
19
8
105
16
77
92
2
11
62
80
88
15
7
0
12
0
13
11
23
15
27
15
52
19
23
30
44
34
38
255
255
253
145
68
168
77
59
143
51
32
59
106
137
91
24
4
168
137
255
255
28
55
18
17
60
0
0
0
11
11
9
7
35
7
12
53
86
41
4
42
43
46
4
107
56
0
6
19
8
7
63
4
6
10
3
8
50
49
3
5
68
32
21
106
255
255
4
109
63
191
80
169
8
69
78
45
12
3
113
34
255
255
255
133
2
28
0
21
7
0
0
36
47
14
21
19
7
15
16
12
46
9
3
28
48
58
44
67
22
5
23
31
18
14
108
12
74
7
25
5
16
72
27
11
26
91
69
10
155
255
255
255
64
235
99
194
131
84
36
47
95
24
118
99
255
255
133
108
0
61
18
48
84
0
0
19
61
11
84
77
62
90
59
15
3
42
54
42
32
52
68
48
77
16
25
1
40
7
87
32
83
17
27
26
18
43
41
1
9
93
4
33
6
137
255
255
104
239
71
142
101
20
27
14
92
12
92
255
255
156
31
84
26
56
17
29
99
0
0
8
25
15
78
69
62
107
68
11
36
0
48
25
53
28
52
56
39
7
24
14
34
1
37
16
11
19
51
49
5
34
33
55
4
93
69
83
1
24
213
255
255
163
114
196
27
69
72
131
255
11
255
255
85
7
47
41
37
33
48
59
34
0
0
16
2
42
31
49
25
70
53
30
30
29
20
79
10
46
16
14
26
25
51
21
42
5
11
29
68
31
91
27
16
31
87
85
16
88
95
83
0
46
93
126
74
23
255
255
17
54
97
255
255
21
164
130
19
31
27
50
32
24
18
7
8
0
0
23
23
42
14
62
19
58
30
45
32
27
4
28
14
50
63
10
33
81
36
43
64
8
6
11
35
51
47
6
44
15
39
66
26
79
113
36
0
4
75
40
53
74
142
87
31
10
25
171
165
27
17
86
38
105
71
48
71
5
4
53
4
0
0
45
37
48
29
68
45
22
14
55
57
53
14
11
6
59
2
0
26
65
7
35
63
12
41
49
6
67
18
20
2
42
24
5
46
63
55
22
39
3
19
7
8
56
41
72
30
20
2
0
21
43
5
66
64
109
28
46
0
34
4
76
32
0
0
39
18
30
24
95
6
24
7
32
23
77
20
79
32
93
61
14
86
22
9
2
77
23
86
6
51
44
12
66
44
5
44
23
4
64
41
7
64
40
1
52
26
19
94
55
50
1
8
32
7
25
0
40
59
65
34
94
59
33
9
41
88
0
0
40
42
21
78
106
28
75
15
39
18
63
30
96
3
69
27
17
86
70
19
7
54
54
43
54
64
7
14
115
14
56
14
49
9
31
54
77
17
84
33
25
79
42
84
7
54
10
10
64
54
8
24
50
39
29
53
69
46
29
2
27
76
0
0
39
75
25
97
51
106
62
58
52
48
30
54
72
53
36
2
47
68
10
19
16
1
27
8
50
36
10
9
72
93
10
93
3
0
13
50
94
25
45
86
2
103
23
20
61
41
15
57
41
30
21
15
24
3
42
31
40
0
41
31
30
24
0
0
44
35
19
35
21
95
16
58
20
37
7
72
52
53
25
16
116
65
86
60
25
39
4
11
16
36
15
10
13
91
58
101
41
8
49
60
27
68
5
77
34
73
39
11
32
27
49
42
23
2
26
32
24
17
53
37
22
42
12
72
23
3
0
0
0
0
0
0
0
0
0
0
0
0
0
0
0
0
0
0
0
0
0
0
0
0
0
0
0
0
0
0
0
0
0
0
0
0
0
0
0
0
0
0
0
0
0
0
0
0
0
0
0
0
0
0
0
0
0
0
0
0
0
0
0
0
0
