P2
64 64
255
0
0
0
0
0
0
0
0
0
0
0
0
0
0
0
0
0
0
0
0
0
0
0
0
0
0
0
0
0
0
0
0
0
0
0
0
0
0
0
0
0
0
0
0
0
0
0
0
0
0
0
0
0
0
0
0
0
0
0
0
0
0
0
0
0
53
93
62
37
10
57
74
132
75
133
85
53
74
20
54
104
107
116
47
23
17
0
69
101
37
15
4
30
37
36
53
25
8
28
54
79
23
39
0
73
37
46
79
54
28
50
145
42
62
80
24
76
6
97
54
31
49
4
17
37
64
60
0
0
65
60
13
28
46
113
60
95
19
9
42
48
68
16
48
41
70
31
43
19
27
76
148
74
5
51
29
48
82
78
15
57
3
42
72
137
0
53
79
5
47
57
54
30
23
25
39
5
14
10
32
13
87
5
23
77
73
84
128
65
89
84
0
0
30
35
86
26
0
36
97
113
73
74
45
1
134
38
69
130
103
110
46
29
39
120
67
0
5
17
35
82
88
36
57
64
14
76
34
100
31
43
106
61
9
79
65
52
12
11
0
0
5
6
14
28
103
36
20
52
51
82
58
34
47
56
0
0
25
20
62
32
0
56
123
7
17
68
68
15
67
69
114
73
27
46
20
70
20
30
29
0
2
8
12
41
66
64
143
106
88
86
72
138
45
54
39
96
42
3
30
9
47
0
0
0
35
3
32
114
106
109
59
48
33
47
77
115
65
141
0
0
0
43
53
100
49
50
32
31
58
62
74
79
15
117
33
9
88
29
10
38
0
29
107
45
0
31
32
44
86
56
115
119
16
17
126
97
44
141
92
20
9
0
3
36
116
29
38
35
134
23
21
32
22
38
23
17
12
46
44
17
56
66
0
0
60
82
45
32
8
10
18
19
7
28
86
58
44
54
12
12
68
0
22
54
51
9
9
55
45
106
11
52
56
49
113
17
40
39
65
100
33
70
136
8
33
13
0
11
43
70
152
41
41
24
40
51
75
80
84
55
8
37
123
91
132
16
0
0
92
5
47
35
27
67
25
255
255
237
177
191
255
229
244
255
85
231
255
220
141
255
255
255
255
255
255
139
255
255
61
43
54
80
5
35
2
1
52
81
96
9
21
14
7
114
100
28
69
50
99
1
39
57
70
53
7
5
37
11
48
33
0
0
88
71
58
70
35
70
255
255
255
249
188
255
142
197
251
255
99
255
255
186
242
231
255
255
255
255
255
91
255
255
255
63
20
35
16
35
73
29
3
134
15
45
48
47
6
80
110
9
28
14
57
42
81
58
38
27
20
3
11
18
21
35
0
0
0
41
7
18
19
14
255
255
72
18
44
9
31
46
7
120
68
24
1
4
33
80
103
24
40
21
0
36
0
255
196
74
14
0
30
48
36
33
36
40
71
28
107
54
18
33
74
37
33
4
63
86
80
30
0
62
105
27
26
83
8
40
0
0
90
65
26
21
23
13
227
165
50
40
128
2
14
20
37
10
38
65
22
29
72
64
21
10
86
52
21
5
60
167
255
139
47
35
12
26
32
82
68
83
120
22
99
14
21
17
48
74
12
53
9
92
55
38
35
140
90
0
0
26
51
65
0
0
70
120
137
83
83
45
229
219
20
11
40
26
33
5
45
78
39
28
39
22
64
101
69
1
37
29
5
10
82
183
223
55
16
116
42
36
49
38
67
75
75
7
121
41
44
83
40
63
10
29
53
92
82
73
64
63
105
28
35
3
26
78
0
0
22
110
85
29
65
13
231
137
71
122
50
39
104
67
84
84
12
9
58
56
17
36
19
5
43
32
8
5
30
255
255
8
20
36
16
45
126
67
56
22
13
32
75
112
46
31
22
20
40
30
89
75
112
31
127
42
0
42
123
35
3
38
0
0
44
18
4
39
77
105
255
255
0
62
0
56
25
10
73
128
39
47
36
37
31
19
76
57
140
68
8
0
40
82
226
139
59
0
59
12
100
86
103
18
60
38
78
82
44
43
34
18
114
38
49
1
103
3
81
18
7
39
1
17
13
30
0
0
67
22
35
80
12
34
255
255
46
120
58
58
6
77
60
62
63
56
33
33
85
67
48
12
81
90
29
8
26
255
206
78
60
19
38
29
63
27
58
79
126
3
110
63
13
6
5
38
94
33
33
36
28
23
49
45
40
45
87
60
30
53
0
0
32
16
40
95
84
44
179
228
52
46
50
109
94
44
49
28
35
60
8
48
68
111
48
47
70
79
121
73
104
251
158
40
15
51
85
52
54
82
104
132
72
36
65
8
31
14
0
0
70
54
38
84
73
56
7
31
12
2
89
10
23
109
0
0
105
38
67
136
60
13
255
187
37
31
17
59
81
59
37
117
32
11
27
29
19
21
1
16
45
17
23
6
37
255
255
34
41
113
39
11
62
2
137
83
31
0
97
59
5
28
1
37
88
31
94
95
34
69
66
1
18
34
67
50
65
7
0
0
63
63
116
91
13
25
166
255
41
14
129
54
21
0
41
43
28
20
113
40
40
8
26
74
76
76
42
66
56
143
233
12
2
31
11
6
44
32
56
43
28
29
53
69
58
109
38
48
95
69
41
105
99
39
65
22
39
49
79
77
38
99
0
0
2
35
56
23
19
51
210
150
13
115
89
31
14
22
88
38
9
93
72
25
75
23
48
142
105
116
59
16
4
255
255
6
2
17
25
54
78
2
3
32
0
19
73
19
63
18
1
53
67
8
73
36
107
93
45
35
140
78
89
13
76
106
0
0
43
25
53
81
53
112
255
255
79
65
13
24
1
12
47
35
45
86
0
0
55
84
44
56
66
81
3
15
17
245
195
17
17
68
55
62
120
39
20
29
56
52
91
12
99
45
7
62
68
20
100
34
10
83
56
54
45
20
40
68
78
64
0
0
25
84
29
63
1
47
179
255
27
0
14
43
61
5
75
24
32
123
35
0
30
10
59
78
107
76
66
25
31
255
255
16
2
17
41
49
69
8
71
70
124
40
39
25
38
0
49
81
47
20
7
52
18
76
58
114
12
44
58
62
80
38
0
0
29
35
53
124
73
18
236
120
77
25
8
55
134
56
31
38
37
49
2
20
72
39
88
55
141
38
32
63
44
185
155
61
49
53
32
16
33
14
15
46
86
36
2
7
22
36
53
75
31
8
8
104
96
116
12
56
35
71
70
6
54
16
0
0
32
69
33
5
104
9
255
255
82
33
37
16
77
138
36
34
77
36
28
4
33
18
25
8
39
43
70
79
13
134
133
96
63
104
11
24
53
63
122
69
36
35
8
12
9
19
69
36
0
23
42
81
59
27
112
39
60
102
64
16
0
11
0
0
83
82
85
52
38
88
255
255
69
15
124
44
0
36
28
37
114
68
100
41
38
43
14
4
44
111
32
27
0
255
251
18
39
44
23
79
87
40
67
56
51
60
21
0
17
58
145
44
28
20
88
3
55
64
39
58
100
59
0
0
7
28
0
0
96
87
32
120
90
59
144
141
84
20
67
0
0
30
112
28
41
8
27
44
15
32
17
7
28
107
62
81
117
255
255
77
24
6
22
3
85
41
8
40
38
15
16
35
54
116
90
88
101
96
108
90
13
7
44
125
98
22
0
3
19
46
0
0
0
38
54
51
4
18
253
186
67
87
85
44
36
2
42
11
22
40
68
114
46
31
19
43
60
119
77
79
65
226
145
73
42
21
6
15
43
15
6
43
88
48
47
84
51
66
29
80
121
55
58
45
74
12
20
45
131
38
25
32
34
137
0
0
42
54
71
5
43
16
255
255
77
105
19
5
111
8
22
10
68
1
36
76
28
86
39
29
16
94
113
66
14
255
255
43
104
32
22
18
57
25
24
10
53
82
62
87
0
26
17
40
48
65
80
25
29
13
7
7
50
7
43
84
44
59
0
0
33
39
26
69
115
35
238
201
59
87
77
42
34
35
22
17
62
35
62
150
40
26
21
40
63
34
43
62
47
207
91
91
30
45
74
19
38
30
11
31
10
27
62
160
60
0
42
87
38
28
30
0
0
11
9
46
25
66
6
1
58
75
0
0
40
7
88
56
12
25
180
252
26
28
36
24
20
48
95
100
131
64
24
11
40
11
34
53
128
85
90
0
41
212
255
31
46
54
62
12
15
22
23
10
1
4
1
60
80
36
64
69
12
37
24
0
20
21
98
119
55
16
56
32
64
32
0
0
30
95
101
85
36
20
255
255
29
49
17
56
54
15
69
126
79
8
19
50
100
77
29
10
32
25
63
31
20
228
124
61
42
74
71
1
14
90
53
32
13
1
0
0
139
135
192
74
156
55
47
62
64
20
37
39
23
25
12
3
20
12
0
0
29
42
9
25
27
72
255
255
164
121
255
154
171
236
255
204
255
210
127
255
242
127
255
255
255
210
185
190
255
255
255
42
2
75
84
45
27
23
25
76
12
129
179
255
216
143
117
255
170
164
247
10
50
17
0
30
43
109
39
35
55
60
0
0
80
54
108
65
98
77
22
255
130
253
175
251
214
117
255
248
255
176
237
255
255
255
103
255
255
254
224
226
255
194
30
19
48
88
36
0
0
45
39
40
233
130
255
255
49
46
96
136
104
224
172
228
255
64
59
116
35
41
24
22
55
52
0
0
52
22
6
60
30
16
1
114
99
35
92
33
13
37
15
47
56
71
89
121
59
32
85
63
65
37
38
9
6
69
5
23
23
97
70
40
26
87
54
255
127
48
13
15
93
18
12
66
144
61
21
25
255
255
27
46
4
21
32
11
7
36
0
0
100
33
26
23
30
9
80
106
160
43
23
27
0
25
13
19
58
67
92
26
46
1
4
28
48
59
45
71
40
45
8
47
30
30
13
128
76
14
200
255
142
69
122
92
81
69
127
92
22
146
133
71
8
255
255
1
34
47
89
59
21
79
0
0
96
75
38
16
55
34
47
0
52
31
11
92
76
100
25
42
45
17
56
49
1
15
33
66
43
33
73
133
32
16
24
65
5
24
65
105
76
255
57
108
72
33
54
206
194
45
42
91
122
27
109
4
143
58
255
255
105
44
83
34
2
109
0
0
112
72
5
15
51
30
21
12
21
96
31
79
73
52
28
70
81
13
99
87
71
6
25
127
64
17
21
58
59
14
17
50
59
29
28
35
241
255
124
81
143
38
67
165
70
137
102
4
41
40
211
84
143
20
96
255
232
93
101
27
31
31
0
0
61
146
39
34
20
30
84
48
12
59
61
67
85
35
11
16
42
14
86
3
103
58
5
99
120
52
69
56
47
60
98
94
59
40
9
33
225
117
88
225
211
14
44
119
8
38
66
157
157
91
144
32
163
128
65
185
255
83
22
33
15
15
0
0
25
76
40
99
69
1
67
108
59
74
90
21
48
3
0
16
0
33
44
17
48
86
59
136
78
19
24
121
73
83
122
97
56
19
0
140
167
107
113
47
138
110
17
45
76
117
76
80
35
163
53
54
27
70
65
33
255
202
50
30
0
11
0
0
53
78
34
79
128
58
55
54
21
52
77
13
9
9
16
12
13
6
88
56
7
74
15
63
78
57
101
103
0
38
96
78
89
42
19
184
255
132
121
49
19
3
31
178
202
66
139
25
13
95
64
58
149
23
15
55
115
154
15
0
11
16
0
0
11
18
43
30
60
48
24
26
24
69
92
31
3
21
1
19
12
8
63
31
89
137
0
72
83
30
69
160
59
41
112
76
34
21
40
255
5
91
30
88
43
8
33
5
200
68
7
2
156
92
47
6
110
75
70
18
252
255
6
8
24
57
0
0
28
50
65
14
6
73
61
57
2
84
56
31
18
13
74
35
22
29
73
64
156
99
46
77
45
9
0
85
63
6
77
66
47
56
18
255
53
63
108
49
61
67
103
116
40
59
38
55
150
71
79
36
31
13
65
20
135
255
162
26
18
29
0
0
22
88
71
3
40
93
75
58
78
25
1
26
14
32
32
69
147
65
83
52
39
0
43
64
75
58
26
68
85
59
23
35
62
42
206
25
30
46
69
130
35
84
31
207
101
60
104
62
172
120
40
99
71
60
121
18
127
7
126
5
0
20
0
0
0
88
128
42
18
1
23
4
84
28
22
51
45
134
65
109
96
1
57
100
25
21
56
19
23
117
87
92
20
40
92
106
104
62
112
225
12
53
34
149
44
49
105
126
92
45
9
55
1
35
7
84
65
114
171
105
34
95
87
53
128
87
0
0
102
120
98
40
42
8
37
38
66
0
27
64
48
78
39
42
114
36
20
41
0
15
31
28
19
23
22
45
38
62
100
89
88
60
161
22
106
96
40
41
11
121
74
19
35
67
82
121
33
98
192
92
107
49
65
83
171
252
180
40
50
115
0
0
95
62
72
53
84
86
102
106
37
13
39
23
25
4
25
55
54
0
31
24
11
28
5
8
2
33
59
70
62
4
21
40
39
10
122
178
98
174
117
37
102
137
179
163
76
24
85
27
58
42
146
187
104
36
78
74
57
166
195
136
40
44
0
0
83
128
58
6
41
51
88
98
13
72
122
39
5
17
69
117
57
38
40
54
64
58
60
24
29
2
35
38
69
50
42
25
10
38
34
161
151
78
26
57
212
248
208
0
125
93
42
159
176
198
150
82
81
74
59
56
105
130
164
34
0
51
0
0
13
49
6
11
42
92
89
58
73
46
45
30
36
23
72
53
23
4
54
44
96
57
22
37
133
43
20
7
54
90
94
18
46
118
218
246
82
32
15
22
144
172
90
128
139
125
29
66
51
37
19
103
15
24
135
100
19
153
67
45
25
56
0
0
93
34
29
13
13
57
144
113
64
54
42
54
107
52
18
0
4
23
152
56
37
52
13
13
15
34
30
4
21
74
4
64
34
32
27
255
144
14
86
25
56
34
4
20
14
197
161
30
47
13
85
173
74
127
177
85
255
255
31
81
16
32
0
0
73
84
13
51
63
41
74
119
54
34
19
37
96
1
16
15
0
30
56
68
30
26
0
27
34
51
75
45
16
92
56
77
98
66
36
103
187
6
97
62
57
112
77
42
143
173
173
79
2
62
47
140
62
146
24
43
203
180
20
59
109
74
0
0
94
90
44
90
66
26
42
57
67
151
62
0
63
71
41
44
63
89
30
30
39
39
40
108
36
15
33
64
103
101
42
102
85
51
53
108
188
152
178
50
103
10
112
74
167
62
178
21
56
12
21
21
20
122
50
140
255
173
3
3
68
98
0
0
37
90
93
125
51
62
60
59
22
62
68
31
17
3
33
4
28
8
1
4
19
13
0
27
0
9
27
77
7
120
37
65
30
30
6
54
255
46
142
51
17
118
48
16
147
118
66
122
63
33
24
12
65
195
121
40
223
32
53
17
71
42
0
0
18
35
20
39
29
38
48
34
5
58
51
0
79
128
93
14
58
44
5
6
24
6
0
0
13
12
30
27
63
41
41
103
38
64
8
111
206
238
30
109
11
76
188
201
240
137
33
101
137
54
79
106
19
64
53
255
71
107
120
61
51
65
0
0
20
18
9
7
0
0
35
12
23
85
41
82
82
59
80
47
13
14
4
1
8
19
0
39
4
3
124
82
140
43
40
80
42
0
118
109
120
255
255
1
179
132
37
3
122
124
124
51
80
27
18
187
172
146
236
224
92
84
70
74
49
7
0
0
37
29
29
19
46
56
85
12
9
64
6
27
111
50
81
36
19
5
41
9
25
74
45
67
88
77
46
39
83
34
94
116
37
73
72
44
101
70
145
59
139
62
92
22
114
115
15
83
160
177
92
65
83
255
255
29
40
103
78
143
2
69
0
0
80
42
9
67
108
54
68
22
92
67
108
12
54
32
121
84
5
32
151
32
22
33
15
47
5
95
57
10
73
62
86
50
77
19
38
28
54
10
71
214
255
55
85
77
10
43
59
160
211
200
182
80
220
255
36
20
31
62
52
38
27
3
0
0
60
45
38
69
48
100
7
27
6
30
48
15
0
47
45
129
35
12
46
8
80
73
60
72
71
92
25
16
73
130
74
19
17
70
40
32
25
59
47
59
255
255
164
34
134
151
9
166
164
89
188
255
255
37
124
44
17
68
102
47
35
106
0
0
36
75
25
30
21
79
8
23
62
25
26
13
51
153
19
42
41
39
21
45
95
132
87
133
86
44
120
55
16
42
24
42
90
90
2
21
31
99
31
78
129
204
167
255
191
200
153
216
255
255
176
183
18
17
45
17
0
63
71
80
5
39
0
0
3
44
11
2
40
124
59
4
58
56
15
34
43
61
8
35
139
56
11
95
109
90
17
35
29
59
51
0
7
12
93
71
30
84
66
21
4
44
20
61
19
30
19
49
93
177
195
171
220
17
42
14
78
97
35
36
81
12
16
61
8
16
0
0
22
47
55
19
11
96
108
85
102
68
67
72
57
0
37
1
35
16
22
3
96
60
20
18
76
102
4
11
22
20
45
64
69
89
38
26
52
52
13
29
19
36
35
50
74
2
148
80
160
61
50
6
74
81
37
0
28
46
68
160
72
4
0
0
20
18
56
20
7
107
103
148
106
80
16
15
18
73
83
52
3
53
19
62
88
46
36
14
99
58
45
40
71
14
37
37
40
49
2
72
145
52
34
1
71
111
55
4
79
65
32
34
52
0
63
1
63
65
0
0
64
58
45
121
90
52
0
0
85
89
64
8
50
55
69
50
36
17
19
20
63
33
74
69
44
100
95
73
105
64
61
65
78
47
18
9
54
77
68
59
50
60
61
32
21
36
65
75
5
63
61
49
35
24
87
116
16
50
150
73
80
83
43
63
102
35
53
18
71
26
0
0
52
85
82
64
29
43
88
15
52
92
49
36
18
48
43
16
14
35
71
33
11
22
0
97
75
18
9
28
34
68
50
88
63
37
61
122
51
6
30
46
63
40
9
28
60
75
91
102
12
31
34
14
33
35
29
85
90
46
16
67
73
53
0
0
21
30
59
95
24
56
73
40
37
32
11
13
29
75
88
118
42
34
111
30
60
99
62
73
30
53
46
112
38
90
7
44
63
100
39
64
94
37
0
28
61
62
4
0
15
37
50
142
67
116
31
32
34
8
33
8
92
66
12
65
123
8
0
0
0
0
0
0
0
0
0
0
0
0
0
0
0
0
0
0
0
0
0
0
0
0
0
0
0
0
0
0
0
0
0
0
0
0
0
0
0
0
0
0
0
0
0
0
0
0
0
0
0
0
0
0
0
0
0
0
0
0
0
0
0
0
0
