P2
64 64
255
0
0
0
0
0
0
0
0
0
0
0
0
0
0
0
0
0
0
0
0
0
0
0
0
0
0
0
0
0
0
0
0
0
0
0
0
0
0
0
0
0
0
0
0
0
0
0
0
0
0
0
0
0
0
0
0
0
0
0
0
0
0
0
0
0
0
0
0
0
0
0
0
0
0
0
0
0
0
0
0
0
0
0
0
0
0
0
0
0
0
0
0
0
0
0
0
0
0
0
0
0
0
0
0
0
0
0
0
0
0
0
0
0
0
0
0
0
0
0
0
0
0
0
0
0
0
0
0
0
0
255
255
255
255
255
255
255
255
255
255
255
255
255
255
255
255
255
255
255
255
255
255
255
255
255
255
255
255
255
255
255
255
255
255
255
255
255
255
255
255
255
255
255
255
255
255
255
255
255
255
255
255
255
255
255
255
255
255
255
255
0
0
0
0
255
0
0
0
0
0
0
0
0
0
0
0
0
0
0
0
0
0
0
0
0
0
0
0
0
0
0
0
0
0
0
0
0
0
0
0
0
0
0
0
0
0
0
0
0
0
0
0
0
0
0
0
0
0
0
0
0
0
0
255
0
0
0
0
255
0
0
0
0
0
0
0
0
0
0
0
0
0
0
0
0
0
0
0
0
0
0
0
0
0
0
0
0
0
0
0
0
0
0
0
0
0
0
0
0
0
0
0
0
0
0
0
0
0
0
0
0
0
0
0
0
0
0
255
0
0
0
0
255
0
0
0
0
29
57
85
85
85
85
85
85
85
85
85
85
85
85
85
85
85
85
85
85
85
85
85
57
29
0
0
0
0
0
0
0
0
0
0
0
0
0
0
0
0
0
0
0
0
0
0
0
0
0
0
0
0
0
255
0
0
0
0
255
0
0
0
29
172
255
255
255
255
255
255
255
255
255
255
255
255
255
255
255
255
255
255
255
255
255
255
255
172
29
0
0
0
0
0
0
0
0
0
0
0
0
0
0
0
0
0
0
0
0
0
0
0
0
0
0
0
0
255
0
0
0
0
255
0
0
29
172
48
26
83
57
85
85
85
85
85
85
85
85
85
85
85
85
85
85
85
85
85
57
83
26
48
172
29
0
0
0
0
0
0
0
0
0
0
0
0
0
0
0
0
0
0
0
0
0
0
0
0
0
0
0
255
0
0
0
0
255
0
0
57
255
26
122
255
141
85
85
85
85
85
85
85
85
85
85
85
85
85
85
85
85
85
141
255
122
26
255
57
0
0
0
0
0
0
0
0
0
0
0
0
0
0
0
0
0
0
0
0
0
0
0
0
0
0
0
255
0
0
0
0
255
0
0
85
255
83
255
255
255
255
255
255
255
255
255
255
255
255
255
255
255
255
255
255
255
255
255
255
255
83
255
85
0
0
0
0
0
0
0
0
0
0
0
0
0
0
0
0
0
0
0
0
0
0
0
0
0
0
0
255
0
0
0
0
255
0
0
85
255
57
141
255
170
85
85
85
85
85
85
85
85
85
85
85
85
85
85
85
85
85
170
255
141
57
255
85
0
0
0
0
0
0
0
0
0
0
0
0
0
0
0
0
0
0
0
0
0
0
0
0
0
0
0
255
0
0
0
0
255
0
0
85
255
85
85
255
85
0
0
0
0
0
0
0
0
0
0
0
0
0
0
0
0
0
85
255
85
85
255
85
0
0
0
0
0
0
0
0
0
0
0
0
0
0
0
0
0
0
0
0
0
0
0
0
0
0
0
255
0
0
0
0
255
0
0
85
255
85
85
255
85
0
0
0
0
0
0
0
0
0
0
0
0
0
0
0
0
0
85
255
85
85
255
85
0
0
0
0
0
0
0
0
0
0
0
0
0
0
0
0
0
0
0
0
0
0
0
0
0
0
0
255
0
0
0
0
255
0
0
85
255
85
85
255
85
0
0
0
0
0
0
0
0
0
0
0
0
0
0
0
0
0
85
255
85
85
255
85
0
0
0
0
0
0
0
0
0
0
0
0
0
0
0
0
0
0
0
0
0
0
0
0
0
0
0
255
0
0
0
0
255
0
0
85
255
85
85
255
85
0
0
0
0
0
0
0
0
0
0
0
0
0
0
0
0
0
85
255
85
85
255
85
0
0
0
0
0
0
0
0
0
0
0
0
0
0
0
0
0
0
0
0
0
0
0
0
0
0
0
255
0
0
0
0
255
0
0
85
255
85
85
255
85
0
0
0
0
0
0
0
0
0
0
0
0
0
0
0
0
0
85
255
85
85
255
85
0
0
0
0
0
0
0
0
0
0
0
0
0
0
0
0
0
0
0
0
0
0
0
0
0
0
0
255
0
0
0
0
255
0
0
85
255
85
85
255
85
0
0
0
0
0
0
0
0
0
0
0
0
0
0
0
0
0
85
255
85
85
255
85
0
0
0
0
0
0
0
0
0
0
0
0
0
0
0
0
0
0
0
0
0
0
0
0
0
0
0
255
0
0
0
0
255
0
0
85
255
85
85
255
85
0
0
0
0
0
0
0
0
0
0
0
0
0
0
0
0
0
85
255
85
85
255
85
0
0
0
0
0
0
0
0
0
0
0
0
0
0
0
0
0
0
0
0
0
0
0
0
0
0
0
255
0
0
0
0
255
0
0
85
255
85
85
255
85
0
0
0
0
0
0
0
0
0
0
0
0
0
0
0
0
0
85
255
85
85
255
85
0
0
0
0
0
0
0
0
0
0
0
0
0
0
0
0
0
0
0
0
0
0
0
0
0
0
0
255
0
0
0
0
255
0
0
85
255
85
85
255
85
0
0
0
0
0
0
0
0
0
0
0
0
0
0
0
0
0
85
255
85
85
255
85
0
0
0
0
0
0
0
0
0
0
0
0
0
0
0
0
0
0
0
0
0
0
0
0
0
0
0
255
0
0
0
0
255
0
0
85
255
85
85
255
85
0
0
0
0
0
0
0
0
0
0
0
0
0
0
0
0
0
85
255
85
85
255
85
0
0
0
0
0
0
0
0
0
0
0
0
0
0
0
0
0
0
0
0
0
0
0
0
0
0
0
255
0
0
0
0
255
0
0
85
255
85
85
255
85
0
0
0
0
0
0
0
0
0
0
0
0
0
0
0
0
0
85
255
85
85
255
85
0
0
0
0
0
0
0
0
0
0
0
0
0
0
0
0
0
0
0
0
0
0
0
0
0
0
0
255
0
0
0
0
255
0
0
85
255
85
85
255
85
0
0
0
0
0
0
0
0
0
0
0
0
0
0
0
0
0
85
255
85
85
255
85
0
0
0
0
0
0
0
0
0
0
0
0
0
0
0
0
0
0
0
0
0
0
0
0
0
0
0
255
0
0
0
0
255
0
0
85
255
85
85
255
85
0
0
0
0
0
0
0
0
0
0
0
0
0
0
0
0
0
85
255
85
85
255
85
0
0
0
0
0
0
0
0
0
0
0
0
0
0
0
0
0
0
0
0
0
0
0
0
0
0
0
255
0
0
0
0
255
0
0
85
255
85
85
255
85
0
0
0
0
0
0
0
0
0
0
0
0
0
0
0
0
0
85
255
85
85
255
85
0
0
0
0
0
0
0
0
0
0
0
0
0
0
0
0
0
0
0
0
0
0
0
0
0
0
0
255
0
0
0
0
255
0
0
85
255
85
85
255
85
0
0
0
0
0
0
0
0
0
0
0
0
0
0
0
0
0
85
255
85
85
255
85
0
0
0
0
0
0
0
0
0
0
0
0
0
0
0
0
0
0
0
0
0
0
0
0
0
0
0
255
0
0
0
0
255
0
0
85
255
85
85
255
85
0
0
0
0
0
0
0
0
0
0
0
0
0
0
0
0
0
85
255
85
85
255
85
0
0
0
0
0
0
0
0
0
0
0
0
0
0
0
0
0
0
0
0
0
0
0
0
0
0
0
255
0
0
0
0
255
0
0
85
255
85
85
255
85
0
0
0
0
0
0
0
0
0
0
0
0
0
0
0
0
0
85
255
85
85
255
85
0
0
0
0
0
0
0
0
0
0
18
35
52
52
52
35
18
0
0
0
0
0
0
0
0
0
0
255
0
0
0
0
255
0
0
85
255
57
141
255
170
85
85
85
85
85
85
85
85
85
85
85
85
85
85
85
85
85
170
255
141
57
255
85
0
0
0
0
0
0
0
18
35
70
140
227
255
255
255
227
140
70
35
18
0
0
0
0
0
0
0
255
0
0
0
0
255
0
0
85
255
83
255
255
255
255
255
255
255
255
255
255
255
255
255
255
255
255
255
255
255
255
255
255
255
83
255
85
0
0
0
0
0
0
36
123
245
255
232
117
34
17
34
117
232
255
245
123
36
0
0
0
0
0
0
255
0
0
0
0
255
0
0
57
255
26
122
255
141
85
85
85
85
85
85
85
85
85
85
85
85
85
85
85
85
85
141
255
122
26
255
57
0
0
0
0
0
54
211
147
117
70
23
43
160
91
160
43
23
70
117
147
211
54
0
0
0
0
0
255
0
0
0
0
255
0
0
29
172
48
26
83
57
85
85
85
85
85
85
85
85
85
85
85
85
85
85
85
85
85
57
83
26
48
172
29
0
0
0
0
54
228
251
89
111
92
140
240
255
255
255
240
140
92
111
89
251
228
54
0
0
0
0
255
0
0
0
0
255
0
0
0
29
172
255
255
255
255
255
255
255
255
255
255
255
255
255
255
255
255
255
255
255
255
255
255
255
172
29
0
0
0
0
54
228
255
174
194
255
255
239
136
68
51
68
136
239
255
255
194
174
255
228
54
0
0
0
255
0
0
0
0
255
0
0
0
0
29
57
85
85
85
85
85
85
85
85
85
85
85
85
85
85
85
85
85
85
85
85
85
57
29
0
0
0
0
36
211
251
174
177
255
238
85
34
17
0
0
0
17
34
85
238
255
177
174
251
211
36
0
0
255
0
0
0
0
255
0
0
0
0
0
0
0
0
0
0
0
0
0
0
0
0
0
0
0
0
0
0
0
0
0
0
0
0
0
0
0
0
18
141
164
106
194
255
221
51
0
0
0
0
0
0
0
0
0
51
221
255
194
106
164
141
18
0
255
0
0
0
0
255
0
0
0
0
0
0
0
0
0
0
0
0
0
0
0
0
0
0
0
0
0
0
0
0
0
0
0
0
0
0
0
0
53
255
204
43
255
238
51
0
0
0
0
0
0
0
0
0
0
0
51
238
255
43
204
255
53
0
255
0
0
0
0
255
0
0
0
0
0
0
0
0
0
0
0
0
0
0
0
0
0
0
0
0
0
0
0
0
0
0
0
0
0
0
0
18
140
215
45
243
255
68
0
0
0
0
0
0
0
0
0
0
0
0
0
68
255
243
45
215
140
18
255
0
0
0
0
255
0
0
0
0
0
0
0
0
0
0
0
0
0
0
0
0
0
0
0
0
0
0
0
0
0
0
0
0
0
0
0
35
245
134
43
255
153
17
0
0
0
0
0
0
0
0
0
0
0
0
0
17
153
255
43
134
245
35
255
0
0
0
0
255
0
0
0
0
0
0
0
0
0
0
0
0
0
0
0
0
0
0
0
0
0
0
0
0
0
0
0
0
0
0
0
70
255
70
75
255
68
0
0
0
0
0
0
0
0
0
0
0
0
0
0
0
68
255
75
70
255
70
255
0
0
0
0
255
0
0
0
0
0
0
0
0
0
0
0
0
0
0
0
0
0
0
0
0
0
0
0
0
0
0
0
0
0
0
18
140
232
23
140
239
34
0
0
0
0
0
0
0
0
0
0
0
0
0
0
0
34
239
140
23
232
140
255
0
0
0
0
255
0
0
0
0
0
0
0
0
0
0
0
0
0
0
0
0
0
0
0
0
0
0
0
0
0
0
0
0
0
0
35
227
117
43
240
136
17
0
0
0
0
0
0
0
0
0
0
0
0
0
0
0
17
136
240
43
117
227
255
0
0
0
0
255
0
0
0
0
0
0
0
0
0
0
0
0
0
0
0
0
0
0
0
0
0
0
0
0
0
0
0
0
0
0
52
255
34
160
255
68
0
0
0
0
0
0
0
0
0
0
0
0
0
0
0
0
0
68
255
160
34
255
255
0
0
0
0
255
0
0
0
0
0
0
0
0
0
0
0
0
0
0
0
0
0
0
0
0
0
0
0
0
0
0
0
0
0
0
52
255
34
74
255
51
0
0
0
0
0
0
0
0
0
0
0
0
0
0
0
0
0
51
255
74
34
255
255
0
0
0
0
255
0
0
0
0
0
0
0
0
0
0
0
0
0
0
0
0
0
0
0
0
0
0
0
0
0
0
0
0
0
0
52
255
51
57
255
51
0
0
0
0
0
0
0
0
0
0
0
0
0
0
0
0
0
51
255
57
51
255
255
0
0
0
0
255
0
0
0
0
0
0
0
0
0
0
0
0
0
0
0
0
0
0
0
0
0
0
0
0
0
0
0
0
0
0
52
255
34
74
255
51
0
0
0
0
0
0
0
0
0
0
0
0
0
0
0
0
0
51
255
74
34
255
255
0
0
0
0
255
0
0
0
0
0
0
0
0
0
0
0
0
0
0
0
0
0
0
0
0
0
0
0
0
0
0
0
0
0
0
52
255
34
160
255
68
0
0
0
0
0
0
0
0
0
0
0
0
0
0
0
0
0
68
255
160
34
255
255
0
0
0
0
255
0
0
0
0
0
0
0
0
0
0
0
0
0
0
0
0
0
0
0
0
0
0
0
0
0
0
0
0
0
0
35
227
117
43
240
136
17
0
0
0
0
0
0
0
0
0
0
0
0
0
0
0
17
136
240
43
117
227
255
0
0
0
0
255
0
0
0
0
0
0
0
0
0
0
0
0
0
0
0
0
0
0
0
0
0
0
0
0
0
0
0
0
0
0
18
140
232
23
140
239
34
0
0
0
0
0
0
0
0
0
0
0
0
0
0
0
34
239
140
23
232
140
255
0
0
0
0
255
0
0
0
0
0
0
0
0
0
0
0
0
0
0
0
0
0
0
0
0
0
0
0
0
0
0
0
0
0
0
0
70
255
70
75
255
68
0
0
0
0
0
0
0
0
0
0
0
0
0
0
0
68
255
75
70
255
70
255
0
0
0
0
255
0
0
0
0
0
0
0
0
0
0
0
0
0
0
0
0
0
0
0
0
0
0
0
0
0
0
0
0
0
0
0
35
245
134
43
255
153
17
0
0
0
0
0
0
0
0
0
0
0
0
0
17
153
255
43
134
245
35
255
0
0
0
0
255
0
0
0
0
0
0
0
0
0
0
0
0
0
0
0
0
0
0
0
0
0
0
0
0
0
0
0
0
0
0
0
18
140
215
45
243
255
68
0
0
0
0
0
0
0
0
0
0
0
0
0
68
255
243
45
215
140
18
255
0
0
0
0
255
0
0
0
0
0
0
0
0
0
0
0
0
0
0
0
0
0
0
0
0
0
0
0
0
0
0
0
0
0
0
0
0
53
255
204
43
255
238
51
0
0
0
0
0
0
0
0
0
0
0
51
238
255
43
204
255
53
0
255
0
0
0
0
255
0
0
0
0
0
0
0
0
0
0
0
0
0
0
0
0
0
0
0
0
0
0
0
0
0
0
0
0
0
0
0
0
18
141
164
106
194
255
221
51
0
0
0
0
0
0
0
0
0
51
221
255
194
106
164
141
18
0
255
0
0
0
0
255
0
0
0
0
0
0
0
0
0
0
0
0
0
0
0
0
0
0
0
0
0
0
0
0
0
0
0
0
0
0
0
0
0
36
211
251
174
177
255
238
85
34
17
0
0
0
17
34
85
238
255
177
174
251
211
36
0
0
255
0
0
0
0
255
0
0
0
0
0
0
0
0
0
0
0
0
0
0
0
0
0
0
0
0
0
0
0
0
0
0
0
0
0
0
0
0
0
0
54
228
255
174
194
255
255
239
136
68
51
68
136
239
255
255
194
174
255
228
54
0
0
0
255
0
0
0
0
255
0
0
0
0
0
0
0
0
0
0
0
0
0
0
0
0
0
0
0
0
0
0
0
0
0
0
0
0
0
0
0
0
0
0
0
54
228
251
89
111
92
140
240
255
255
255
240
140
92
111
89
251
228
54
0
0
0
0
255
0
0
0
0
255
0
0
0
0
0
0
0
0
0
0
0
0
0
0
0
0
0
0
0
0
0
0
0
0
0
0
0
0
0
0
0
0
0
0
0
0
54
211
147
117
70
23
43
160
91
160
43
23
70
117
147
211
54
0
0
0
0
0
255
0
0
0
0
255
0
0
0
0
0
0
0
0
0
0
0
0
0
0
0
0
0
0
0
0
0
0
0
0
0
0
0
0
0
0
0
0
0
0
0
0
0
36
123
245
255
232
117
34
17
34
117
232
255
245
123
36
0
0
0
0
0
0
255
0
0
0
0
255
0
0
0
0
0
0
0
0
0
0
0
0
0
0
0
0
0
0
0
0
0
0
0
0
0
0
0
0
0
0
0
0
0
0
0
0
0
0
18
35
70
140
227
255
255
255
227
140
70
35
18
0
0
0
0
0
0
0
255
0
0
0
0
255
0
0
0
0
0
0
0
0
0
0
0
0
0
0
0
0
0
0
0
0
0
0
0
0
0
0
0
0
0
0
0
0
0
0
0
0
0
0
0
0
0
18
35
52
52
52
35
18
0
0
0
0
0
0
0
0
0
0
255
0
0
0
0
255
0
0
0
0
0
0
0
0
0
0
0
0
0
0
0
0
0
0
0
0
0
0
0
0
0
0
0
0
0
0
0
0
0
0
0
0
0
0
0
0
0
0
0
0
0
0
0
0
0
0
0
0
0
0
0
0
0
0
255
0
0
0
0
255
255
255
255
255
255
255
255
255
255
255
255
255
255
255
255
255
255
255
255
255
255
255
255
255
255
255
255
255
255
255
255
255
255
255
255
255
255
255
255
255
255
255
255
255
255
255
255
255
255
255
255
255
255
255
255
255
255
255
255
0
0
0
0
0
0
0
0
0
0
0
0
0
0
0
0
0
0
0
0
0
0
0
0
0
0
0
0
0
0
0
0
0
0
0
0
0
0
0
0
0
0
0
0
0
0
0
0
0
0
0
0
0
0
0
0
0
0
0
0
0
0
0
0
0
0
0
0
0
0
0
0
0
0
0
0
0
0
0
0
0
0
0
0
0
0
0
0
0
0
0
0
0
0
0
0
0
0
0
0
0
0
0
0
0
0
0
0
0
0
0
0
0
0
0
0
0
0
0
0
0
0
0
0
0
0
0
0
0
0
